/* XPM */
static char *_0b63ecffbc04aeefadb698df6f09b06CZKDopGeYjHoOc0M[] = {
/* columns rows colors chars-per-pixel */
"256 256 236 2 ",
"   c #1D0E15",
".  c #1F1017",
"X  c #230F19",
"o  c #210F16",
"O  c #25131C",
"+  c #29151F",
"@  c #29181F",
"#  c #26171D",
"$  c #271720",
"%  c #2B1621",
"&  c #2B1922",
"*  c #2F1E28",
"=  c #261820",
"-  c #311724",
";  c #321C26",
":  c #341E29",
">  c #391E2C",
",  c #381C27",
"<  c #3D1F30",
"1  c #35202A",
"2  c #3B222D",
"3  c #36232A",
"4  c #3D2531",
"5  c #3E2933",
"6  c #2F2028",
"7  c #40232F",
"8  c #422633",
"9  c #442A35",
"0  c #482B37",
"q  c #462B39",
"w  c #4C2E3A",
"e  c #492737",
"r  c #512E3D",
"t  c #4E313E",
"y  c #47313A",
"u  c #51313F",
"i  c #52393E",
"p  c #411F2D",
"a  c #4F2F40",
"s  c #502F40",
"d  c #4F3140",
"f  c #493840",
"g  c #513241",
"h  c #593646",
"j  c #563945",
"k  c #5A3946",
"l  c #573648",
"z  c #5A3748",
"x  c #573948",
"c  c #5C3A4B",
"v  c #5F3E50",
"b  c #613B4C",
"n  c #693E4F",
"m  c #61374A",
"M  c #633E51",
"N  c #693E51",
"B  c #5E414D",
"V  c #574048",
"C  c #5F4150",
"Z  c #64424D",
"A  c #69454F",
"S  c #694A4E",
"D  c #674254",
"F  c #664255",
"G  c #674254",
"H  c #6A4355",
"J  c #6D4954",
"K  c #6C4659",
"L  c #6E495B",
"P  c #654B57",
"I  c #714556",
"U  c #724C56",
"Y  c #72465A",
"T  c #734B5C",
"R  c #794C5E",
"E  c #78465C",
"W  c #68545C",
"Q  c #75515B",
"!  c #7B525D",
"~  c #76555A",
"^  c #754C61",
"/  c #7C4F62",
"(  c #7C4F62",
")  c #794963",
"_  c #765261",
"`  c #7D5164",
"'  c #7C5B66",
"]  c #7E5369",
"[  c #7B5C69",
"{  c #6E5863",
"}  c #79646A",
"|  c #815B5E",
" . c #814F5E",
".. c #82615F",
"X. c #824E65",
"o. c #834F69",
"O. c #894F66",
"+. c #815466",
"@. c #845A65",
"#. c #83556A",
"$. c #8A556D",
"%. c #84596B",
"&. c #8B5B6D",
"*. c #895967",
"=. c #91576E",
"-. c #915A6E",
";. c #8C5671",
":. c #865A70",
">. c #8C5A72",
",. c #915772",
"<. c #935C75",
"1. c #9A5D76",
"2. c #955E79",
"3. c #9A5E7A",
"4. c #8D616C",
"5. c #886369",
"6. c #91636E",
"7. c #94696D",
"8. c #8D6272",
"9. c #8A6674",
"0. c #946374",
"q. c #996575",
"w. c #966974",
"e. c #9B6B75",
"r. c #95617A",
"t. c #9B637D",
"y. c #9C6B7A",
"u. c #956B7B",
"i. c #9D7277",
"p. c #98706E",
"a. c #A2637E",
"s. c #A26D7C",
"d. c #A6677C",
"f. c #A4727C",
"g. c #A9747E",
"h. c #A8797C",
"j. c #9E6581",
"k. c #9D6B81",
"l. c #9A7682",
"z. c #A26482",
"x. c #AA6782",
"c. c #A46A84",
"v. c #AB6B85",
"b. c #A66C89",
"n. c #AB6D8A",
"m. c #B16C87",
"M. c #B36E8A",
"N. c #BA6E8C",
"B. c #A47383",
"V. c #AB7583",
"C. c #AE7984",
"Z. c #AC728C",
"A. c #A87988",
"S. c #B17B85",
"D. c #B3728C",
"F. c #BB728E",
"G. c #B47D8A",
"H. c #B67A89",
"J. c #AF7391",
"K. c #AE7893",
"L. c #B47493",
"P. c #BB7593",
"I. c #B57B93",
"U. c #BC7A95",
"Y. c #BB7798",
"T. c #BD7A9B",
"R. c #AF6F91",
"E. c #C37695",
"W. c #C37996",
"Q. c #C37C9C",
"!. c #CA7C9B",
"~. c #C77798",
"^. c #C47EA1",
"/. c #C87FA2",
"(. c #A78289",
"). c #BB838D",
"_. c #B7858A",
"`. c #BC8493",
"'. c #B88896",
"]. c #B58D96",
"[. c #BC98A3",
"{. c #C1898C",
"}. c #C18693",
"|. c #C48A94",
" X c #C4829C",
".X c #CB829E",
"XX c #C48B9B",
"oX c #CA8C9A",
"OX c #C98E97",
"+X c #CB9398",
"@X c #D2959E",
"#X c #D69A9F",
"$X c #D1819E",
"%X c #DAA19F",
"&X c #C681A2",
"*X c #CB83A4",
"=X c #CC85A9",
"-X c #CE89A6",
";X c #D285A4",
":X c #D38AA5",
">X c #D186AA",
",X c #D48BAA",
"<X c #DB8DAC",
"1X c #D888A6",
"2X c #CA95A3",
"3X c #D495A3",
"4X c #D69AA2",
"5X c #DB9CA4",
"6X c #DB93AD",
"7X c #D997A9",
"8X c #DD93B1",
"9X c #D698B2",
"0X c #D58FB1",
"qX c #E18FAF",
"wX c #E298AE",
"eX c #E394B3",
"rX c #E996B6",
"tX c #ED9BBB",
"yX c #E999B7",
"uX c #F39DBE",
"iX c #E18FB1",
"pX c #D7A4A8",
"aX c #E4A2AB",
"sX c #E5A7A7",
"dX c #EDAAB1",
"fX c #E9A3B8",
"gX c #F4A4BD",
"hX c #F2ABB6",
"jX c #EFB2AE",
"kX c #DEC0BC",
"lX c #F69FC1",
"zX c #F89FC2",
"xX c #EC9FC0",
"cX c #F6A1C2",
"vX c #F9A1C4",
"bX c #F9A7C9",
/* pixels */
"# $ $ $ $ $ $ $ $ $ $ $ $ & & @ $ $ $ $ $ $ $ $ $ $ @ 2 k h u w 9 2 2 2 2 2 2 2 2 2 8 q j j x g t w w q q 2 4 w g H =.$.u & % & % q g g c G G F G K z.8 % % $ & 2 b F F F F F F F F b g u u t t g g g x D H F F F F F F F F F F F G c M F F F F F F F F H H Z.+.; 1 1 1 1 1 1 1 1 1 1 1 1 1 1 1 1 1 1 1 1 1 1 1 1 1 2 1 : : : 1 1 1 1 1 1 1 1 1 1 : 1 1 1 1 1 1 1 2 4 2 - % % @ + + + + + + + + O # O O O O O O X O O O O O O O O % % $ $ $ $ > 2 2 2 2 2 2 2 2 2 2 2 2 2 u 5 R #.#.` ( ( ( ( ( ( ` F.P.q : t h c z g d a h c c ",
"# $ $ $ $ $ $ $ $ $ $ $ & & & $ @ $ $ $ $ $ $ $ $ $ @ 1 8 q w w w q 2 2 2 2 2 2 2 2 2 2 q g g w w w w q 8 2 7 q q w h X.X.q $ % % q b N F F H F F G >.N @ % $ $ : c G F F F F F F F N h t g j g t g t g G G F F F F F F F F F F F c g b F F F F F F H H L K D.) ; 1 1 1 1 1 1 : : : : : : : : : : : : : : : : : : : : : : : : : 1 1 1 1 1 1 : ; & $ $ & & ; 1 2 5 5 5 5 2 1 : - @ @ @ @ @ @ @ @ @ @ @ @ @ @ @ % % % % % @ $ @ @ % $ $ $ $ $ $ > 2 2 2 2 2 2 2 2 2 2 2 2 8 j q L #.` ( ( ( ( ( ( ( ` !.P.w : t g d d g g g g d g ",
"# $ $ $ $ $ $ $ $ $ $ $ $ $ @ $ & $ $ $ $ $ $ $ $ $ $ 1 2 9 w w w q 4 2 2 2 2 2 2 2 2 2 2 q t w w w w q 8 2 2 q w w w r H H 2 % % w N F F K L H F G H ( - & & & ; c F F F F F F F F F M b G G x t g t g M G F F F F F F F F F F F z g M F F F F F K L L L T Z.K ; 1 : ; ; 1 4 0 t g l c c b b b b c c x h h h h x c c j 0 2 & & 1 1 1 1 ; & $ $ $ $ $ $ $ & 2 9 9 5 4 1 : : ; & # # # # # # # # # # # # # # # # # # # # # # # @ $ $ $ $ $ $ $ > 2 2 2 2 2 2 2 2 2 2 2 2 8 g 9 L ` ( ( ( ( ( ( ( ( ( P.E.w : t g g d g g g t t g ",
"# $ $ $ $ $ $ $ $ $ $ $ $ $ $ 6 6 & $ $ $ $ $ $ $ $ $ 2 2 2 q q w q 8 7 8 q 8 2 2 2 2 q q q q w w w w w q 2 2 9 w w w q 9 b k & $ q b K K L L L F F N ;.l $ $ ; 1 x F F F F H K T R R G c G G j t g g c G G F F F F F F F F F F G c M F F F F F H T L L L K n.c : 1 9 I r.D.W..X:X,X6X8X8X8X8XeXeXeXeXeXeXeXeXrXeX<X$XF.m.x.,.r ; : 1 1 & @ $ $ $ $ $ & & 1 q y t q q q q w q 4 8 8 9 9 9 9 q q q w w w w q w w w w w w q q 4 : $ % $ $ $ $ & 2 2 2 2 2 2 2 2 2 2 2 8 q d b 5 H ( ( ( ( ( ( ( ( ( H z.E.w ; t g g g g g g l l g ",
"# $ $ $ $ $ $ $ $ $ $ @ $ 6 1 1 1 1 $ $ $ $ $ $ $ @ & 2 2 2 2 9 q w w w w w q q 8 2 2 q q w w w w w w w w 0 q q w w 0 8 2 w n : $ q D T L L L H F F G / $.& $ ; 1 h F F H T ` 0.|.dX5X0.c b G g t t x G G F F F F F F F F F F F F F F F F F F F K L L K H K b.a 1 4 &.c.r.&.%.%.%.&.>.<.$.#.$.1.n.L.L.P.U.U.Q..XU.M.F.E.E.E.~.1.& ; : : 8 w h c G H T E X.$.Z.I.L.L.P.Y.T.T.z.3.3.t.j.t.t.j.j.z.z.z.j.j.z.z.a.a.a.a.a.a.t.t.3.$.) l : % $ $ & 2 2 2 2 2 2 2 2 2 2 0 t j l b 4 N ( ( ( ( ( ( ( ( ( T z.E.w & t d g g g g g c c l ",
"# $ $ $ $ $ $ $ $ $ $ $ & 2 1 1 ; $ $ $ $ $ $ $ $ @ & 2 2 2 2 2 7 q q w w w w w q q 8 2 8 q w w w w q 0 0 q q w w q 7 2 2 8 n 2 % q K L L H F G F F F K t.4 $ 1 : l F H R _ R R w.).).0.h j g t g x G G G F F F F F F F F F F F F F F F F F F K T T K H F T z.8 1 g ( R ( ( R Y Y ( R G b b b b N Y T T Y K K N b N Y $.M.E.E.x.; % & w %.%.` K b c c c c H L ] ] ] +.%.$.%.Y Y Y ) ) / / o.o.O.#.#.o.o.o.#.$.$.;.<.2.3.j.j.a.a.a.t.( : $ $ & 2 2 2 2 2 2 2 2 2 8 t j j x h 1 b ( ( ( ( ( ( ( ( ( T z.E.w & t d g g g g u g u g ",
"# $ $ $ $ $ $ $ $ $ $ $ 1 1 1 & $ @ $ $ $ $ $ $ $ @ & 2 2 2 2 2 2 2 2 q w w w w w w q w 0 q w w w w 9 2 2 2 8 9 q q 2 2 2 4 c 8 $ w K L H D F F F F F F %.k @ : 1 g F F H H L T ` %.*.&.G x j l c G G F F F F F F F F F F F F F F F F F F F H T K L F F G ^ ,.2 1 G ( ( ( ( G b b G b b b b b b b b b b b b b b b b b b I v.E.x.: % & x T +.@.T Q x x g x c x c G G G G G z t t t t t d d g u u u g d d u g g g g h z c N Y X.<.t.a.3.w % $ & 2 2 2 2 2 2 2 2 2 q j g j x u 1 b ( ( ( ( R Y K G b c =.E.w & w t d g g g g x c G ",
"# $ $ $ $ $ $ $ $ $ $ 1 3 3 & $ @ $ $ $ $ $ $ $ $ $ ; 2 2 2 2 2 2 2 2 8 q w w w w w w w w w w w w w q 8 2 2 2 9 q 8 2 2 2 2 g w & t c K G G F F F F F G H H % & ; g H F F F L T T T _ J ! k l G G G G F F F F F F F F F F F F F F F F F F K T T K G G F G / ) > 9 T ( ( ( R n b b b b b b b b b b b b b b b b b b b b b c <.*XP.2 ; 1 c Y }.y.Z R c H x j c j g c F F F G g g g g g g g g g g g g g g d d g g g g g t t t t g l Y 3.a.h % % & 2 8 q q 2 2 2 2 q j j j j x u 1 b ( ( ( Y b b c b b c $.E.w # % - : : > 2 2 9 0 q ",
"# $ $ $ $ $ $ $ $ $ ; 3 ; 6 $ $ $ $ $ $ $ $ $ $ $ $ : 2 2 2 2 2 2 2 2 8 q q 0 0 q q q w w w w w w w q 2 2 2 8 w q 8 2 2 2 2 w g 1 t l b G F F F F F F F F T & @ $ q c M G F H K L Y ^ b b K h G G G G G F F F F F F F H 5.Y F F F F F F H L K T H F F F G ` c : g ( ( ( ( Y b b b b b b b b b b b b b b b b b b b b b b c 1.uX<X5 1 1 g b *.T l g g c c x x g d l M G M l d g g g g g d g g g g g g g g g g g g g g g g g g g g g $.a.b $ $ ; 0 q q w 0 8 0 g g u j t t g w : c ( ( ( G b b b b b c X.E.w # # O O O O O # & & - ",
"$ $ $ $ $ $ $ $ $ 6 3 3 & $ @ $ $ $ $ $ $ $ $ $ $ $ : 2 2 2 2 2 7 8 2 2 8 7 2 2 2 2 8 q w w w w w 0 2 2 2 2 2 q w q 2 2 2 2 w x & t g h F F F F F F F G G #.: @ $ 8 g g h b F H H H Y F G H H G G G F F F F F F F F F H %.Y F F F F F K L L L L K K F F G ) 9 > b _ ( ( ( Y b b b b b b b b b b b b b b b b b b b b b b b <.tX<Xq 1 1 j c b x x j j g c g g d d d g l g d g g d g g g d g g g g g g g g d d g g g g g g g d g g g X.a.N $ & 2 q w w w w w u x j j t q q g w : c ( ( R b b b b b b c X.*Xx & $ $ $ $ & & 1 2 2 4 ",
"$ $ $ $ $ $ $ $ & 3 1 2 $ $ $ $ $ $ $ $ $ $ $ @ $ $ : 2 2 2 q q q q q 2 2 2 2 2 2 2 2 0 w w w w w q 8 2 2 2 2 2 8 7 2 2 2 8 t c 1 d x l G F F F F F G z l #.2 @ @ 8 g u g g c G F F H F F F F F F G F F F F F H F F F F F F F F F K K L K L H H Y 6.K F H N 1 2 K _ ( ( ( Y b b b b b b b b b b b b b b b b b b b b b b N q.wX.X9 * 1 x G x g j c c j g t d d d d d g g g g g d g g d t g g g g g g g d t t g g d d g u t d g g t T a.Y & & 2 q w w w t x j j u t w w q w 2 & g Y I N b b b b c b N &.yXM q ( ( K Y Y #.2.2.2.r.",
"% $ $ $ $ $ $ 1 3 3 3 1 $ @ @ $ $ $ $ $ $ $ $ & & & 2 8 q q q q q 8 2 2 2 2 2 2 2 2 2 q w w w w w w q q 8 2 2 2 2 2 2 q 8 q q x & t b x G F F F F F b g w Y 2 @ @ ; g l h g g z G H H H H F F F F F G F F F F H F F F F F F F F G c K L L H G G H Y F F H w : 8 R ( ( ( ( R b b b b b b b b b b b b b b b b b b b b b b b -.3XF.4 $ $ q l j c c x g d t g d g g g g g g g g d t g g d d g g g g w g w g t g g g g t t t t t g g t H a./ ; : 2 w w w w w g j u w w w w 2 9 ; @ q b b b b b b N H Y ( <.rXb g ` Y c h b K L K K K ",
"% $ $ $ $ 1 & 1 6 1 & & $ $ & ; ; ; ; & $ $ ; 1 : 1 q q q q q 2 2 2 2 2 2 2 2 2 2 2 2 0 w w w w w w w w q q q 2 2 8 2 q q q q g $ 2 g t l G F F F G z g w H 2 $ & & : w u w 8 8 q g g g l l l h x x c c c c b b b b b M M M M H F x G H G N G N N N N N h 2 : q ( ( ( ( ( ( T N b b b b b b b b b b b b b b b b b b b b b X.W.D.1 $ % 8 u t j x g j d g g g g g g g g g g g g g g g g u d d g g l g g g g g g g g g g t t d g g t c 3.3.4 1 2 w w w w w w u w w w w w 2 q - @ q b G K Y T R ( ( ( ( >.eXb t H F b c M G G G G D ",
"$ $ $ & & 2 3 3 1 $ @ $ $ $ $ ; 6 1 1 : ; ; : 1 : 1 q q q 2 2 2 2 2 2 2 2 2 2 7 8 8 8 w w w w w w w w w w w w 9 2 9 q q q 8 2 u % 2 d t u l G F F G g g w H 2 @ & : - % % @ O O O + @ @ @ @ @ @ @ % % % % % % & & & & & - - : > q 1 : - - ; ; ; : : ; - : : ; w ` ( ( ( ( ( ( H b b b b b b b b b b b b b b b b b b b b b Y P.m.1 $ % q j l u l g x g g g x j g g g t t t g l j g g t t t d g G U G G x t g g g g g g g d d g g t l ,.t.9 : 2 w w w w w w q w w w w w 7 q - & g ( ( ( ( ( ( ( ( ( ( &.8XZ d K L F F F F F F F H ",
"$ $ $ 5 5 5 1 & $ # # # # $ $ $ & & ; 1 1 1 1 : - & 2 7 2 2 2 2 2 2 2 2 2 2 2 9 q q q q w w w w w w w w w w w 0 7 4 q 9 4 2 2 w $ 2 d t t t h G F c g g w H 4 @ $ : : 1 1 1 & @ $ : 1 1 1 1 : : : : : : 1 1 1 1 1 : : : : : 8 k j 2 & : : : : : ; ; ; ; : 1 : t ` ( ( ( ( ( T b b G b b b b b b b b b b b b b b b b b b b H F.M.1 $ & q 6.! l g g u g x M G G g g g g g g l G G b b c g g l j T S.` G h g g g g g g g g g g g g t d >.L.w ; 2 w w w w w w w w w w w q q u : : g ( ( ( ( ( ( ( ( ( ` %.6XG d K H F F F F F F F H ",
"$ $ $ 1 5 4 2 4 q q q q q q 8 4 2 2 2 8 8 2 1 : - & 2 2 2 2 2 2 2 2 2 2 2 2 2 2 8 q q q w w w w w w w w w w w q q q 2 8 2 2 2 w $ 1 g x c l g g z h g g w G 2 @ ; : > 5 2 1 : % % & : : : : 1 1 2 2 2 2 2 2 2 2 2 2 2 1 1 2 y V.! 2 1 1 1 1 1 1 1 1 : 1 1 1 : q ( ( ( ( ( ( Y G K K G G b b b b b b b b b b b b b b b b b H M.M.2 $ $ q 6.+.x g g l b G F F F c d g c G M G F F F F F x x c x Z U Z j t g g g g g g g g g g g g l x r.Y.q % ; 8 9 0 q q w w w w w w q w g : : t ( ( ( ( ( ( ( ( ( ` %.,XZ q F F F F F F F F F H ",
"2 % % & g K Y Y Y I I Y Y Y Y T ^ ^ ) 2.t.2.h : : ; 8 9 q q 7 2 2 2 2 2 2 2 2 2 2 2 2 0 w w w w w w w w w q w w q 8 2 2 2 2 2 w $ 1 g b G G b c c b b c x ^ 9 & 1 4 4 5 4 : $ $ ; 2 w N T ` >.r.t.s.c.b.b.n.b.b.c.z.t.3.2.X.( q.<.q.0.$.#.` ^ T R b q 1 ; 1 : 8 E ( ( ( ( ( +.T ` R I H b b b b b b b b b b b b b b b b b N m.M.2 $ % 2 j g g g g x M F F F F G l d g z M F F F F F F G x x l l g g g g d d g g g g g g g g u x G G ;.Q.a $ & 2 2 2 8 q w w w w w w w u u : 1 t ( ( ( ( ( ( ( ( ` +.%.-XZ 9 F F F F F F F F F H ",
"H & % 2 x l g g u t t g g g g g g g l M M ( 2.1 : 2 t g g t 8 2 2 2 2 2 2 2 2 2 2 2 9 q w w w w w w w q 8 7 9 q 8 2 2 2 2 2 2 r & : d x G F G G G F F F M #.w : 5 9 9 5 q d H #.#./ $.r.2.<.>.r.k.].B.;.;.>.>.<.<.t.j.j.c.;.$.<.Z.oXoXT.T.T.Q.*X3X-XL.j.H 4 1 2 G ( ( ( ( ` %.@.w.y.` G b b b b ` T b b b b b b b b b b b b x.M.2 $ $ : t g g g g g g M F F F F M l g g c F F F F F H L K c h g t g g g g g g g g g g g g t g Z G G T b.l # & 8 8 9 w q w w w w w w w u w : : q R ( ( ( ( ( ( ( +.#.%. Xc 8 F F F F F F F F F H ",
"b & $ 5 t g g g g u u g g g g g g g g g g g $.9 : 4 j j j t 8 2 2 2 8 8 7 2 2 2 2 8 q q w w w w w w w 0 2 2 2 2 2 2 2 2 2 2 2 r - 1 g x F F F F F F F F M %.g 2 5 9 4 G %.#.` ^ K F M M M M F F %.8.L F G G G F M M G M F c l c ^ 0.>.^ Y ^ ( %.s.c.b.Q.*X` : : g ( ( ( ` #.%.` |.4X*.G b K H H g.q.b I b b b b b b b b b b a.M.4 : & : w d g g g g t c F F F F F G b b F F F F F F L L L G g g u t t g g g g g g g g g t u x G G b z 2.N & 1 w w w w w w w w w w w w g q : : q ( ( ( ( ( ( ( #.%.%.` U.c 5 N F F F F F F F F F ",
"c & $ q d g g g t t g u g g g d g g g g g d +.9 1 9 j j u 8 2 2 2 q q q w 8 2 2 2 0 w w w w w w w w w w q 2 2 2 2 2 2 2 2 q q b 2 9 G G F F F F H F F F M %.g 4 9 4 j L D G G G F F F F F F K ^ _.].T H F F F F F F F F F F G b F L H F F F G G H H H T b.D.8 : q R ( ` ` ` %.&.V.G.` I G _ ( R Y G b b b b b b b b b b b T D.D.4 $ $ & w g g g g g t x F F H K H F F F F F F F H L T L H b s g t g l g g d g g u g g g l c G G h g g z.#.& 2 w w w w w w w w w w w q g 8 : : q R ( ( ( ( ( ` #.#.%._ D.c 4 N F F F F F F G c x ",
"H & : t t g g u u x b g t g t d g g g g g w ( 9 1 q j g q 2 2 2 8 q w w w q 2 2 9 w w w w w w w w w w w q 8 2 2 2 2 2 2 8 q q n 8 9 G G F F F F K K F F M %.c 4 5 9 b G G G F F F F F F F F F L 9.9.Y H F F F F F F F F F G c g l G F F F F F F H F H L T L.l : 2 Y _ _ L Y K R +.+.N N H +.H Y H b b b b b b b b b b b G s.3XW.4 $ $ & w g g g g g x G F F %.f._ F F F F F F F K L T L F b g g l G G l g g g g t g l b G G c g t g g c.r.; 2 w w w w w w w w w w w w g 2 : : q R ( ( ( ( #.#.%.%.%._ v.x 4 N F F F F F G x d g ",
"Y 1 9 b h u g u u x x g g g t t g g g g g w H 5 5 q j t 8 2 2 8 w w w w w 0 8 9 q w w w w w w w w w w w w q 8 2 2 2 2 2 8 w q b 8 9 G G F F F F H H K H G ;.c 4 1 d G G G G c H f.R F F F F F L L Y H F F F F F F H ( K F H b g g b F F F F F F H H R w.L Z.K : 2 H ` K K K b b H I n b b b b b b b b b b G G b b b b H R 0.oX<Xq & : : x M b b b G G F F H &.G.%.F F F F G F L L L L L F G M b G F F c g d d g g c M M c l g d d g c r.j.: 1 w w w w w w w w w w w 0 9 1 : : 9 R ( ` #.+.+.#.#.` ` _ c.l 4 N F F F b x l g g g ",
"H : w G N j g g g g g g g g g g g u g g g t F 9 4 q q 8 2 2 2 0 w w w w w q w w w w w w w w w w w w w w w w 0 2 2 2 2 2 8 w q b q 8 G G F F F F F K S.C.L %.c 4 2 c G F F G j x 4.L F F F F F H F H F F F F F F H T 4.K F K Y g g G F F F G M K e.8.Y ` F j.$.1 1 G %.` ` ^ N b b N b b b b b b b b b b b b b b b G T ( ( ( D.eXu : : : x F F F F F F F F F H R H F F F H K K L L K K H F F F F F F F G c x c b c l g g d d g g l c G $.b.1 : q w w w w w w w w q 2 @ O $ ; : 4 T ( ` %.%.#.+.( ( ( ( t.u 4 M M c l g g g g g g ",
"G 1 j G G h g t g g g g g g g g t u g g g w L 5 3 2 2 2 2 2 8 q w w w w w w w w w w w w w w w w w w w u w w q q 8 9 q q q b t b q 8 F F F F F F F L OX+X^ ;.c 2 8 Z b G G c g u g l c G F F F F F F F F F F F F H %.( F F F G c c G F F F c l K OX).K H G >.j.8 5 x %.` ` ` R b b b b b b b b b b b b b b b b N Y ( ( ( ( ( v.rXg * 1 : l H G F F F F F F F F F F F F G H T T L L F G F F F F F F F F F F F F N l d d d g g x M G F G ^ b.4 : 8 w w w w w w 0 2 - o   # $ & : : c #.%.%.%.#.` ` ` ` ( H 2 : 8 9 q q q q q q q q ",
"c 1 x F G G c g g g g g g g g g g g g t g j L 9 1 2 2 2 2 2 8 q w w w w w w w w w w w w w w w w t w w c u t w w w q q q j w.b b q 8 G G F F F G H K ` _ L %.j 1 q x x F b g g g g d x G F F F F F F F F F F F F H Y H F F F F G F F F F F x g l ! T c F G ` Z.t 5 g ` ( ( ( ( Y H N b b b b b b b b b b b b b T ( ( ( ( ( ( c.eXG : 1 ; j H G F F G G G F F F F F F F T L L L K F F F F F F F F F F F F F F F N g g c M M M F F F F G K b.q : 1 0 q 8 2 : % O O @ & @ $ $ & : : ; q c c x h h k k h w > & @ O O O O O O O O O # ",
"w ; c G G b z g g g g g g g g g g g g g x g L 5 ; ; 2 2 2 2 8 q w w w w w w w w w w w w w w w w g w w Z j u u u w w w w w j w b q 8 G G F F F G L ^ T T F %.t 1 g F G D c t g t t d c H H F F F F F F F F F F F Y K K >.Y F F H Y H F H H b g g g g g M H ` n.y 1 2 K ( ( ( ( ( ( ( R T Y H G N b b b b b b b n G H H H K Y 2.6X+.1 & & g K G F F F G G F F F F F F F L L L H F F F F F F F K H H H H F F F F G c b F F F F F F F F G G z.w : % O O O O O % ; 1 1 1 & $ $ ; 1 1 1 : 2 : & & - - - % % % % $ & & $ $ $ $ $ $ $ & ",
"4 & g g g g g g d d t u g g t d g g x c c j H 2 @ ; 2 2 2 2 2 0 w w w w w w w w w w w w w u u w j u u H k j j u w w w w w w q b 8 8 G G F H L T L T L H M %.t 1 x H ` D l d g g g B D w.f.L F F F F F F F H ^ ` `.`._ y.R F F _ |.f.K V.w.F g g g g g c H T r.d $ & h T ` ( ( ( ( ( ( ( ( ( ( ( T n b b b b N b b b b b b b T F.G j ; & 8 j b H H F G G F F F F F F G F K H G F F F F F H H K ( K T L H H H F F F F G F H K F F F F F M t.g ; : ; ; ; : : : 1 ; : ; % % % & : : : 1 2 2 1 2 1 1 : ; ; ; ; ; - & & $ $ $ % % $ & ",
"> : u g g g g g t t t g g g t d g j j x x t G 2 @ & 2 2 2 2 8 q w w w w w w w w w w u k u w j h u k t H b h c u w w u u w w q b 2 8 G G F R ^ T T L H F M %.t 1 c H _ x d g g g j (.y.&.0.K F F F F F F F Y &.&.}.}.R H H H F R C.&.H f.0.H c g u g g c F F <.l @ $ h R ` ` ( ( ( ( ( ( ( ( ( ( N b b b N R ` _ H n b b b b I M.w.w.t 3 t g x Y H F F G F F F F F F F F F F F F F F F H R _ K _ R ! L R R H F F F F K H L H K F F F F M <.l ; 1 1 1 : 1 1 1 q H ` *.$.( ( &.2.-.$.X.O.O.$.=.<.1.t.a.a.a.a.a.t.1.2.&.X.E H c w q ",
"; 2 g t g g g g g g g g g g g g g c x j g w N 4 # & 2 2 2 2 2 q q w w w w w w w w w w u Z b j Z k b h U Z k u u u u u w w w w k 2 q G G F H H H L H F F G #.w 2 M H x d g g g c x _ ` H H F H R L K F F F H R T T T H H A.i.H H G l M K H F G c h c c G F G >.( $ ; b ( ( +.` ( ( ( ( ( ( ( ( T b b b b Y ` #.` ` K b b b b I m.! 6.! u k c b Y H F F F F F F F F F F F F F F F F F F H K _ *.&.f.f.*.` L F F F F H L L T L H G F F F M $.g : : ; 1 9 2 1 2 $.qXuXzXzXlXlXtX;X~.E.E.E.E.E.E.E.E.E.E.E.E.E.E.~.~.~.!.E.E.E.E.P.D.",
"& 4 g g g g g g g g g g g d g g g g j g g w N 4 % $ 2 2 2 2 2 2 2 q w w w q q 0 0 q u u w x H c J ! U +.U b t i k u w w w w w h 1 t L G F F F F F F F F R +.q 2 G T c l l c G l.%.F F F F F L ` ^ H K G F F F F F F F H _.2XT H b c #.T F F F G Y B.w.H F F q.t.; : l ( ( +.` ( ( ( ( ( ( ( ( T b b b H ` %.%.#.` R G b b n H v.Z e.@XU A ` U Y K H F F F F F F F F F F F F F F F F F H H K Y y.5XaXC.+._ K F G H K T K K H F F F F F G T q 1 g +.b.P.( : 2 K &.c.Z.D.D.b.$.X.( ( ( ) ) ) ) ) ( ( ( ( X.X.X.$.$.,.1.3.a.x.M.P.!.",
"$ 9 g g g g t t g g g d g g g g g t g g g w N 4 % $ 2 2 2 2 2 2 q w q q q 0 8 2 q t g u j k k A ! f.C.C.e.U Z c x x b A k u w u : q H G F F F H F F F F H ( 4 2 F _ H G F F H T K F F F G K L T L L Y H F F F F F F F F _ >.H F c K `.q.H F F H _ +X).K F H G.`.2 1 u ( ( ( T T R ( ( ` ( ( ( ( T Y R _ %.` ` _ ( ( N b b N N d.j A 4.U 7.OXf.Y K H G G G G G G G F F F F F F F F F H F F K L 4.+X4XC.&.R H F G H L L K F G G G G F H G w 1 q n.>X=X>X&.; 2 K ( ( R ( R G c c c c c c c b b c c c b b c c c b b c b b b b H +.P.",
"% q d d d l c l g g g d d d g g g g g g g w N 5 % @ : 2 2 2 2 2 8 8 7 7 7 2 2 q g j j j u k c A @.S.5XaX@Xg.g.6.+.! ! Z u w w q ; q G G F H +.` F F F F G K 2 2 M H F F H H H F F H H T Y L ^ K L H *.Y F F F F F F F F F F F F z b w.#.F F H F H ` R F F F _ n.9 : 0 ( ( T n n b K _ +.( ( ( ( E K H K K K Y ( R H b b N &.Y a.t ; 2 t 7.aXi.b Z b c b M N G G G G F F F F F F F H Y K H Y R @.w.f.@.Y Y L H H L L L H G G G M c z w > : : t T 2.c.>X&.; 2 I ( ( ( T N b b b b b b b b b b b b b b b b b b b b b b b b b G H t.",
"% q g g g g b G j t g g g g g g g g g g g w N 8 % # ; 2 2 2 2 2 2 2 2 2 2 2 8 u j c ! k w u u Z 6.).aXhXaXg. .A k i u w w q 0 > : q G G G +.@XOXR G G G F g : 2 N G F F ^ %.K H H H Y ` ^ ` T K G F H H H F H H H K F F F F F G c g h b H +.C.R F H F F F F F j.t : 8 T ( T b b b b Y ` ( ( ( T N b G H G b b b b b b b b I N 1.8 & 1 8 c 5.k : : % & - : > 2 4 8 8 G ! w q q 9 q h e.w.l w b g h b j q 2 4 q d d q 9 8 4 > : ; - % % - 1 : g F M ] >X>.; 2 I ( ( Y b b b b b b b b b b b b b b b b b b b b b b b b b b G G H %.",
"$ w d g g t x G x u g g g g g g g g g g g w N 9 @ # # 2 2 2 2 2 2 2 2 2 2 2 q j g U f.! t c J @.7.S.5XaX5X).! b u 0 7 0 q q 2 : 1 : l G G _ ).}.R F G N g 4 : 2 M F F H 0.C.Y Y K H Y &.w.%.T H F F F F F F &.y.#.%.Y F F F F F G c g x K 8.OX+.H H F F F F G r.b : 2 Y ( R N n b b H ( ( ( ( G b H G b b b b b b b b K ` N b 2.8 % & 1 q t q & ; & & & & & @ @ @ @ J 4.2 O O O O 8 w.7.2 % - @ & : 2 % @ & 1 1 4 : & ; - ; ; ; : : : : 1 : l F F ] *X>.; 3 K ( ( G b b b b b b b b b b b b b b b b b b b b b b b b b G G G H T ",
"& w d g g d g x g u g g g g t t g u g g g w N q @ $ 3 Q q : : : : 2 2 2 2 8 y j g g *.).! Z k A U *.s.e.).).H b Z w 7 9 0 2 & 1 1 2 - 8 w g b g 8 4 4 : - : 1 2 M F F H _ %.H H K R %.).5Xw.Y H F F F F F F %.e.&.&.T _ K F F F F G l l Y f.|.>.Y +.+.H F F M ;.T : 2 H ( ( ( T Y I R ( ( ( T b G H G b b b b b b b b g.5X&.b ,.t 1 ; ; 1 2 y 2 2 ; & & $ $ $ $ & & 2 8 : ; ; ; ; ; w 0 & $ $ $ $ & 1 1 3 5 9 5 9 1 1 1 1 1 : : : : : 1 1 1 x F F ^ *X>.; 2 K _ ( G b b b b b b b b b b b b b b b b b b b b b b b b G G G G G G ",
": t g g g g u u u u g g g g g t g u u u g w N q # $ y _.y           O 2 & ; & @ & - A ).A : t t h t Q u Z A 9 : 7 y 7 @ O O ; : 8 U Q 8 & q C.j & & & ; : 1 1 2 b F F F L %.K +.H Y +.B.`.0.` R H F F F F F H K R R T w.T F F F F F z l T ).OX+.( V.C._ F F G +.+.; ; c ( ( ( ( ( ( ( ( ( ( K G H G H b b b b b b b b @.V.E b <.@.! : & 2 b ` %.XX%.Y Y Y Y E &.>.>.>.>.>.&.&.$.$.$.$.$.$.+.E Y Y ( $.2.t.t.t.r.t.2.2.2.2.>.>.>.;.%.c : 1 1 x F F T /.>.; 1 H ( I b b b b b b b b b b b b b b b b b b b b b b b H H H G N b b b ",
"1 t g g g g g g g g g g g g g g g g g x g w M q # & 5 j q 2 1 & % # j _.j 1 $ .   . O ; O @ @ 2 $ 1 t O 1 & 1 #     # O # @ $ ; t w.f.Z 9 c H q 1 : : 1 1 1 1 2 c F F F F F F Y T T ` ` ` R Y H F F F F F F F F F F F H F F F F F G l l D %._ T Y e.y.R F F G K T $ % 0 n I T R ( ( ( ( ` Y G H K H N b b b b b b G K H G n b &.Z q & & t b c b %.c l l l c K ^ ^ ^ ^ ^ ( ( ( ( ( ( ( ( ( ( / ( / #.r.r.t.j.j.c.n.J.L.Y.T.^.*X*X=X=XZ.8 : 1 g x x M P.>.; 1 b N b b b b b b b b b b b b b b b b b b b b b b N N H H G b b b b b ",
"2 g g g g g g g g g g g g g g g g x &._ g w M q % t K Y Y T ) +.2.Y j ~ y 1 1 @ $ $ $ $ @ @ ; : & i 8 & 2 2 1 2 $ & t & $ $ $ ; 2 A U q q A 2 1 1 : 1 1 5 c 5 1 c F F F F F H K L T T T T H H F F F F F F F F F F F F F F F F F G c g g c G h x x b M M G G b c Y & & 0 b H T N b N G H T H K T _ T b b I 0.G b G ( ` ( ( T n X.2 ; : 1 x G G G G M c c b G F F F F N N F F F F F F F F F F G F K H L L L F F F F H K K T ^ ] $.L.*XQ.h ; & q d g g 2.E @ & w b b b b b b b b b b b b b b b b b b b b b b b G K H G b b b b b b ",
"8 g g g d d g g g g g g t t g u g H OXV.g w b q $ q g g g g g b ;.U.Z.j 1 1 & % $ $ $ $ $ @ $ @ & j 6 & : 1 & ; : & 2 2 4 8 9 9 4 2 q q q q 9 4 2 1 1 1 j _.B 1 x F F F G K ^ L L L H F F F F F F F F F F F F F G M c c x z z l h g r g g l g h h g g g g c K +.2.8 : 0 G @.w.( N b G K _ ` ` ` ( ( T N G +.b N b G K K K H b E ; & : 2 c F F F F F F F F F F F F F F F F F F F F F F F F F F F L T T K H F F F F F F F F F F F ] Q.Q.b $ $ q d d g ;.Y # @ q b b b b b b b b b b b b b b b b b b b b b b b b G G b b b b b b b ",
"9 g g g g d h c c c l d d l j l x G _ G g w b w $ q g g g j x H L r.*XT & 2 - % $ $ # # # # & : q b g g b G Y Y X.t.n.D.L.L.P.t.,.3.L.T.Y.P.L.n.r.` l 1 u (.B 1 l F F F K K T L L H F F F F F F F F G c c M G b l g d g l l l l z z x c c M G G G c l g h H &.w.v.q : 2 G @.0.+.( R ` %.%.` ( T T T Y G h g g h g g h k b b b m $ % & 2 b G F F F F F F F F F F F F F F F F F F F F F F F F F F F L K F F F F F F F F F F F F M c 2.z.b $ $ q u t g $.Y @ @ q b b b b b b b b b b b b b b b b b b b b b b b b b b b b b b b b b ",
"q g g g d g c G G G x g c G G G G F G g g w b w $ q g h c G H H L %.&XY y 6.J ; & 2 u c b Y ( +.$.$.$.$.$.$.$.$.t.Z.Z.Z.L.L.n.2.<.b.P.T.&X6X6X=X*X*XQ.&.t t 2 1 g F F F T T T H H G F G G G G G G c l g g l l g g l c M G G G G F F F F F F F F F F G G G M R &.c.t 1 : 9 w r r w 0 b R w 8 2 > > > , > - @ @ @ @ @ @ % ; 8 e 2 @ $ $ 2 G F F F K 6.@.H F F F F F F F K Y F F F F F F G F F F F F F H G F F F F F F F F F M l g d Y z.H $ & q g g g +.) @ @ q b b b b b b b b b b b b b b b b b b b b b b b b b b b b b b b b b ",
"q g g g g u g c G G G G F F F F F F M g g w c w & w x G G _ w._ L ^  X) u f.6.c H T +.R T G x l l K *.G g a d w g x x c G G G N G G H K ` OXaXT.&X=X,X9X` 4 1 : d F F G H L H F F M c l g h l h g g l c M G M M M F F F G H H F F F F F F H K H F F F F G G H K >.u 1 1 ; & & - 2 8 U w.q : : : 1 2 2 2 : & & & & & & % @ O O % @ $ $ 3 c D F F &.4XOXR F F F H R Y H e.S.L F F F F G c z x c M F F F F F F F F F F F F G l d g d M 3.Y $ & w j x x ` ( @ @ 8 b b b b b b b b b b b b b b b b b b b b b b b b b b b b b b b b G ",
"q g t g g g g g c F F F F F F F F F M g g l H z : t g g j R A.[ H K L.T & Z Y c l g u g K b d u g %.S.&.j u u g g g g x F F G G G G F F F %.0.L ;.&X9X7XI.w 1 : w G G N M H H M x g g g l x z z x c G F F F F F F F F H H T Y L F F F F F T ^ H F F F F G F H F #.g 2 1 1 1 1 0 C.f.u t 2 1 1 1 : : : : : & $ $ % & & % % $ % % $ 1 1 2 B K F F _ ).C.Y F F F K C.w.H +.4.H F F H K b g d d g g c F F F F F F F F F F F b g g g t l <.E $ ; t c j l T E $ $ 2 b b b b b b b b b b b b b b b b b b b b b b b b b b b b b b b b b ",
"w g g g g g r g M F F F F H H F F F F N G G ( N 2 t t t u h L K H H z.N 1 w t d g g g g l g g g u b ! K g g g x l l g b R &.H F G F F F F F M g l >.&X*XL.w & & 8 x M c x G G c l z c G G F F F F F F F F F F F F G H L T 8.y.T F F F F F K K F F @.` F F F F G ` c Q Q 2 q u Z OX|.u 2 2 2 2 2 2 2 4 4 8 2 : 1 : : 1 > 1 2 1 ; 1 5 4 5 Z D F F H Y K F F F F H ` R F F F F F F *.w.G z g d g t h G F F F F F F F F F G x g g g g d $.) $ ; g j x g H E $ $ 2 b b b b b b b b b b b b b b b b b b b b b b b b b b b b b b b b b ",
"t x g g t t u h G G G G L w.` F F F G G G G ( N - 9 t g g x G F H F ;.g 4 l d d g g g g g g g g g g g t g j x x x l c F &.|.R F F F F F F F G g g c 2.z.z.w & : 4 M G G G G F F G G F F F F F F F H H F F F F F F H K ^ T &.8.K F F F F F F F F F Y Y F F F F G ( b @.*.Y D.Q.Q. XU.n.b.3.;.j.c.b.b.n.n.L.z.,.,.,.<.<.<.<.b.D.H 2 5 5 1 x F F F F F F F F F F F F F F F F F F F K Y F G b l g l M F F F F F F F F F F G l t g g g d ( ) $ 2 c G c g b E % $ : c b b b b b b b b b b b b b b b b b b b b b b b b b b b b b b b b ",
"4 t d t w w w g c G G G R ).*.c x c b b c g s e & O % : > q g g l z c 2 4 M l d g g g g g g g G l g g g l c j x g g c F K R H F F G N M b b c g g g %.L.Q.b ; : 2 b G F F F F F F F F F F F F F F H H H F H H F F H L L L K K H H H H F F F F F F F F ` &.H F G ( l 8 q H ^ 2.n.T.Q././.T.Y././././.^.^.Q.R.2.2.2.2.2.3.3.M.T.z.9 2 1 : j G F F F F F F F F F F F F F F F F F F F H H H _ b s z M G F F F F G c c b G G c g g u g d Y ) 1 9 G H G M b E $ $ & h b b b b b b b b b b b b b b b b b b b b b b b b b b b b b b b b ",
"& & O O O @ @ @ & : > > 2 w 2 % + + % % % % & : & @ @ O O % & & % % : : 4 l g u g g g g u u g c l g t g j j j g g g c G F F F F G c l g g g g l x c <.*X=Xb ; 1 1 x G F F F G G F F F F F F F F F F L H F ^ T H H L T T R Y L F L ^ T F F F F F F H Y w.S.R H G %.! 8 q G G G F L ^ ( / / ` / / ( ( ( ( ^ Y M z l l h z b $.z.z.w & & & q h M F F F F F F F F F F F F F F F F F H &.` H *.c g g g l c G F F M g d g x G F G c j u t H +.3 9 c b G G c T & $ $ r b b b b b b b b b b b b b b b b b b b b b b b b b b b b b b b b ",
"3 $ % % % % @ @ & - - - & % # # @ @ @ $ ; : : : $ @ $ @ % & & & ; ; - % 1 u g u g g g g u u u u g t g x x x g g g l b G G F G c l g g g l x c G F G >.*X=Xb ; 1 : g F F M x l h h c G F F F F F F F H R K H L L L L K L @.&.+.H T ^ L F F F F F F H %.>.0.L F G y.).Z g G F F G F G G G G G G G G G G G G F G M x l g g g M r.b.c % $ @ 8 g l G F F F F F F H F F H H b M G G M G 0.+.l g d g g g g l G F F M d d d g N F F G G b c ( 0.5 y j g h j g Y & $ & 4 b b b b b b b b b b b b b b b b b b b b b b b b b b b b b b b b ",
": $ $ $ @ % & & ; : ; & & $ $ & ; 1 2 4 8 9 q q 4 2 2 2 2 4 2 > ; & # @ 1 t g g g g g g g g c l t g j j j l g l %.y.R G F G x g d g z b G F F G F F >.*X=Xb ; 1 : 8 c G l s g g g s h G G F G G G G G H F F K ^ T T H R &.4.*.K K L F F F F F F H _ 0.y.0.H F G L A 9 j G F F F F F F F F F F F F F F F F F F F F G G b x x ^ b.N $ $ @ 8 g g M F F F F F Y *.H F G G l g h l g g h g u g g g g t l b G G G G z d g h G F F F F H L ] 0.9 y c x l g u Y ; $ $ $ r b b b b b b b b b b b b b b b b b b b b b b b b b b b b b b b ",
"w w g h z c T / / ( H K w.@.Y Y ( 2.2.2.r.2.2.r.>.] ) ) Y Y ) ) ) E c & 2 g g g g g g g g g l g g x c x g g g G `.2X%.G c l g d g c G F F F M l l c >.*X=XN ; 1 1 - % : - - : 2 8 8 q x c b M G G G F H +.#.L L L T H L ` s.|._ F F F F F F F L e.w.&.w.>.R H b 9 1 1 x G F F F F F F F F G F F F F F F F F F F F F F L H c G j.Y $ $ @ 2 g g M F F F F F H Y M c l A b x c g x b j u u g g g t l M F F G F H G c b G F F F F L L L ^ >.2 2 c G M g w h & @ $ $ % w c b b b b b b b b b b b b b b b b b b b b b b b b b b b b b ",
"Y Y K H H H / #.( H b @.OXS.G c z N H H F G G G G G c g w w w d g c ( 8 2 g ` y.c g x g g g t g l j x x g g g l 8.0.K l g g l x G F F F F F x d g g %.*X=XH ; 1 1 2 1 : & O O O X X O % % - - : > 4 8 w e.V.G x c c z z c @.(.H c c b b b b b H y.0.L L c h l w : 1 1 c G F F F F F F F G c c G F F F G G G G F F L L L K K b >.T $ $ @ 2 u z F F F F F F b g g x j b H k c j x c g b +.x g g x G F F G F F H H F H F F G F H D D H T +.1 1 t N h 9 - % $ $ $ $ @ O & 2 9 w s g g g g j h h h h h c c c c c c c c c c c h h g g ",
"t w w t g c G b g w t b f.*.c G G G G F F F F F G c g g g g g g g d c 8 4 l y.`.H g g g g g g x c _ T Q l g g g g g d g c M G F F F F F F F G b c M ` &X=XK 1 8 2 8 2 8 1 $ # # $ $ $ & & % % @ % % & 4 j c 2 1 - & & % % % & % % - - - - - - - 2 > - & % - h U 2 1 2 c G F F F F F F F G b c G F F M l g g l c F L T L K F G ` ( $ $ @ : l G F F G G G F H G c b G c T b x j c g b w.@X` b G G F F G G F F F F F F F F G K K c x l l N 1 1 - - % O O % @ $ $ $ @ $ @ + O + + + + + @ @ @ @ @ % % - - - - - - - - - - & % % + % ",
"g g t g c F M h g g g g h l l M F G N G F G N c l g g g g g g h l l H 9 2 g c G g g g t g x j j x k.XXA.x t t u g g g u l N F F F F F F F F F F F Q f. X>XT 3 u 8 @.H.a.X.H b h g q 8 4 2 : : & & & & 4 5 9 4 1 : : : : : 1 1 1 2 2 2 2 2 2 2 2 2 2 2 2 1 1 2 2 1 1 2 b G F F F F F F F F F F F F F c g g g g x F L L K F F G +.$.& $ $ & > w g z c c G H H H R _ _ _ @.! Z b G ! T b R K G G G G G G G G G G G G G G G G F G j g g w 8 ; : 1 : 1 1 ; ; $ @ # % $ @ @ @ @ @ % % $ @ @ @ @ @ @ $ $ $ @ @ @ @ @ @ % % % % % % % & ",
"g u u c G b l g g g g g g d d l c z g h c x g s s g z c c b M G G F X.t 2 g g H M K g g g c c x R `.XX`.K t t u d g g g u x M G F F F F F F F F F R 8.U.>X( ; 2 q y.G.^ b b b H K Y ) ( / X.X.( E ( L C 5 1 : : 1 t G ^ $.2.t.t.c.b.b.b.b.b.b.b.b.b.j.t.2.T q : 1 1 4 b G F F F F F F F F F F F F F F M g g g g x K H F F F G +.z.1 : : : - % % & % % : 8 w g j c [ w.S.C.4.@.H u 8 8 u h g t g l G F H H H H H H H H H H H F x q 2 % % & - : ; & & & : : & & : : 1 2 4 4 9 9 t q q q q q q w q w w q w w w q q q 9 9 9 9 4 2 1 ",
"q q g x l w w w q q q q q q q w w H Q Z t w w w w x c b c x z c c h s : 4 g g 8.B.%.g c c c l g l ` A._ G c x u g g g g g g g h c G F F G G G G G H F n.6X0.& ; 4 K K l g d t t g g _ %.c l c H / t.I.&X%.1 : : G 2.2.2.2.2.t.t.c.b.Z.L.L.T.Q.^./.-X*X*X*X*Xt.4 1 : 9 G G F F F F F F F F F F F F F G z g g d g g c c G F F G ^ t.2 1 1 1 : : 1 1 : : : : 2 4 q x ' (.5XsXS.A 8 : & @ @ % @ O O @ - 2 2 4 8 9 q w w w w 9 8 2 - + O % & & : 8 g K ( #.$.>.R Y Y T Y Y Y T ( ( ( ( Y Y Y Y Y Y Y Y Y Y Y Y Y Y Y Y Y Y Y Y Y ) / ",
"O % % + O - ! 9 O O O O O O # # 1 } _.5.& % @ @ % % & % % @ @ & % O O @ 4 g G y.A.y.G g c l g t g l G c G G G l t g d g g g d d g l x c c b c c c c x $. X` # @ & w j g g g g g g g H ' l g g h c c K I.c.2 1 1 c N M M M G G F K K K L K L ^ ( ] 0.r.<.t.n.Z.9 1 : q G G F F F F F F F F F F F F F F b g t g g g t w x F F F L t.y 8 1 ; ; 1 q 2 2 ; ; ; 1 q t j @.'.pX5XS.J k j g q 2 1 : : ; ; ; - - & % % % % % % % % & - - : : 1 : h E Y K ) ] ( T K b g g g l x x x x j g d w w w w w w w w w w w w w w w w w w t w w t g ",
": & % % % 1 ! w % % % & & & & & q 5.{.e.: & & & % % % % % $ & ; % % % @ 2 g c T r.H l t j g t g g d c G F F G z g g g g d g g g g d g g l x g g g u u N c.T # $ ; w g g g g g g g g g g g g d g g g g j.b.2 1 2 b G F F F F H _ *.%.T T K F G G H L L L L Y >.4 1 : t G G H F F F F F F F F F F F F F F c g g g g g g g c F F K 2.b u : q R &.G.G.|.r.$.%.%.%.#.0.V.`.4X'.y.` b c x g w q 9 5 4 4 2 1 1 1 1 1 1 1 : 1 > 1 1 : 1 1 1 1 : l H c x b F F G G G c c M G F H G x g g d d d g g g g g g g g g g g g g g g g g g g g g ",
": & % # $ 4 u h b G G Y Y I Y T Y +.S.B.$.Y Y Y I I I Y ( %.#.K w w & $ 2 g g g b j g g d d g t t u x G F F F b g u g g g g g g g g l l x l x g d u u c a.+.# @ 2 g G @.h g g g g g g g d g d d g g g r.D.4 : 2 b G F F F F K %.6.%.T T H F F H L L T K F G ( 1 & & w G H H F F F F F F F F F K H H H F c g g g g g g u l G F F >.4 1 ; b $.#.<.q.V.<.+./ $.>.c.V.U.*X:X,X*X*X*X*X/.^.T.U.n.3.3.z.j.t.2.2.>.^ N N Y T T Y H x q 1 ; ; : q G F H H H H H H H F F H G N Z c l g t d t t t t t t w d t d d d g g g g g g g g g d g ",
"1 : 2 c Y Y K b c x b K G c M c c x G ` H h h h h x G K T ^ ` >.n.r.H Q q g g g g g g g g g u l l g x G H L F G b z g g g g g g g g c x x l g d u g Z f.t.+.$ $ 8 g T s.b g g g g g g l z g t t l c M #.P.q : 4 b G F F F F ` V.+.R H K F F F K L L K x g g H : $ $ q G F F F F F F F F H H H R T _ L G l t g g g t g g u c F G >.9 1 : g x x c b G N u g c L H Z K ` &.#.` %.&.>.>.r.j.t.$.$.,.z.T./.&X&XL.a.3.z.&X*X*X*X*X&XL./ ; $ - - 2 q q w w s g h l l z h w l g g g w w t g g g g g g g g g g g g g g g d d g g g u l g ",
"w K %.` H G G b j l Z c c x x j g d g g g d d d g c G G G G M F %.n.0.! q g g d d g g t t g x G G c c F %.c.L F F G z g g g g g g l x x g g d g h b H ` z.z.1 ; q b H c g g g g d d g l M M x x G F F L L.l 1 4 b G F F H F _ 0.H F F F F G H L L K D c g g Y 2 & & q M F F F F F F F F L R R 8.B.9.T c l g g l x l g g g c F G &.q 1 2 t t g d g l h g c H Z l b G K ` R K Y T G G G b g g g g l G T ( T b c b T ` $.<.j.Z.T.*XQ.N $ % : - & ; - % & & & ; ; & & > 1 2 - % % % % % % & - : : : : : 2 2 2 4 8 8 8 8 9 q q q w q ",
"+.T H G G G G G G G c l x j g g t g g z c l g j G c l l l g g g G r.%.q 4 x x z g t u g h b F G G F F F _ &.H F F F M g t t g d l x x l g d d x G F F F $.a.1 2 u K _ x g g g g t g g d h M G G F F F G b.b ; 4 b G F F H F F H F F F F F H L K L H F G x g T g & & q c F F F F F F H H H ` ` l.2Xy.R Y x u x G G G G c M F T H #.w & : t t g g s g g c c x g g j G H _ R b z x M G b l g g g g t g l l g t d x G G G G G H T ;.L.c.: % ; 5 ( $.T H H N N N N b G c G c g w q 8 4 2 : - - & @ # O .       O O O X O O O X X X + ",
"G F G F F F F F F G x x x l g g g g d c F c j T %._ x g t t t g x ^ Y 1 4 G F G c c c H T L F F H H T H H F F F G c c b c l g g x j j g u g d c F F F G F #.2 2 c l g g g g g g g g g g g b F F F F F G r.Y : 2 b G F H _ L K _ H F H H H L T K F F F G c g w.e.2 : l G F F F F F F F K L T 9.9.f.6.*.b g x G G F G c M F Y `.0.( 9 $ & w l c G c g x g c l u g c G F T Y h g g g g g u t g t t g g g g g g g x F F F F F F F F ^ b.q : : t ( ( Y b b M M M F L T T T T Y Y T T E E E E T Y Y Y K H H K K H M x g q 2 : & & $ & ",
"G F F F F F F F F H c x x g t g g g t l b x g L :.` l g g d g x M T T 1 1 w g d g l x ` I.0.M _ y.>.A.R H H H F G z h h h c G D G c x l g g x G G G G M g $.9 : j l a a g d h G l t t t h G G G G F F G #.Y : 2 c G F R 6.` R y.H F +.T L K L H F F G l g x +.s.f.@.j G G F F F F H K Y R %.l.f.B.e.L g h G G G F H c b F H +.^ ] w & ; l G F G H G x x c j x G G G F H H c g g g g u t l h g g t t u t u g h c F F F F F F F F F >.q : 1 g G G G c d d g x c c G x l w w w w w t g g g l l z c K ^ +.;.>.>.2.r.t.2.) E T Y H N ",
"F F F F F F F F K L G g g g g g g g g g g g h c c b g t g x M F G ( r.9 % O O O + % : R C.+.: q G.`.G.b 8 8 9 w w t d w w w c G K G b Z b b G G G G M b g c 4 : : q w s g l l l g w u u x G N M M b c z b g 1 : g G H _ 0.0.H H F H L T K v c b G F c g x M H B.#X|.x b G F F F R ` T R 5.B.2XpX_.4._ Y L H F G H K K H G x g x K 9 : 2 c F K K K c x g l g c %.H F F F F M g g g g t x G G G M c c x x x c N G F F F F F F F F F $.9 $ & g F F F F l g x L L L K G c g t g g g g g g u t g t g M F G G G G G F H H b h l z c Y ",
"F F F F F F F H L L D g d g g g g g g g d g R b g g g g b H F F G T r.4 $ ; 2 8 0 q q l _ j 4 c ).`.`.y.9 % @ + O + + + & 1 2 2 2 : - - : > > 2 2 > : - + - : : ; + % - > 8 4 > : : : ; 2 2 : : - - % % % > 1 : - 9 4.%X|.L G G L ` _ L F l c x G F F M c c h G @.U 2 c G F H K C.`.` _ %.f.5XdX[.%.Y Y H F G G G H H H G x g w 8 - ; ; g x G K D x g t t g l K F F F F F M l t g g g G G F F F F F F F F F F F F F F F F F F F F $.4 # $ w M F F F x c c L K F F F G x g g g g g g g g g g g g M F F F F F F F F F H M x l g l ",
"F F F F F F K T L L L c g g g g g g g g d d l g g g g g M ` %.K F K $.1 x a.a.v.m.M..X,X:X*X.X.X X7XU.v.c.q.r.2.,.&.#.Y H j 9 2 2 : : : - & & & & & - : : : : : : & % % & - ; - & @ @ % & & - : : : : : : : : 1 : - @.sX! : - : q x d t 2 : > q q 4 2 > > : % - : & & 4 x c b M >.y.L L R y.).).w.' R K F F F F G H H b M x w : + 2 : % q c x c l g t g g g g g l N F F M l g g g u h G F F F F F F F F F F F F F F F F F F F F F $.9 $ ; l G F F F l x x D F F F F F G b b b M M l t g g g t l G F F F F F F F F F G F G G G H ",
"F F F F K K L L L K D x g g g g g g g d d u u t t t t t l _ &.T F H Y : b +.Y ( <.z.D.!.1XqX<X!.~.1XrXvXvXvXvXvXcXcXvXcXgX:X2.t : : : 2 h G K T T Y K G h 8 : 1 : & $ & : 8 0 0 8 8 q g z c c c c c c c c c z g w 4 y S 8 % - q Q q 2 Z q @ 2 ; O O O O O + & : 1 : 1 & % % % % - ; - > c 4.w.U u q q 4 4 2 2 2 2 T y.2 - % % & $ $ $ @ q x x x g g g g t t g g l M M c g g g t t g b G F F F F F F F F F F F F F F F F F F F F F #.9 : 2 b F F F F l g x M F F F F F F F F G b z g d d g l c G F G F F K K F F F F F F F F F H ",
"G G G G T T L L H b l d g g g g g g g g g g g g g g g g h H L H H N w : Z ( Y b b ( Y E X.1.D.H.a.P.;X:X1X<XeXrXtXcXbXbXvXcXcX,X( 1 : 4 T $.+.` +.#.$.>.z.$.1 1 1 x +.$.<.b.n.b.1.z.L.T.Q.&X&X*X*X*X*X*X*X*X*X/.T.n.T 1 % ; G K '.d : ` c 1 2 1 : ; ; ; ; : 4 2 1 1 1 1 : : : : : : - 8 k S.g.c w & & & & ; t t b 4.f.9 : : 1 : & $ $ & w x c x c M M c h g t g g g g g g t g g z c G F F F L K F F F F F F F F F F F F F F F F F +.5 : 2 c G F F F M b M F F F F F F F F c l g d d g x b G F F F F K H L K K G F F F F F F F H ",
"M b D D D F G z g q 9 9 8 8 8 8 8 4 2 2 2 2 2 > > 2 2 9 q t g g t 2 > : Z ` ` Y T Z.&.b b Y +.+.T ( +.+.+.+.%.&.>.k.Z. X8XtXcXlXtXc.t : - a G F F F F F K t.q 5 R *.R T Y K Y Y Y T ^ ( ( ] #.$.>.2.2.t.j.z.b.L.T.&X&X^ y L B.G.A.` g 1 1 1 1 1 1 2 2 1 1 1 u 8 1 1 1 1 1 : ; 1 5 2 2 4 0 A B y w $ $ $ $ 1 ....@.k 2 : 1 1 1 1 : ; ; ; t G G G G F F F G M c g g g g g t g c G G F G H K K L H K G F F F F F F F G G F F F F G H ` 4 1 1 x F F F F F F F H F F F F F F c g d d d l M G F F F F F K T L L K H F F G M M G F F H ",
"; ; > 5 2 ; % O O O O O O X X X O O O O O O O O O % % % & % % % % - : 1 G ` ` Y H >.T b b T ( ` +.` ( ` ( ` ` ( ( ` ` ( %.c.,XgXgXcX;XK 1 & 8 v F F F H H 2.H T *.H L H F F F G G G G G G G G G G G G G G G F H T >.L.U.G i.).`.>.>.b.T 1 1 1 1 1 u %.q 9 1 1 : : 1 1 : 1 : 1 2 5 4 2 1 q 4 5 2 2 & $ $ $ & i i 2 ; $ ; 1 1 1 1 1 1 1 1 ; q c G G F F F F F D c g g g g g l G G H H H L T T T L H H H H H H H F b c c M H H H H H ^ 2 1 1 l G F F F F F H F F F F F F F c s d g x G F F F F F F H K L K K N N N b h g g h G F H ",
": : : 4 2 & % @ @ # % % $ % % % $ $ $ $ & & & & : 4 q 4 5 1 : : 1 : : : b ( Y b b b b b Y ( ( &.V.%.( +.` &.&.T Y _ +.+.( ( %.A.eXcXzXyXv.l ; : g F G K Y s.}.|.%._ T K H G F F F F F F F F F F F F F F F F K L H y.B.I.T B.).B.L F T b.M ; 1 q y ` `.B.%.2 & & & ; 1 2 2 9 9 9 9 5 1 1 3 1 1 2 2 $ $ $ % & 1 2 1 & ; 1 1 1 : 1 1 1 1 1 ; & - : 2 8 q w q q 8 2 4 W j : : : 2 8 8 8 q q d q q 8 8 8 8 4 8 4 4 2 : - - : 2 4 8 8 8 w : : : q G G F F F F F M M F G G G F G b c M F G G F F F G F K L K F c l g h g g g g g l G H ",
": : : : : : 2 9 q d g h c b n N H K Y Y Y ) ) X.3.b.L.k.>.` G t 1 : : & w b b N K n b G ( ( ( %.s.@.T Y 0.V.&.( ( ( +.y.t.` ( ( &..XuXzXvXeX>.8 % 4 c K Y t.G.G.%.R T L F F F F F F F F F F F F F F F F F F U Y e.sXsX'.%.2X_.R H F G ( 2.U U Z %.`.XXXX! h k b b c b I +.@.%.+.+.E E E E R T A b g r r w w w u g t u u 8 2 1 : 1 1 1 1 1 1 : ; & & % % @ O O O 1 w.! $ O O O O @ & : 2 1 : & & & & & & & & & @ O O O O @ & & & & : : : : > h b b b b b z w w c c c c c c c c c z h c c c c x b G G l w q q q q q q q q q q g l ",
": 9 K $.#.>.2.3.3.t.t.t.a.z.z.z.z.z.z.z.z.z.a.x.*X,X0X,X0X0X&XT.c.N 2 $ q b b R Y b b T ( ( ( ` ( *.q.R &.G.&.( ( ( ` Z.Z.` ( ( ( +.c.<XuXlXuX*XY : - w c <.J @.` Y H G F F F F F F F F H F F F F F F F H F F F ` %XsXe.K Z G G G F G H q.f.C.@.H 0.XXG.` w u h h g g h R R Y Y Y Y E ( $.H.H. .I Y  .-.R E E +.<.<.d.H.1.*.R h : 1 1 1 1 1 1 1 1 1 1 1 1 ; $ $ $ 9 8 : $ $ $ $ $ 1 2 9 4 1 1 1 1 1 1 1 1 1 1 : ; & & ; 1 1 1 1 1 1 1 : : : & - & - & & & % % & & & & & - & & & @ # @ & - - : 2 1 % O O O O O @ @ @ O O O O @ - ",
"q $.z.2.X./ X.+.#.$.$.$.;.;.;.$.$.#.o./ ) ) Y ) 2.k.c.Z.&X-X-X=X=X&X( ; q N H ( N b G ( ( ( ( +.+.s.5X0.T ` ` ( ( ( ( ` ` ( ( ( ( ( ( %.L.yXlXlXtXc.w : q g j ` _ L H G G G G G G G G G G G G H w.f.H _ V.%.H G b 4.` R w > 9 G G F G H T T 4.J G ! +.c c q q w w w t H B.' x w q q q q j ).@XU w u 5.i.| k k I +.$.v.oXd.1.1.Y ; 1 1 1 1 1 1 1 1 1 1 1 1 : : & % $ : ; $ # # @ & 1 1 1 : ; ; : : : 1 1 1 1 1 1 : & $ & : : : : : ; ; ; : : : : : ; - & & - : : : : : : > : > : & % $ ; 1 2 8 9 4 & $ $ $ $ $ ; 1 1 : ; - ; 1 2 ",
"Z H G G G G b l g g g g g g g g g g g d w w w g z G K L ] ;.:.J.=X=XT.t x _ R G b b G R ( ( ( ( +.0.C.*.Y K ( +.` ( ( ` ( ( ( ( ( ( ( ( ( 2.;XcXlXlXQ.j q x t U ` Y K H H H H H H H H H H H H K V.|.R &.OXf.K F b b c 9 2 1 : 8 q u g g 9 9 x g x u w w w w w w w w c B.XXXXV.4.h w w w q ! w.x w u 5.p.J q q w w j H H H O.1.Y ; 1 1 1 : ; ; ; 1 1 1 1 1 : : 1 2 > 9 q q w q w w l l g g u u w q 2 ; : 1 1 1 1 & @ # $ 2 9 0 w w r u t w w q 8 2 : : - & & : & & & & ; ; : : : & $ # $ 2 5 9 5 1 $ @ # # @ & ; : : 1 1 1 : : 2 ",
"H G F F F F H F l t g g g s s s g g g g g d g x x x z b F K F L c.*X*X+.c K b b b b b H ( ` w.%.` %.&.&.` ( +.&.%.( ( +.` ( ( ( ( ( ( ( ( ( %.U.tXlXzX.XG J Q ! U u j h w q w q w w w w w w w q g x q u Z h q w w 8 : 8 2 : : q G q 2 - : 4 q q w w w w w w w w q g l 4.'.OX4X4X! j j w w w w w w t c A j w q w w w j u w H 1.R 1 1 1 1 2 Z Y G g 8 1 : : 2 2 p h N X.2.r.t.k.k.j.j.j.r.t.t.t.t.t.j.R 2 : 1 : 9 G / #.;.2.t.t.t.t.t.t.t.t.t.;.) E T E E T T Y Y Y Y Y K H b g 2 $ $ & & 2 5 5 4 2 2 4 9 t l h h j u q 8 2 : : 2 ",
"G F F F F F F F x t g g g g g g g g g g t g x c l g g g M F F F T T.,XoX+.I Y b b b N Y ( ` *.+.( +.` %.` ( %.>.*.( ( ( ( ( ( ( ( ( ( ( ( ( ( ` D.lXlXcX`.! C.@Xe.j w 2 & & & & & & & & & & & & & - - & % & % & & - q u u 8 : q P j q 1 ; : 2 2 8 q q w w w q w g j j J J R g.S.A @.| u w w w w w w w w w w w w w w w w q c 1.X.1 1 1 : q +.%.2.t.j.$.N 8 : : : - % & > w x D L K K D G G G G F H T t.g : 1 1 H +.( T K H H F F G G G G G G g t g g g g g g l l h h x c b H T / b : 2 3 4 x ( Y Y Y T +.2.2.2.2.2.t.t.t.<.b : 2 ",
"F F F F F F F G h t g t g g g g g g g g g j x c l t g g M F F F F b.,XoXU %.0._ K T R ( ( ( ( ( ( ( ( ` ` ( +.&.+.( ( ( ( ( ( ` +.( ( ( ( ( ` ( %..XcXcXcXy._.dXS.j q 9 1 1 1 2 2 2 2 2 2 2 2 2 2 | | 2 1 1 1 : ; : t U %._ g J _.5.~ 2 1 2 2 2 2 8 q w w t t j g j g j t w u j t A Z w w w w w w w w w w w w w w w w w q g =.#.2 1 1 : q G G F H T $.t.z.$.b 9 1 : : 2 5 2 4 q d c G G F F F F G G ( g 1 1 1 g b c c M F F F F F F F F F M g u g t t t u g g g g g d t t g g h +.K 2 2 4 x H h g l M F F G M b x g w w e 8 2 1 ",
"F H H F F F F G l d h h g g g g g g g g j x x c l u g l G F F F G >.,Xn.u *.u.&.` ( ( ( ( ( ( ( +.%.` +.+.( ( ` ( ( ( ( ( ( %.&.%.( ( ( ( ` ` #.( &.yXcXvX X@.g.4.c G T ( #.;.<.2.t.j.j.j.j.t.r.t.5X#X#.L b d 1 $ q >. X9X6X-XwXjXjX5.2 2 q 8 7 9 q q w q g c j j g w q w w w w w w w w u u ! &.k w w w w w w w w w w w w u #.$.2 : 1 ; q G G F F F G M K $.z.z.$.M w 4 9 9 4 & % & > q g c G G F G T w : 1 : q g t t g z M F F F F F F F M g g g g u g g g d g g g g t t g g l c 2.Z 1 1 1 g g g x l w q 4 : - % % % $ & 2 q x ",
"H T K F F F F G l l G G b g g g g g g x c D B x g g g c F F F F G +.=Xn.q N _ ` ( ( ( ( ( ( ( ( %.0.` ` +.( ( ( ( ( ( ( ( ` *.>.&.+.( ( ( +.%.8.u.V.wXgXgXwXK c *.B.>.$.#.+.#.#.#.$.$.;.>.<.j.j.b.I.Q.T././.T.Y & w c >.I.Z.w.sXjXjX7.2 2 0 q w w w w w g g j j u w w w w w w w w w w u H Z OXaXw.u w w w w w w w w w w w w ( $.4 : 1 : w F F F F F F F G G H T $.t.c.r.L q 1 : : : ; & % % ; 2 8 q w 4 : 1 : q g g g g t g b G F F F F G x d g u u u g g g d d g g u l c M G G G #.#.1 1 ; - : - & % % & - - : : 4 d G ( ;.>.%.",
"K ^ H F F F F G M G G F F l g g g x c x G H x u d t l G F F F F F ^ &XZ.9 G R ( ( ( ( ( ( ( ( ( ` ` ( ( ( ( ( ( ( ( ( ( ( ` %.&.%.` ( ( ( ` #.&.k.].aXhXgXeXb g Z ` L H G G G G G G G G G G G G G F H L ` r.&Xr.* w z K ^ ` K G.dXaX_.J 4 g b u w w w t x j j t w w w w w u K Z 9 q 0 w u k g.OX@.t w w w w c k w w w w w w Y =.9 : 1 : t F F F F F F H Y H F H G G L >.c.c.) z w 4 > : : : : - & % : 1 1 1 : q l d u g l g g x G F F F G x d g g g g g g g d d g g g M G G F F F K 2.4 1 : : - : : : 1 4 9 g H +.>.2.:.( K G D ",
"F ^ K K K F F F F F F F M g d g l x x x l g u u g t g b F F F F G K T.L.9 H ( ( ( ( ( ( ( ( ( ( ( ( ( ( ( ( ( ( ( ( ( ( ( ( ( ` R Y ( ( ( ` %.%.y.].2XhXyX!.Z f j L R F F F F F F F F F F F F F G F H H F ` -XZ.4 x G F %.R F R w. X3XOXj 5.l.c w w w w w j t w w w w w w H `.s.q 2 q q w w j k u w w w u A 5.| Z u w w w w H -.0 : 1 : g H F F F F F H T H F F F F G G H G N Y t.t.2.` H l q 4 : : 1 1 1 1 1 9 x g g j g l u d g x M F F c g g g g g g g g g d g g l G F F F F F H r.q : 1 1 1 1 ; 8 K $.>.$./ T H F F G G H L ",
"F ^ T 0.4.F G F F F F F c l g l c c x g g g u g g u g G F F F F M z t.t.4 b ( ( ( ` &.&.( ( ( ( ( ( ( ( ( ( ( ( ( ( ( ( ( ( ( ( R Y ( ( ( ( +.&.%.<.B.eX;XE.c 1 l F H G G F F F F F F F F F G H H F ! R H H Z.r.4 b H F K H F F H n.:X*.c T [ g w w w w q w w w w w w w w Z B.8.t q q q w w w w w w w t j 5.i.i.~ t w w w w b ,.w : 1 : g H F F F F F F F F F F F F F F G z s g G K ( &.2.t.t.,.Y c q : : : : 4 x x x x x l t g d d g c F b g g g g g g g g g g g g g N F F F F F F >.g ; 1 1 1 : 4 T ( K F F F F F F F G H K _ ",
"F F H ` _ G G F F F F F F G c c c c g d x b g g g g c F F F F N h g $.$.: t Y ( ( %.k.y.+.( ( ( ( ( ( +.` ( ( ( ( ( ( ( ( ( ( ( ( ( ( ( ( ` %.T I H R D.~.W.N $ w F F b l b G F F F F F G H H L H K R Y H G r.X.4 G F K H F F F F r.T.G x Z u w w w w w w w w w w w w w w w u j w w w w w w w w w q t j j ~ i.p.k w w w w w k -.g : 1 : l F F F F F F F F F F F F F F F G z s l G G G G G G H N b Y X.b & $ $ : g c j x g t g g g g d z G M g g g g g g g g g g g g g x G F F F F G >.c ; 1 1 1 1 g G G G F F F F F F F F H L T ",
"F F F F F F F F F F F F F F F G F F l t x x g g u g N H F F F G c c 2.2.4 w b ^ ` #.>.>.` ( ( ( ( ( ` &.%.( ( ( ( ( ( ( ( ( ( ( ( ( ( ( ( ( ` R N b T a.~.E.H $ 4 l b M c b G F F F F F K L L T L H H F F G r.T 5 G F K H R ( K T &. XK 4 u w w w w w w w w w w w w q q q w w w w w w w w w w w w t u x u H Z S j w w w w w j $.h : 1 : l F F F F F F F F F F F F F F F F N x c G F F F F F G G c l z / h # @ ; l x G G l u g d t g h b F G l g d d g g g g g g g g u g b F F F F G $.b ; 1 1 1 2 c G G F F F F F F F F H L L ^ ",
"F F F F F F F F F F F F F F F F F G l t t t u u g x G F F F F F T T K.D.g q G ` #.%.#.` ( ( ( ( ( ( ( +.` ( ( ( ( ( ( ( ( ( ( ( T Y T ( ( ( ( ( K b N ,.E.E.Y $ 4 t g c F F F F F H L H L T K L F F F F F G r.H q F F F H ` +.Y ^ #.T.R 1 q w w w w w w w w u h w w q 2 q w w j w w w w w w w w w t j g g w w w w w w w w w u $.k : 1 : h H F F F F F F F F F F F F F F F F F M c F F F F F F F F G G K >.1 & 2 l x l b b g u t g x M F F F c g d d g g g g t g t t g x G F F F F G +.H ; 1 : : 8 G G G F F F F F F F H L L H K ",
"F F H Y K G G F F F F F F F F F F c u t g g l x c G G F F F H T R +.XX'.j x ` %.` +.` ( ( ( ( ( ( ( ( ( ( ( ( ( ( ( ( ( ( ( T G b b b b H Y ( ( ( H N >.1X!.Y $ 4 g d x F F F F F L ` K L K K F F F F F F G t.x J R H +.H L Y H w.`.L.%.1 8 w w w w w w w w c H j w 0 q q w i R u w w w w w w w t j j j w w w w w w w w w w r +.b : 1 : x H F F F F F H T L F F F F F F F F F G G G G F F F F F F F F G 2.l 4 5 t g u l G b c c G G F F F F G x g g g g u g h c c c b G F F F F F G / Y ; 1 ; ; 9 b G F F F F F F G F L L L H H ",
"F F K 4.w.b G F F F F F F F F G M h u l b G G F F G G F F F H R ` w.5XfX[ G &.%.` %.` +.` ( ( ( ( ( ( ( ( ( ( ( ( ( ( ( ( Y b b b b b b b b N R ( ( ( 2.uXiXT $ 4 g g M F F F F F G K L L L F F H F F F F G t.r x H H Y K F F F w.`.n.$.1 8 w w w w w w w w u h w w w w w w w t w w w w w w w t j g u t w w w w w w w w w w w X.G : 1 : x F F F F F F H &.+.F F F F F F F F F F c h c M G F F F F F F M #.L 5 5 q t g l G G F F G G F F F F F F G b b c x b G G G G G G F F F F F G ( Y ; : & @ 4 g c G F F F G F H K L L T H H ",
"F F H +.@.b G F F F F F F F F G x g l G F F F F F F F F F F H H K _ }.oXG B %.#.` >.( $.T R ( ( ( ( ( ( ( ( ( ( ( ( ( ( K b b b b b b b b b b T ( ( ( $.;X~.T $ 4 l b F F F F F F H L L K F F H ` K F F F F t.q g F F H R F F F H K <.2.1 4 q w w w w w w w w w w w w w w w w w w w w w w w t j j j w q w w w w w w w w w w q E I : 1 1 x F F F F F F F H H F F F F F F F F F F b s s g z b G M b c M K ^ K 3 3 9 g g g c G F F F F F F F F F F F F F F F F F F F F F F F F F F F G T / ; : ; & 9 g g c G F F F H L L L L L F H ",
"F F F H G G F F F H H H F F F F G b G G F F G G F F F F F F H Y ` +.c.D.c j ` _ K G N b b N R ` ( ( ( ( ( ( ( ( ( ( ( ( N c b b b b N H H K T ( ( ( ( ) b.E.+.& 9 G G F F F F G H L T L c l x M H F F F G H 2.4 l F F F H F F F F F $.t.2 2 q w w w w w w w w w w w w w w w w w w w w w w t g g j u 8 0 w w w w w w w w w w q I Y 1 1 1 x H H H F F F F F F F F F F F F F F F F N l g g g g g g g g l F K ^ 3 1 4 g u g c F F F F F F F F F F F F F F F F F F F F F F F F F F F F G Y +.; 1 1 1 g g g h N G F T L L L K F F F H ",
"F F F F H F F F H @.4.` F F H G G F F F F F F F F F F F F F K ` S.4.c.n.t j ^ ( b b b b Y b K %.` ( ( ( ( ( ( ( ( ( ( ( H c c b H T ( ` ` ` ( ( ( ( T N 3.!.|.u w F F F H F G H L L L L x d d g z U 6.H H K >.1 x F F F F F F F F F +.z.4 2 q w w w w w w w w w w w w w w w w w w w q w t g j j u 9 2 0 w w w w w w w w w w q G R 1 1 1 c Y y.Y F F F F F F F F F F F F F F F F F G M z g g g g g c x x c ( 4 & 2 g g c G F F F F F F F F F F F F F F F F F F F F F F F F F F F F G K $.1 1 : 2 c c g g c H H L L L H F F F F H ",
"F F F F F F F F K w.g.@.G M x l g l x M G F F F F F F F F F K &.@Xf.c.j.q t Y G b b b b E b b ( ( ( ( ( ( ( ( ( ( ( ( ( T K Y R ( ( R K H G R R I N n b ;.E.@.1 l H K K Y H H L T L L K M g d l x c R ! _ R #.: c F F F F F F F F F ( z.4 2 w w w w w w w w w w w w w t w w w w w q t x j j j t 0 7 q q w w w w w w w w w w q b R 1 1 2 c H Y H F F F F F F F F F F F F F F F F F F G l s g g g l x x c C $.c : 8 c Z G G F F F F F F F F F F F F F F F F F F F F F F F F F F F F G H $.1 1 : 9 b l g g h K L L K H F F G x h F ",
"F F F G F F F F K ` 4.H h h g d d d d g z c c c M M G F F F L +.0.8.b.j.5 4 c b b b G T b b G ( ( ( ( ( ( ( ( ( ( ( ( ( ( ( ( ( ( ( ( N b N g.).+.H N b X.P.n & x R _ _ Y T L L L H H F F c g T w.l c F G / ( 1 b G F F F F F F F F ^ b.4 2 w w w w w w w w w w w w j @.b w w w w t t j j j t w w w w w w w w w w w w w w w q k ( 2 1 2 c G F F F F F F F F F F F F F F F F F F F F G c x x x G c c l g l ( K & 4 G G F F F F F F F F F F F F F F G G F F F F F F F F F F F F F F G H %.1 1 : q G h g g g z K L H G F G x d g G ",
"Y F F F F G F F N l c h c M c c z l g g d g g g g g x F F F L ` _ 4.I.t.1 : h b b b T ` R T ( ` ( ( ( ( ( ( ( ( ( ( ( ( ( ( T Y ( ( ( R H Y s.).w.` ( Y X.E.b j H w.y.%.T T T L H F F F F G l x b L K F G +.H 1 M G F F _ K F F F F T b.4 1 q w w w w w w w w w w w u T x w w w w j j x u t q w w w w w w w w w w w w w w w q h ( 2 1 2 c G F F F F F F F F F F F F F F F F F F F F F F F F F H F l g t d x H % : x G F F F F F F F F F F F F F F H F F F F F F F F F F F F F F F F F #.2 1 1 j G N z g g g l c N F F G c l c D ",
"H F F F G G F F G h s x F F F F F F G c l g g g g t h G F H K _ ` y.aXV.8 2 k b b H ( ( ( ( ( ( ( ( ( ( ( ( ( ( ( ( ( ( ( ` ( ( ( ( ( ( ( R ` &.( ( ( ( &.<XK B &.3X@Xy.%._ Y H G F F F F F c g g c F F G #.c 4 G G F F T H F F F F Y z.5 1 q w w w w w w w w w w w w w w w w w w t j u w w w w w w w w w w w w w w w w w w q g ( 2 1 4 c F F F F F F F F F F F F F F F F F F F F F F F F F F F G l u u g g Y & $ d G F F F F F F F F F F G F H K L H F F F F F F F F F F F F F F F F #.2 1 2 c G G c g g g g w x G F F F F F H ",
"F F F F G G F F b g g M F F F F F F F F c g g g g d c F H ^ T ^ T %.oXq.8 4 n b G R ` ` ( ( ` ( ( ( ( ( ( ( ( ( ( ( ( ( +.V.-.( ( ` ` ( ( ( ( ( ( ( ( ( #.:XG g @.3XOX0.` T H F F F F F F F c g l N F H ` &.l q G G F F H H F F F F K j.5 : 8 w w w w w w w w w w w w w w w w w w q t t q w w w w w w w w w w w w w w w w w w g +.4 2 5 G F F F F F F F F F F F F F F F F F F F F F F F F F F F F b z g g w Y 8 # g F F F F F F F F F F F F K L L L L F F F F F F F F F F F F F F F F +.2 : 4 c l g g g g g g t l F F F F F F H ",
"F G F F F F F G z l c F F F F F F F G b l s u g u g M F F T +._ L Y k.%.2 q R ` ` +.&.+.( ( ( ( ( ( ( ( ( ( ( ` ( ( ( ( +.s.&.( ` s.B.+.( ( ( ( ( ( ( ( +.!.g y [ &.*.T L H G G F F F F F F z g c F F K 0.&.x Z G F H F L K H F F F K t.5 : 8 w w w j u u w w w w w w w w w w w w w w w w w w w w w u w w w w w w t u u w w k ! *.y 5 9 G F F F F F F F F F F F F F F F F F F F F F F F F F F F G F G G c g G l $ q G G G F F F F F F H F H T L L K F F F F F G F F F G G G G G G G F X.1 : q M h g g g g g g t g c G F F F F H ",
"F H G F F F F G G G F F F F F F F F b g s g g t g b G F H R S.&.H H <.( 2 u +.0.y.q.&.` ( ( ( ( ( ( ( ( ( ( #.` ` ( ( ( ( ` ( ( ` S.).%.( ( ( ` +.#.` ( +.v.8 V B L K H x l h h b F F F F F x g b H H F K +.8 t G H K L L L L F F F K t.5 : 4 w t u A T c u w w w w w w w w w w w w w w w w w w u x H k h u u u t u Z u w w ! ).e.t 5 5 b G F F F F F F F F F F F F F F F F F F F F F F F F F F F F F F G G H Y & 2 b H H H H F G G G G F K L K x l b G F F H F G c b H H H H H H H K Y : 1 h G G b x g g g g g t g l M F F F H ",
"L K H F F F F F F F F F F F F F F G l d g g g l b G G F F L +.Y H G >.G 2 x &.`.aXV.&.@.( ( N H ( ( ( ` +.+.#.#.+.( ( ( ( ( ( ( ( %.@.( ( ( ` 8.].l.` ( $.r.g q t H D h l g g s h G F F F F G c M +.%.H H ) 2 d H K ^ L L K F F F F H r.9 9 2 w u b w.OXJ u w w w w w w w w w w w w w w w w w w u T {.! j c c k u A Z w w w j J &.j 1 4 Z G F F F F F F F F F F F F F F F F F F F F F F F F F F F F F F F F K 2.4 : ; 4 w w l x x c c c G F D c w w l z l g g w 8 4 8 w w w w w w 9 4 8 1 4 b G G G G c g g g g g t g b F F F H ",
"L L K G F F F F F F F F F F F F F M g t g g g c G G G F F H H H F G >.c 2 q +.G.+Xy.@.( ( ( G b R ( ( ` %.+.%.` ( ( ( ( ( ( ( ( ( ( ( ( ( ( +.9.[.u.H R %.E j 2 q G G g d g g g l G F F F F F F F #.&.H K Y 1 g H L L _ T F F F F F H 2.9 q 1 q w j J @.A k t w w w w j t w w w w w w w w w w w u Z ! k u j Z J U ! c k j w j k @.Z 2 t G H H F F F F F F F F F F F F F F F F F F F F F F F F F F F F F F F F 2.q ; ; - % % % % % % % : 4 : > & % % % % % O X O O O O % % % % % & & - : : q H F F F F b g g g g u g b G F F F H ",
"L H F F F F F F G G G F F F F F F G c l d d t g h Z G F F F F F F G ;.h : 2 T 0.0.@.` ( ( R T Y R R ( ` ` _ R T T T T T T T Y Y Y Y T K H H G G Z c g g r t q 1 q G b g g g g h M F F F F F F F F F H G K b 1 l L L T y.0.H F F F F K <.4 1 1 q w u u j j t w w w w w j t w w w w w w w w w w w w w i t u k H g.OX7.A k w u j j ` U q k G K H F F F F F F F F F F F F F F F F F F F F F F F F F F F F F F F G %.g % & : : : : : : : 4 9 4 : & & : : : : : % % $ $ $ & 1 1 1 1 1 : : : : 1 x F F F G F G x g g g u x G F F F F H ",
"D G G c c G F F G l z M F F F F F G R R c l l l x N F F F F F F F G ;.g : 2 9 w r r e 8 8 8 p , 2 8 q q w 8 > > > > > : - - - % % ; 2 - - ; % O O O % - ; : : 1 q G c g d g l M F F F F F F F F F F F G T h 1 c L K L T Y F F F F F K >.4 1 : q w w w w w w w w w w w w w w w w w w w w w w w w w w w t i b @.OXsXs.Z k j x c j I ` Z j L Y H F F F F F F F F F F F F F F F F F F F F F F F F F F F F F F F G K x @ $ : 2 1 > > : : 4 : 3 & @ % % & ; - & % % @ @ $ & : 1 : : : : : : : 4 b G F F F F F G x g g g g c G F F F F ",
"G G g d g l M F G z g g c G F F F F H H F G G G F F F F F F F F F G $.w 1 2 2 : : > : : : : : : : 4 9 W Z 2 : : - & & % % % % % % % % & - W W & $ & : : : : 1 1 q F M l l c G F F F F F F F F F F F F G Y w 9 D L H F F H ^ +.K F F H $.4 1 : q w w w w w w w w w w w w w w w w w w w w w w w w w w w i x b H e.g.R k k j j Z x R f.V.! U Y H F F F F F F F F F F F F F F F F F F F F F F F F F F F F F F F G N H & k &.r.r.r.r.j.>.+.` ` ^ Y Y Y K H H H H H H K Y +.l 1 4 l Y +./ q : w G G F F F F F F G z g g g g h M F M l ",
"F b g g g t c F F G z g l G F N x b F F F b c G Y K F F M b b G F G $.q 1 1 : 1 1 : : : 1 : : : 4 9 y 5.} ; $ % # $ $ % % & & ; ; ; & & & V { 5 $ * : : : : 1 1 q F F G F F F F F F F F F F F F F F F G K q 9 G T H H F K u.S.&.F F H %.2 1 : 9 w w w w w w w w w w w w w w w w w t h j t w w w w w w t t u x U J A c x x Z J H 6.@XdXV.! K H F F F F F F F F F F F F F F F F F F F F F F F F F F F F F F F F b Y : 8 K T ^ ] %.>.;.+.Y ^ ) ] o.#.$.$.$.$.$.$.;.3.j.Y.r.1 c ;.+.( <.c 2 x F F F F F F F F F M l d g g u x M l g ",
"F M g g g d c F H F G M G G F b l c F M b M x K G.C.Y c g g g g z b %.9 1 1 : ; ; ; ; : 1 4 5 t x C D K L N b N N H K Y $.2.t.t.j.j.j.j.$.( >.+.E ( ;.( g : : : 9 K ^ L H F F F F F F F F F H F F F G F K q q H L L T F H %.e._ F F H %.2 1 1 8 w w w w w w w w w w w w w w w w w w H e.c w w w w w w w w w k b Z c Z g j j h j *.|.#Xg.@.` _ K F F F F F F F F F F F F F F F F F F F F F F F F F F F F F F F N ^ q ; b G G K L L K G g r w t t g g g g g d d g c / b.2.2 l N N G F 9 4 G F F F F F F F F F G c g g g g j g t g ",
"F M g g u d c F H F F F F F F G N b l g s l z G G.G.G g g g g g g h / 8 : 2 g G T H Y ) $.j.b.Z.Z.K.K.n.n.n.b.z.3.$.$.<.b.b.b.n.n.Z.Z.J.b.j.j.2.<.3.P.-X:XR : 1 q ` :.[ c x c G F F F F F F F F F F L L b 4 q F H F F F F F H F F F H +.2 1 : 8 w w w w w w c ! j w w w w w w w w w b ! x w w w w w w w w t x u x x c j w w i h  .*.4.! ! Y H H F F F F F F F F F F F F F F F F F F F F F F F F F F F F F F F G ( c % x K T L L K F G g g g g t g g g g g g d d g g #.%.2 l b N G b 2 w F F F F F F F G b z g g g g g g t g g g ",
"b c g g g g c F F G G F F b x z l g g g g w g g b b g g g g g t g g K 2 1 c $.%.Y b c c G T T T L L H F F F F F M l c F F F F F H F H H H K H b l x K G.aX Xw 1 9 T 9.{ j t g l c G F F F F F F F F T T g 2 5 F F G F F F F F F F F H ^ 2 1 : 2 q q w w w w T V.b w w w w w w w w w w u w w w w w w w w w w x j j g u w w w t j U Z t Z R Y G F F F F F F F F F F F F F F F F F F F F F F F F F F F F F F F F G T %.& d H L L K G F c g g g t t g g g g g g g g t t T ( 1 w g h x x 1 x G F F F F G c l g w t g g t t t t g g g ",
"% % % : 2 4 q x c b M c h g d d d d d d r s g g t t t t g g u t w 8 8 1 1 c G z g g l g c K L K F G F F F F F F G G F F F c z x c c M F F F H G c l M T c.&X] 1 2 c L c g g g g g b F G F F H L L L K g 4 : 2 x M G G F F F F F F F G h : 1 : & 7 q q q q q j A u w w q q q w w w w w w w w w w w w w w w w t j g u w w w j A j A r 2 t H H F F F F F F F F F F F F F F F F F F F F F F F F F F F F F F F F F F H 2.4 9 G F K F F M h g g g g g g g g g g g g g t x L K 1 g x h l w 4 b G F F G M h g g g g g g u l x x l j g g ",
"& @ O O O X O O @ % - & - : : 2 4 4 8 8 9 q q w q q q 9 8 4 2 - + @ : : 1 l c s g M L D L K H G F F F F F F F F F F F F F h u t t t g l M F L 9.H F F F N z.Z.8 : - 4 4 > > 2 2 8 t g l l l x D g t 4 : : : : & ; 4 w w g l h h l g 8 > : 1 1 ; O & 2 2 8 8 9 q 9 9 q q q q 0 q q q w w w w w w w w w w w w w t u w t u w b w.k 7 2 1 5 K H F F F F F F F F F H L H F F F F F F F F F F F F F F F F F F F F F F G ,.d 4 M Z c c c l g g g g g g g g g g g g g t g Z K K 5 c c g h 8 q Z G F F G h t g g g g g t l G G G G Z G c ",
"$ % % % % % % % @ @ # # # O O O O O O O % + @ % @ + @ @ @ O O # % : : : : w l s h G K L L D F F F F F F F G F F F F F F F l g d d d d d M F H _ H F F F F ( U.l : : ; & & & & % % % % % % % % % & : 2 : 1 1 1 : ; - & % % % % % % % - : : 1 1 1 1 ; : @ O O O O O O O O O O O O # @ % & & - ; : 2 2 2 2 2 2 2 2 2 2 8 Z 2 - 1 & ; : : 2 G H F F F F F F F H K K L L H G F F F F F F F F F F F F F F F F F F F F G %.G 2 x j g g g g g u g g g g g g g g g g g g u x T ^ 9 c c g g - 9 g h z b c g g g g g g g g b G G G c b G H ",
"b G H H H H N N N b b M L b g w w q q g w q q 9 5 5 4 8 4 2 ; ; & & : : : q g d g z M K H G G c b F F F F x x c b M G G F c z l d d g g G D F F M c M F F H b.Y ; 1 1 1 1 1 1 1 1 1 1 1 1 1 1 1 1 1 : 1 1 1 1 1 : 1 1 1 1 1 1 1 1 1 1 : : 1 1 2 8 W P 8 1 : 1 t 9 2 1 1 : : ; - & & & @ @ # # O O O O O O O O O O O O - @ $ ; 1 1 : : 1 c H F F F F F F F L L L L K F F F F F F F F F F F F F F F F F F F F F F F T G 1 g g g g g g g g g g g d g t g g g g d d t u F H 4 q g t w & w u w w g g g g g g g g g l G F F N z c F H ",
"c c c c b b N G H Y T >.z.2.$.$.$.$.r.L.L.P.L.L.L.J.n.n.n.3.#.#.+.T h 1 1 9 g t g g l x c x g g g M F F Y G c g g g g x F F F G x g l x G L G x g d x F F F >.>.& 1 1 1 1 1 1 1 1 1 1 1 1 1 1 1 1 1 1 1 1 : : : 2 4 8 8 2 2 2 1 : : : ; : : 1 9 9 } } 5 1 1 5 9.9.j 1 1 1 1 1 1 1 1 1 : 1 1 1 1 1 1 1 : 1 1 1 1 1 : 1 1 1 1 1 1 1 : 1 1 x H F F F F F F K L L K H G F F F F F F F F F F F F F F F F F F F F F F F b 9 1 g x g g g g g g g g g t t t g g g d d d t g G b 1 9 t g 8 & w g g g g g t t t t u t u c G G G G G G G H ",
"g g g g d d g d t t t c c c g x g G K T ) ( ] +.#.#.+.] ` F c b G +.b.9 & 1 t d g g g g g u g u g c F H 6.h.w.G b h g l M F F F F Z c D L F l a g l M F F %.l.(.5 : 1 1 1 1 1 1 1 1 1 1 1 1 1 1 1 1 1 q t & & ; b Y Y E R R E E Y I H b b k x x u t y 4 2 1 9 ' w.x 1 : : : : : : : 1 1 : : : : : 1 : : : : : : : : : : : : : : 1 : 1 : h H F F F F F H L L K H G F F F F F F F F F F F F F F F F F F F F G M c c 4 > : 4 c c g g g g g g g g g g g g g g t t t g x c x & 2 u t : @ - 2 4 8 q q w w q q q w w x M M N N N N N F ",
"g g g g g d d t t t g c x c x g u 4.(.L F F G G G G G G G g d d g b +.q @ 1 g u t g l g b j g u t x F Y f._.h.Y F G M G F F M c c c c G c g g g c G F F H l.kXpXj 1 1 1 1 1 1 1 1 1 1 1 1 1 1 1 1 1 1 x Q 1 & ; q w w w u u h h b b G I E X.$.&.&.*.*.+.E r : t t 2 8 q q 0 q q u w q q q q q q t l t t t g g g g j l h z x z x q : 1 : g F F F F G F L L L H F F F F F F F F F F F F F F F F F F F F F G x g w : : : : - - > 2 4 8 9 q w w q w w t d g g g g l D c c q $ : w q & @ O O O O O O O O O O O O O @ & & & - : : : 2 ",
"2 4 9 q q q w w w g l c l l g u d G ` H H H F F F F F F F c g g b F H 9 ; q M c l l @.4.i.Z g g t x F H ` f.@.K G G F F F G l x _ L j g d g g x G F F F L (.].+XQ 1 1 1 1 1 1 1 1 1 1 1 1 1 1 1 1 1 1 2 2 1 : 1 0 w q w w w w w w w q q t j l x j j k I -.E : 1 g &.r.t.t.j.I. X`.Z.D.L.L.P.P.Y.T.*XT.Q.Q.^.^.^.^.^.^.^.^.^.^.Q.n.w 1 : q G F F F H L T K H F F F F F F F F F F F F F F F F F F F F F M z w 8 - ; : : : : ; @ O O O O O O O O O O O @ & & - - 9 y t 8 : $ @ O % $ 2 w 8 2 : : & & % % % % % % @ % % % % & ; : 1 ",
"X X X O O O O @ % : 4 4 4 2 4 8 w g z c b b M M N G G G H H c g G g 4 2 : t F F G N @.h.(.' G c g c F F H L b l l c G F F G l ' ].8.g g g g g g c F F F H L 4.B.g ; 1 1 1 1 1 1 0 J q 1 1 1 1 1 1 1 1 1 1 1 : : 0 w w w u u w w w k j t j x u t w q q w +.R 1 1 c K F F F K c.`.B._ T ^ ( ` +.$.;.2.2.r.t.j.j.j.c.z.z.j.j.L.*X*X*X$.1 1 2 c F F F L K T K G F F F F F F F F F F F F F F F F F G G G c l w : % : : 1 : : ; $ % % % $ $ $ $ $ $ @ # # # # # # & ; 1 1 2 : 1 : $ % 1 ( 3.3.<.,.$.X.) H n c g w 9 4 2 : & & & $ % & ",
"$ % $ % % $ $ & 1 4 4 3 & & % % & % % @ % % & - : : > 4 2 q 8 - t - q 2 2 l H H F Y y.(.(.5.J j l G F F F F c g g l T H F H M U u.H g A j g d g M F F F F F G ;.x : 1 1 1 1 1 1 Q aX! 1 1 1 1 1 1 1 1 1 1 1 1 1 0 w w w j k u j k 7.*.x u j t q w w w t X.R 1 1 j F F F F T w.G.w.T G G G G G F G F F F F F F F F H F F G H 2.&X*XU.q : : q F H L L L L K F F F F F F F F F F F F F G G G G F G G c g 4 % - : : : 1 : 4 a g > % % % % % $ % $ $ $ $ @ & & 1 & 1 1 4 1 : : 1 : - 8 h b Y ) o.$.;.<.<.3.3.3.3.3.<.<.$.#.X.) Y H N ",
"c g q 1 $ % * 3 5 9 2 1 1 1 1 1 1 1 & % % % % & : : : 1 8 4 4 ; j 8 u t 8 G R H G G b L 4.H b x M F F F F F M g g Z h.y.L L K H G l Z _.7.g g x _ T H F F F G %.c : 1 1 1 1 1 1 q U q 1 1 1 1 1 1 1 1 : : : : 1 0 w u j Z @.T A j A Z j j j u q w i u j X.E 1 1 g F F F F H K #.Y H F F F F F F F F G F F F F F F F F N h g h r.*X=XK : > 1 x L K T K K F G G G G G F F F H H H F G G b c l d q 2 ; % % : : : 1 : 8 c K K ( n % 4 h g w 4 & % $ $ $ @ 1 2 1 1 ; & : 1 1 1 : : 2 q g t t w t t g g l c b G H Y ) X.#.$.,.<.2.3.t.",
"/ ;.r.t.2.^ d 5 5 9 1 : : 2 2 4 4 4 4 > : & & & : 1 1 1 4 t t u S Z c j Z ` L H G G h g c b G G G F F F F F G c x H i.0.T L L L H M x @.J g g J +X`.H G F F G #.G : 1 1 1 1 1 1 1 1 1 1 1 1 1 1 1 1 : ; @ & : 1 q w u k @.4X_.H x j u j u u w w w k T &.*.R 1 1 g F F F F F F F F F F F F F F F F F G F F F F F F F F M x c M K n.=Xt.1 1 5 9 x L K F F F H F F F G M b c h g w 8 > : - % % & & & : : : : : 1 : t b h g d l b & E m.F.F.m.$.q $ $ & 3 1 3 1 & & ; 1 1 1 1 : : 2 t g g g g g g d t u t t t t t g s s g g l l l c ",
"H G F Y ` t.Z.` 9 5 t R $.2.2.t.t.t.t.t.2.( E Y T >.q.q.<.0.B.).|.e.! Z ! S._ H G G x g g b G G G F F F F F F H H K Y T L T L K F G x g g g g *.%X+XJ G F F G ] G : 1 1 1 1 1 1 1 1 1 1 1 1 1 1 1 1 ; $ @ - 2 c t w w u T S.OX*.c x j u w q w w u b g.@Xq.X.1 2 P K F F F F F F F F F F F F F F F F F F F F F F F F F F F F F F / Q.L.q 5 5 5 1 > w s s w w 9 8 > : - & % % % & & - & % & : : : : : ; : : : : 1 h g u g g h c & h H $.1.v.P.x.w $ & 3 1 1 & ; : 1 1 1 1 1 1 ; 1 t g g g g g g g g g g w g g g g g g g g g g d g ",
"( H H _ K L ` c.t 2 x ( Y K K K H H K K K M l l h H T +.&.q.}.dXdX@X@.q ! V.R H F F c g g c F F G F F F F F H ` ` T T T T R ^ L F %.e.c g g g b @.U H F F F G / G : 1 1 1 1 1 1 1 1 1 1 1 1 1 1 1 : & @ $ : q @.h w w h c ! f.Q j j t q w w w w w j ! 4.R E : 9 ' T F F F F F F F F F F F F F F F F F F F F F F F F F F F F F H H b.Q.x q 5 5 1 ; & & & & & & ; : : : ; ; ; ; & & & # $ & : 2 4 w g b K G g 2 & ; q g t u h h & h b c b N -.P.a.4 % $ 1 $ & : : 1 1 1 1 : ; % 4 g g g g g g t t g t g l l t g g g g g t t t d g ",
"_ ` Y &.^ _ T r.c ; q G G M c c F F F F F M g u j G H Y ` w.).aXaX}.y.u c H H F F F x g g b F F F F F F F F H %.%.L L L K B.9X8.H 4.V.c g g g g x G G G F F G / H : 1 1 1 1 1 1 1 1 1 8 8 1 1 1 1 1 ; 8 u 2 1 4 q w u i u j Z j g w w w w w w w w u h b T E : 1 d F F F F F F F F F F F F F F F F F F F F F F F F F F F F F F F F +./.Y 1 5 1 1 : : : : : : : 2 4 q t x Z Y +.$.&.t.n.L.U. X;X,XeXrXtXtXtXrX.X>.q & 2 q u h g & h b b b b b 1.E.X.& % $ $ $ : 1 1 1 1 1 ; $ $ 4 g g t g g g j x g l g x g l d g g g g u d t g g ",
"K 4.%.&.` ` T +.Y & 9 G c g d l G F F F F M g g c L ` 9.&.%.+.g.g.e.q.h j c l x c x g d l G F F F F F F F G b G D G c c K '.fXB.T K l g g h H G G G G G F F G ( K ; 1 1 1 1 1 1 1 1 1 B c 1 1 1 1 1 2 Q 4.q 1 1 0 u k ! b t u g w w w w w w w w w w j u I +.1 1 q G F F F F F K H G F F F F F F F F F F F F F F F F F F F M x z M K L.>.1 1 1 1 1 1 ; 1 w K >.v.U.:XqXrXuXzXvXvXuXlXcXlXtXxXtXuXlXcXcXcXcXlXvXvX.Xc O % 8 h w & h b b b b b H M.F.w % $ @ & 1 1 1 : ; & $ $ $ 9 g g g g g g g l l x x x j g g u g g g g d g g g ",
"h T B.B.w._ H H K $ & w g g l b c c G F G c g g H _ ( T T H b R T G R c q c c l g d g d c G F F F F F F F M h g l l g l D ` u.&.%.N d d g U 0.T G F G G F H G ( Y 2 1 : 1 1 1 1 1 1 1 2 2 1 1 1 1 1 1 u 4.2 1 1 0 t A S.! u w w w w w w w u w w w w j k 9.y.8 1 8 G F F F K H L K H G F F H H F F F F F F F G b b b b b c g g g b F r.b.4 : : 1 1 1 q &.c.b.c.t.q.t.t.t.a.c.b.v.b.c.c.t.r.r.r.2.t.c.D.Q.,XeXrX<X*XM.H & O 2 2 $ g b b b b b b <.E.$.& $ $ ; 1 ; & $ $ $ $ $ $ q d g g g g g d g j c l l g g g g g g g g g g g g ",
"x b G.aXOX&._ Y ( ; % 4 g g M x d d l x z g g h G F H T L H T Y ` H ` x 9 j g g g g g l G F F F F F F F F F c g d g g g x F L S.V.` z t d b ` 8.R F F F H R H ( T 4 2 1 : : 1 1 1 1 1 1 1 1 1 1 1 1 1 2 j 1 1 1 0 w j c b j w u u w w w j T j u u u k K 8.y.t 1 4 G F G L L L L L H G F F *.B.T F F F F F F b s s g g g g g g h G G ` L.q 1 1 1 1 1 Y %.T T R ( ( ( ( ( ( ( R R R ` ` %.` ` ( ( ( ( T K H K ) $.a.M.E.) & @ % $ g b b b b b b T F.M.w $ $ ; : $ $ $ $ $ $ $ $ w d g g g g g u g x l j t g g g g d d d g g g g g ",
"b ` ).dX4Xy._ F ( 2 % : t g g g d g d g d g g l F H L L H L Q T +.H ` G 1 g g g g g d h G F F F F F F F F F G x g g g g g x K 4.e.` c g g g F Z.#.F F F _ +X4.` T 5 5 1 : 1 1 1 1 1 1 1 1 1 1 1 1 1 1 1 1 1 1 4 i t w w t u U 4.A w w w u c u t j Z Q w.e.&.q 2 4 G F H L L K K F F F F F e.OX` F F F F F F G x z c M G G M b M F H Y L.u : 1 1 1 2 H ( ( ( ( ( ( ( ( ( ( ( ( ( ( +.#.` ` ( ( ( ( G b b b b b b b H X.a.#.: $ $ g b b b b b b G v.E.E $ $ & & $ $ $ $ $ $ $ $ q g g g g g g g j x j g g g g g g g g d d g g g g ",
"! R y.).S.w.` Y &.j & - d g g g g t t t d g g c L L L D x x F L _ H R c 1 w g g g g g b Y F F F F F F F F F F M l j g g g g M R _ #.H l l c G H H F F F L w._ ^ l 2 : 1 1 1 1 1 1 1 1 1 1 1 1 1 2 1 1 1 1 2 2 8 x u u q w w *._.7.j w w w w w w u Z @.@X@X&.2 2 4 c G K L K K G F F F F F H Y H F F F F F F F F F F F F F F F F F F H n.b ; 1 1 1 4 Y ( ( ( ( T H G T ( ( ( ( ( +.%.%.#.( ( ( ( Y b b b b b b b b b b N 1.N # $ g b b b b b b b 1.E.v.2 % $ $ $ & ; ; ; & $ & q g g t t g g x j g g t t t g g g g g g g g g g g ",
"G Y @.&.+.%._ H %.b ; ; 2 w w w u g g g g g l D L K K G g g c H L H ^ l 2 g u t t t g 6.f.b G F F F G G G G G H 0.y.x t t d c F 0.9X0.G G G G G G H H F H L L h 4 : : 1 1 1 1 1 1 1 1 1 1 1 4 Z Z 2 8 2 2 8 8 8 c k j t u u J @.A w q q q q q q w x U e.f.6.t 2 2 c D L L K F F F F F F F F F F F F F F F F F F F F F F F F F F F F F t.K ; 1 1 1 8 T ( ( ( I b b K ( _ ( ( ( ` #.#.` ` ( ( ( ( K b b b b b b b b b b b E <.$ $ r b b b b b b c X.E.E.n $ $ $ $ ; 1 1 : ; ; & q g g g t g j x x g g g g t d g g g g g g g g t g ",
"h H R R Y K _ K / z : 1 - O O O % - : 2 4 8 t Z G D G M l w x b c x s 8 : 8 g w q q w c Z t l c c b M G G G G H S.`.c t w j b N %.`.%.M b b b b G y.r.M c g 9 2 1 : 1 1 1 1 1 1 1 1 1 1 1 1 8 Q U 2 2 t c u j j j 2 : 2 7 2 8 8 9 q q q 0 0 q q t x j c c k t q 2 G L K H H F F F F F F F F F F F F F F F F F F F F F F F F F F F F F >.( ; 1 1 1 q R ( ( ( H H T ( ( ( ( ( ` #.%.#._ ( ( ( ( ( K b b b b b b b b b b b I d.2 % w b b b b b b b H P.1XD.2 $ $ & 1 1 1 & $ $ & q g g g g x x x x l b G G c g g g g g g g d l x b ",
"j G b b c G H Y T q : ; & $ % $ # # O O O O : 1 4 : - ; - & - - & % - > : & % % + @ @ + % @ % % % % - : : > > : q 0 - % - ; : : > 4 : ; ; - - - w |.2Xg 4 ; 1 1 : 1 1 1 1 1 1 1 1 1 1 1 1 1 2 8 8 1 2 i 4.A *.f.6.i 7 7 q 8 & O O O O O O O # @ & & : 2 - 2 q 8 5 G L K G F F F F F F F F F F F F F F F F F F F F F F F F F F F F F F ] %.& 1 1 1 w ( ( ( ( ( ( ( ( ( ( ( +.#.#.#.#._ ( ( ( ( ( H b b b b b b b b b b b H m.r $ w b b b b b b b G !.lXrXc $ $ ; 1 1 : & % $ $ q g g l j x j x l G F F F F x t g g g g g g c G D ",
"l G G c z G F H b ; & % % % % % % % % % & 1 5 2 2 : 1 1 : 5 2 : : : : : 1 : : : ; ; j 8 # @ # @ # # # @ # # # # @ % - - ; ; ; 2 : 2 ! U x 2 : : 4 ` ' q 9 4 1 : 1 1 1 1 1 1 1 1 1 1 2 1 1 1 1 1 1 1 1 4 t Z g.aX5Xe.U c t 5 1 1 : ; ; ; ; & & & & & ; t q Z Q Z q G L L G F F F F F F F F F F F F F F F F F F F F F F F F F F F F F F ^ o.% & & & w ( _ ( ( ( ( ( ( ( ` +.#.%.#.#.` _ ( ( ( ` ( N b b b b b b b b b b b I N.b @ q b b b b b b b T Z.uXuX2.$ $ & ; : 1 : & $ & q j c c x j g g g Z F F F F b g g t g g g g j c h ",
"x G F H F F G M r @ % % & 2 2 > : - $ % 1 4 4 1 & & & & 1 9 8 : 2 ; ; ; ; ; ; ; ; q {.@.# # # # # # @ $ @ # # # @ - : 2 8 1 j A.c U |.3Xf.c c b b H Y K ^ T Y T T T ) ( ( / ` ` +.&.y.0.%.$.$.%.;.;.>.2.r.c.}.aX4X4.k 8 1 1 6 ; ; : : 1 1 1 1 : : : 2 9.~ G @.A y C L H F F F F F F F F F F F F F F F F F F F F F F F F F F F F F F F L #.% $ $ @ q H ( ( ( ( ( ( ( ` %.#.#.#.` _ ( _ ( ( ( R G b b b b b b b b b b b b I N.I @ 0 b b b b b b b K >.rXuXa.& $ @ $ & : 1 1 : 1 j x Z D G g g t g Z G F F F G x l g l l l x c G b ",
"G F G M b c l g 4 % $ 8 <.x.v.x.x.D.D.n.v.t.0.%.T b n T E +.@.( E m h c I T T T Y R s.@.k k h h h b Y Y Y Y I K u : 2 q &.c.I.0XT.*XfXfX6X&X&X&X*X*X-X=X=X=X&X*X*X*X*X*X*X*X=X=X=X,X7X6X=X=X=X*X=X=X-X,X,X,X6X7X1XD.H j q 1 q h l t q 4 4 2 4 q l l q t j j j t 8 j D F F F F F F F F F F F F F F F F F F F F F F G G G G G F F F F G N Y $ $ & & j G Y ( ( ( ( ( ` ` %.%.+.` ( _ ( _ ( ( ( Y b b b b b b b b b b b b b Y N.R @ w b b b b b b b b R ;XuXx.; $ $ $ $ & ; 1 1 2 D L L H b d g g x G G F F F F G G G G G G G F F H ",
"F F c g g g s w - % 4 1.E.E.E.E.!.uXbXbXbXbXbXbXvXuXuXcXcXcXgXgX1X~.E.!.uXcXcXcXcXcXcXtX!.E.E.E.E.!.uXlXlXlXcXlX<Xx 4 %.3X6X,X*X/./.-X*XQ.T.Q.&X XT.T.T.Y.Y.Y.Y.Y.Y.Y.Y.Y.Y.T.T.T.Q. X XT.T.T.T.T.T.T.T.&X*X*X,X=X,XL.w 8 2 Y t.t.j.j.t.t.t.r.2.t.j.b.2.x 9 9 4 1 g G F F F F F F F F F F F F F F F F F F F G b c h g g g x c b c x l g N & ; 1 1 G ( ( ( ( ( ( ` %.%.%.` ` ( ( ( ( ( ( ( ( ( Y H K K K G b b b b b b b Y F.+.$ w b b b b b b b b H P.uXD.: $ $ $ $ $ $ ; 1 1 c L H G c t t j G G G F F F F F F G G F F F F F H ",
"F F b h l x x 8 $ 2 a.1X;X!.E.P.P.,X8X8X,X;X*X*XQ.*X*X,X6XyXhXwX~.W.E.qXcXgXgXcXlXuXuX<XE.E.~.E.E.!.uXlXlXlXlXuXlX2.8 @.V.B.0.+.( ^ ^ T T T ^ _ _ T L L K K K K K K K K K K K Y Y Y Y T Y Y Y Y Y Y Y T ^ ` r.c./.*X;XG ; : d G F H H K K K H H G F L 8.Z.H 1 1 : g G F F F F F F F F F F F F F F F F F F b l g g s s d d g g l z l g g Y 2 : 1 2 K ( ( ( ( ( ( ( ` #.` ( ( ( ( ( ( ( ( ( ( ( ( ( ( ( _ ( R G b b b b b E F.$.$ q b b b b b b b b N t.rXD.2 $ $ $ $ $ $ & 1 2 c F F G x t t l G G G F F F F F F G G G G F F H K ",
"F F G G G F l > 1 t.tX7XU.t.>.#.] :.>.%.` ( K N N N H T *.OXdX).+.( +.c.U.oX.X:X<XeXeX;XE..X5X.XE.;XcXlXcXlXcXcXtXt.4 c ` %.F F F F F G K ^ L L H F F F F F F F F F F F F F F F F F F F G G G F F F F G G F ( K %.Q.>XK ; : w G G F F F F F F F G G F H %.j.9 1 1 u G H F F F F F F F K ` Y F F F F F F H c g g g g g g l c G G G G c x +.2 : 1 2 Y ( ( ( ( ( ( ( ( ` ` ( ( ( ( ( ( ( ( ( ( ( ( ( ( ( ( ( ( Y b b b G b ( F.-.& 9 b b b b b b b b b Y E.v.3 $ $ $ $ $ $ @ ; 2 c F F F b h h c F F F F F F F F F G G G G F H L ^ ",
"b c x l h w ; : y &.a.%._ ( ] %.%.#.` / ^ N b b b b N G ` V.}.s.R Y b K ( ( ( +.+.%.&.&.,.H.aXg.$.t.D.L.:XlXgXhXcX!.q b H H F H F F F F F K L H H F F F F F F F F F F F F F F F F F F F G F H H F F F F F F K H F b.>X( ; : q G G F F F F F F F F F F F F >.T 1 5 u F H H H F F F F F 0.4XG.K F F F H F L M l t t g l c G F F F F F x l / 2 : : 4 T ( ( ( ( ( ( ( ( ( ( ( ( ( ( ( ( ( ( ( ( ( Y G G Y T T Y b b G G G G +.P.<.& 9 b b b b b b b b b n m.m.2 $ $ $ $ $ $ @ ; 1 x F F F F G G G F F G G F F F F F F F F F H K ^ L ",
"& % O O + % ; : b ( ( ( ( ( ( ] #.` / ( K b b b b b b G T R *.+.K G H T / ( ( ( ` ` ( ( ( *.f.*.Y H E ( +.W.uXlXzX.X8 c F F F H F G M c l l G F K K F F F F F F F F F F F F F F F F F F H H L K R K F F F F F F F t.>X$.; : 8 N G F F F F F F F F F F F G T ;.4 q c H Y Y K F F H F F w.5X}.Y F G H L L L L F x c b G G F F F F F G g d H 1 : : 8 R / ( ( ( ( ( ( ( ( ( ( ( ( ( ( ( ( ( ( ( Y b b b b b b b b N K N G b X.P.1.- 8 b b b b b b b b b c a.M.2 & $ $ $ $ $ & : 1 x G F F F F F F F G c c G F F F F F F F F F L L T ",
"$ % $ % - 1 : : G _ ( ( ( Y N K ` +.` T Y b b b b b H H I G K T R ( ( / / ( ` ` #.` ` ( ( ( ` ( ( H N R ( %.eXzXzX*X8 c F F F G M c g s s s x F R R H F F F F F F F F F F F F F F F G H L L L L R K F F F F F F F 2.>X2.: : 4 b G F F F F F F F F F F F H T 2.9 5 A Y _ R L H R K F F K +.R H F H K ^ L L H F F F F F F F F F F F G l g H 1 : : q ( ( ( ( ( ( ( ( ( ( ( ( ( ( ( ( ( ( ( ( ( b b b b b b b b b G G G b b X.P.1.- 8 b b b b b b b b b c <.M.2 & $ $ $ $ & ; 1 1 c F F F F F F F F G N G G F F G F F F G F L L L K ",
"; ; - - : : 1 : x ` ( ( ( Y b b N H R -.%.Y T ( ` +.%.+.T I H ( ` ` ( ( ( ` #.#.#.#.` ( ( ( ( ( ( G b K ( ( U.vXlX*X8 x F F H L h x x g g s z H R 4.T F F F G F F F F F F F F F F F H L T L L H F F F F F F F F F %.*Xt.1 : 4 b G F F F F F F F F F F F H R s.c q B +.%._ Y +._ H F F F F F F F H L L K H F F F F F F F F F F F F F G b +.4 : : q ( ( ( ( ( ( ( ( ( ( ( ( ( ( ( ( ( ( ( ( Y b b b b b b b b G H G b b b +.E.3.- 8 b b b b b b b b b c $.M.2 $ $ $ $ $ ; : 1 2 c G F H H F F F F G G G M x h l z c b F K L K K H ",
"k k k N Y r : : u ` ( ( ( ( N b b H *.4X(.+.+.*.y.).y.+.R ( ` +.` ( ( ( ` #.%.#.#.` ( ( ( ( ( E K b b N ( ( s.cXlX:X9 l F F H '.u.V.L g g z G H ` C.` H G b c G F F F F F F F F F F H L L K H F F F F F F F F F G ( /.n.2 1 2 c G F F F F F F F F F F L +.K &.G J ! f.).i.9.R K H F F F F F G H L L L H F F F F F F F F F F F F F F F G $.4 1 : t ( ( ( ( ( ( ( ( ( ( ( ( ( ( ( ( ( ( ( Y b b b b b b b b G G N b b b b X.P.a.: 8 b b b b b b b b b m X.m.2 $ $ $ $ $ ; ; : 2 c G F G F F F F G G G N l d g t t t g c D L F G H ",
"2 2 8 w k Y 2 : q _ ( ` ( ( H b b H &.].4.E +.&.G.aXf.I b T ( ( ( ( ` ( ` #.#.` ( ( T K T T H b b b b b K ( >.tXcX:Xq c H F L _.3X+XY g z G G F K Y L H c g g b F F F F F F F F F H L L L H F F F F F F F F F F F L T.L.8 : 1 x F F F F F F F F F F F ` B.( %.g q @.@XdX4XB.%._ K F F F F F F L L K H F F F F F F F F F F F F F F F F G $.4 : : u ( ( ( ( ( ( ( ( ( ( ( ( ( ( ( ( ( ( R b b b b b b b b G H H b b b b b ( P.a.: 4 b b b b b b b b b b E x.2 $ $ $ $ $ $ & ; 1 c G c l l x c c h l l l s g g g t g l x x c l h x ",
"2 2 2 8 q H 9 : 8 R %.s.` ( ( T H H R Y I I N Y &.s.*.I H R ( ( ( &.-.` #.%.` _ ( T b b b b b b b b b b b Y ` <XlX!.J 7.+.H 0.2X7X3XV.c c F F F K _ L G h d g M F F F F F F F F H L K L H F F F F F F H H H F F F K Z.P.q 1 : l H F F F F F F F F F F H Y H +.w 2 J +XdX3XV.8._ K F F F G H L T L H F F F F F F F F F F F F F F F F F G &.9 : : g ( ( ( ( ( ( ( ( ( ( ( ( ( ( ( ( ( ( ( G b b b b b b N G G H b b b b b E F.z.1 4 b b b b b b b b b b Y M.8 & $ $ $ $ $ % & ; g l g g g g g u u g g g g g g l l j c x x x g g g ",
"2 2 2 2 2 g q : 4 R ` @.( ( ( ( ( T T b b b H ( %.@.+.+.` ` ( +.s.S.V.0.+.` Y G G T Y N b b H *.K b b b b n K Q.<Xm.Q p.@.H L &.+X&.Y b M G F F L _ Y G h d g G F G G F H H F H L T L F F F F F F F F Y w.Y F F F F j.Q.d 1 : g H F F F F F F F F F F F F F %.x 0 A y.}.C.4.%.%._ K H F F K L L L F F F F F F F F F F F F F F F F F F M &.9 : : h ( ( ( ( ( ( ( ( ( ( ( ( ( ( ( ( ( ( ( ( H b b b b G H G H G b b b b b Y F.x.1 4 b b b b b b b b b b ( *Xt 1 $ $ $ $ $ $ % % q t g g g g g g g g g g g g x K G x j l g g g g g ",
"2 2 2 8 4 g g : 2 Y ( ( ( ( ( ( ( ( H b b G ( *.+.+.` ( ( E H T e.{.).s.#.( H G G Y ( T b b I s.T b b b b b b <.E.m.9 j H G G *._.R H F F F F F H H H G c g g x x h b H H _ K _ L T L F F F F F F F F K ` L H F F F >./.x 1 : w H F F F F F F F F F F F F H %.l t k Q w.&._ K H L T K H L T L L L G F F F F F F F F F F F F F F F F F G &.q : : c ( ( ( ( ( ( ( ( ( ( ( ( ( ( ( ( ( ( ( ( ( K b H G G G N b b b b b b b I F.v.2 2 b b b b b b b b b b K Z.q $ $ $ $ $ $ $ $ @ 2 g g g g g g g g g g d d g g c x x l g g d d g g ",
"2 2 8 q q j h : 2 H ( ( ( ( T Y R T b b b G ( &.%.%.` ( ( E H I s.V.V.&.+.( +.%.+.` ( G b b N H b b b b b b b #.E.M.4 : g l h G ` H F F F F F F F F F F F N G G c g b F H ` ` #._ T L F F F F F F F F F F H H G G F / Q.F : : q F c x G H H F F F F F F F F %.l u 9 J Q _ ( Y H F H T L K L K H H G F F F F F F F G M G F F F F F F F M $.q : : c ( ( ( ( ( ( ( ( ( ( ( ( ( ( ( ( ( ( ( ( ( _ H H H H N b b b b b b b b N M.m.2 2 b b b b b b b b b b b ,.2 $ $ $ $ $ $ $ $ & - w t t g g g g g g g d w x c c l g t g t g g d g ",
"2 2 2 2 2 9 w & ; x H G K G b b b n b b b b G @.e.&.%.` ( ( ( ` %.%.8.%.` ( +.*.*.+.Y b b G Y G b b b G U 6.I $.<XP.9 : w g g g G F F F F F G G G G G G N b ` _ G g g M L ` y.w._ L b M G F G c x x x b G F G c l M L T.T : : q M z x F &.f.R F F F F F F F %.c 2 2 G Y Y _ H H H H T T L K F F F F F F F F F F F M l x F F F F F F F M $.q : : c ` ( ( ( ( ( ( ( ( ( ( ( ( ( ( ( ( ( ( ( ( #._ K G b b b b b b b b b b b v.M.4 2 b b b b b b b b b n b -.2 $ $ $ $ $ $ $ $ $ @ ; q t d g t t u t u u d g x l g g g u u l x g g ",
"2 2 2 2 2 8 w @ % q c c c c b b b b b b b H Y y.@Xf.@.` ( ` +.#.` #.` ` ( ( ` +.+.` R b b b K N b b b K l.C.w.( W.P.w & w d g d l M G F N b l l l l l c h g @._ x l l x L %.@XOX! b l c F F M c z z z b G F G N M F H L.+.1 1 4 G H F L ).aXq.F F F F F F F #.g : 2 b H H R K H T T T K H G F F F F F F F F F F F F G G H F F F F F F M $.w : : b ` ( ( ( ( ( ( ( ( ( ( ( ( ( ( ( ( ( ( ( ( ` ` H b b b b b b b b b b b b a.M.4 2 b b b b b b b b b b b $.2 $ $ $ $ $ $ $ $ $ $ O O - 4 8 q q q w w w w 0 w q 9 9 8 8 2 2 > > 1 ",
"2 2 2 2 2 2 r $ @ q b b b b b b b b b b b H Y B.5XV.*.%.` ` %.%.#.` ( ( ( ( ( ( +.+.( E N b b b b G ( ( i.(.@.G M.P.z & w t g g u g g h l z g g g h x H G b M G M G T _ _ %.|.}.+.K H G F F F F F G G F F F F F F F T oXr.2 1 2 M F F H %.s.R F F F F F F F %.g : 1 x H H H K F H L K H F F F F F F F F F F F F F F F F F F F F F F H M %.t : : b ` ( ( ( ( ( ( ( ( ( ( ( ( ( ( ( ( ( ( ( ( ( ` ( Y b b b b b b b b b b c 1.M.4 2 b b b b b b b G b b b O.2 % % $ $ $ $ $ $ $ $ % @ O O O O O O X O O O O O O O O O O O O O O % ",
"2 2 2 2 2 2 r $ @ 8 b b b b b b b b b b b b H @.6.@.I ( %.#.%.+.` ( ( ( ( ( ( q.V.0.( ( ( G b b b b T ( +._ Y H P.;XH & w t g g g g g d l b g g x H +.C.y.+.R H F F K L T _ &.&.+.Y F F F F F F F F F F F F F F F F K I.t.2 1 2 b F F F F H F F F F F F F G #.g : > x F F F H F K K H F F F F F F F F F F F F F F F F F F F F F F K K G #.t : : c ( ( ( ( ( ( ( ( ( ( ( ( ( ( ( ( ( ( ( ( ( ( ( ( ( Y b b b b b b b b b c $.F.8 4 H n b b b G G G G b b X.2 % % $ $ $ $ $ $ $ @ @ # # # @ @ @ @ @ @ @ $ & & & & ; ; ; & & $ $ & ",
"2 2 2 2 2 2 r $ @ 2 b c b b b b b b b b b b G I G T G R #.#.+.( _ ( ( ( ( ( ( f.).s.K H I H b b b N R R R ( _ ( *XlX#.$ q d g t t w t d g l h c G K &.4X`.` K F F F F K H Y R K R H F F F F F F F F F F F F F F F F F ;.z.2 1 1 x F F F F F F F F F F F F F +.l : > x F F F F F H F F F F F F F F F F F F F F F F F F F F F F K L L L K #.g : : c ` ( ( ( ( ( ( ( ( ( ( ( ( ( ( ( ( ( ( ( ( ( ( ( ( T b b b b c b b b b b 2.;Xq q ( Y N b K G H G b b b X.2 % % $ $ $ $ & ; & ; w s g g g g 8 $ $ w n I Y Y Y Y Y T T T T T Y T ",
"2 2 2 2 2 2 r & $ 2 G Y T K b b b K E T b b N b b G Y _ +.%.` ( ` +.( ( ( ( ( &.e.R b b b b b b K R H b b K ` _ U.vXz.& q g g t l x c b G G F F H T +.0.+.Y H F F F F G H K K H K K F F F F F F F F F F F F F G H K K #.b.q 1 1 l F F F F F F F F F F F F F +.x : > x F F F F F F F F F F F F F F F F F F F F F F F b z z c F T L L K G +.l : : h ( ( ( ( ( ( ( ( ( ( ( ( ( ( ( ( ( ( ( ( ( ( ( ( ( K b H Y T Y G b G K T t.,Xq w R ( ( ` ` Y b b b b b ( 2 % % $ $ $ & 1 1 2 N K Y K K K Y ) > : c c h l j j j j l l l h x b L ",
"8 2 2 2 9 2 u ; & 2 G G b b b b G ( ( ` H b b b b b b Y &.y.` ` %.*.%.+.T T K b b b b b b b H T ( R N N G K _ ` c.uX!.2 g l g g b F F F F F F F H H K R K K H L K F F F F H H F F F F F F F F F F F F F F F F F H T L ` n.q 1 1 g F F F F F F F F F F F F F +.c : > x F F F F F F F F F F F F F F F F F F F F F F G g a d g z G K H F M +.h : : g ( ( ( ( ( ( ( ( ( ( ( ( ( ( ( ( ( ( ( ( ( ( ( ( ( R R ( ( ( _ ( ( ( _ ( 2.!.4 t ( ( ` #.#.` G b b b b R 2 % $ $ $ $ 1 1 : q b g w w w w w b 1 : w t t g g g g u g g h c b G H ",
"8 8 2 A f.J u : @ ; h b b b b b K ( ( T b b b b b b b b H R ( +.%.*.+.K b b b b b b b b G T ( ( ( _ _ ` _ ` ` Y ( !.*X8 g c s g c G F F F F F F F F F H F F Y B.w.F F F F F F F F F F F F F F F F F F F F F F H L T L L z.q 1 : t F F F F F F F F F F F F F ` b : 1 x F F F F F F F F F F F F F F F F F F F F F F M g g d l x x M D F G ] c : : w ( ( ( ( ( ( ( ( ( ( ( ( ( ( ( ( ( ( ( ( ( ( ( ( ( ( ( ( ( ( ( ( ( ( ( ( ,.D.2 t ( ` %.+.#.` K b b b b Y 1 $ $ $ $ & 1 1 : q H N c l g g g b 1 2 u g g g g g g l c G G F F F H ",
"9 2 8 @.+Xi.c 2 @ & h b b b b b N G N b b b b b b b b b b b b n T Y I +.N b b b b b b Y ( ( ( ( ( ` #.%.` ( H b I P.*Xq d c s g g c G F F F F H ` &.G x M F R B.y.H F F F F F F F F F F F F F F F F F F F F F K T L K H t.q : : q F F F F F F F F F F F F F / M : 1 x F F F F F F F F F F F F F F F F F F F F F F G c l l c x c M G F G ] b : : 8 R ( ( ( ( ( ( ( ( ( ( ( ( ( ( ( ( ( ( ( ( ( ( ( ( ( ( ( ( ( ( ( ( ( ( ( &.,.: g ` %.%.+.( ( Y b b b b G & $ $ $ $ & 1 1 : q F F F F c h s N : 2 u g g g g t l G G G F F F F H ",
"2 2 2 w U c b w @ & j b b b b b b b b b b b b b b b b b b n H b H +.K K b b b T G H R ( ( ( ( ( ( ` #.#.` Y n b N M.,Xt w c t g g g b F F F F H s.).@.g c G F Y H F F F F F F F F F F F F F F F F F F F F G K L L K H F 2.w : 1 q G F F F F F F F F F F F F ( N ; 1 x F F F F F F F F F F F F F F F F F F F F F F F F K L K F F F F F G ] N : : 2 L _ ( ( ( ( ( ( ( ( ( ( ( ( ( ( ( ( ( ( ( ( ( ( ( ( ( ( ( ( ( ( ( ( ( ( %.N : j #.` %.` ( ( H b b b n h $ $ $ $ $ & 1 1 : q F F F F F N h N : 1 t g g g g t l c c Z G F F F H ",
"2 2 2 2 2 2 q k ; ; x K R R ( ( T G b b b b b b b H T K N H I G ` e.! b b b R g.&.` ( ( ( ( ( ( +.#.#.+.( ( T Y I U.rXd 4 g t g g g g z c G G H &.B.Y x M F F F F F R w.K F F F F F F F F F F F F F F F F K T T H F G F $.q : : 8 G F F F F F F F F F F F G ( N ; : x F F H F F F F F F F F F F F F F F F F F F F G H L K L H F F F F G ` G : 1 : c ` ( ( ( ( ( ( ( ( ( ( ( ( ( ( ( ( ( ( ( ( ( ( ( ( ( ( ( ( ( ( ( ( ( ( I 8 2 g ` %.%.` ( R b b b b k 2 $ $ $ $ $ & 1 1 1 q H F F F F F x N : & w t u g g t t g g g c F G G H ",
"q q 0 9 8 7 q b 2 ; r N R ( ( ( ( ` R L b b b b b Y ( ( ( Y K Y T ( R K K b K 6.@.( ( ( ( ( ( #.#.#.` ( ( ( ( ` ( U.;X8 : t t d d g d d g l G F H T F F G F F F F F _ s.Y F F F F F F F F F F F F F F G H L L T H G G G H 2 : 1 4 M F F F F F F F F F F F G ( H & 1 x F H H F F F F F F F F F F F F F F F F F G F K T L L L H G F F F G ( H : 1 1 8 T ` ` ` ` ` ( ( ( ( ( ( ( ( ( ( ( ( ( ( ( ( ( ( ( ( ( ( ( ( ( ( ( ( T g 4 5 2 l Y ` ( T Y N c g w > & $ $ $ $ $ & 1 1 : 8 F H H F H F h c : @ 2 d g g g g g g u t z F H H K ",
"q w w w w q w H 8 & q H ( ( ( ( ( *.0.%.L b b b b b Y R ( ( T Y G R @.( ( H b H R ( ( ( ` _ ` ` #.#.` ( ( ( ( ( ( c..X8 & q q w d d d g l x G F F F F F F H F F F F H K H F F F F F F F F F F F F F F K L T T L F F G l 8 : : 1 2 b F F F F F F F F F F F G ( K ; 1 x F F F F F F F F F F F F F F F F F F F F K K L L L K K F F F F F G ( H : 1 : : 2 w w g g k c b b H K Y Y Y T R R R ( ( ( ( ( ( ( ( ( ( ( R R T K b 8 q 9 9 5 : ; 2 4 > : ; ; - % % % $ $ $ $ @ & 1 1 1 : 8 d g l l g 9 : % % O - 4 8 2 : - % % % - > 2 8 9 ",
"w w w w w w w H q & t ( ( ( ( ( ( %.0.&.T N b b b b b N K K N T K e.f.` ( R T R ( ( ( ( ( +.%.#.#.#.( ( ( ( ( ( ( q.*X5 : % + % - > 8 w l x c c b M N N G G G F F F F F F F F F F F F F G G G G G H F H H F b z w 9 > & : : 1 1 2 b F F F F F F F F F F F G ^ T & 1 x F H F F F F F F F F F F F F F F F F F F T T T L H G G F F F F F G ^ H : 1 1 : : - ; : : - - - ; ; ; : : > > 2 8 8 9 9 e 0 w w w w w e 9 9 7 > : 2 5 9 5 4 1 : : ; : : : : : 1 : & % $ $ $ $ $ & 1 1 1 : & % % % % % % % % $ @ O X X X O O # @ % ; - - - ; ",
"w w w w w w w b h & q T R ( ( ( ( +.+.%.( ( Y b b b b b b b b b Y @.%.( ( ( ( ( ( ( ( ` +.#.#.` +.` ( ( ( ( ( ( ( 2.n.1 1 : - % O O 8 c q % & & & - - ; : : : > > > > > > > > > > > > > : : : : : 8 4 4 4 - & % % & - : 1 1 1 : 1 c F F F F F F F F F F F G T ( ; 1 x F F F F F F F F F F F F F F F F F F L L L L K F F F F F F F F F G T K 1 1 1 2 8 8 4 4 4 2 2 2 1 1 1 1 1 : : : : > : : ; - - - & & & & & & % % & : 4 4 4 1 : ; & $ $ & & ; : 1 1 : ; & & & $ $ & 1 1 1 > : : : : : : : & $ $ @ $ @ @ % % % % % & : : : ; ; ",
"w w w 0 q 0 w j n & : c b G ( ( ( ( ( ( ( ` ` K b b b b b b N Y ( ( ( R T Y K H H G Y %.%.#.` Y ( ( T R ( ( ( ( ( &.X.1 1 : : : $ & _ '.@.1 1 : : ; ; ; - - - - - - ; : - - - - - - - - ; ; : 4 4 5 4 4 1 1 1 1 1 1 : : 1 1 1 1 1 x F F F F F F F F F F F G T / : 1 x F F F F F F F F F F F F F F F F F F K T L K F F F F F F F F F F F T Y 1 1 4 +.D.L.n.b.z.t.2.>.$.] ( ^ T H G c z l w 4 1 & $ $ $ & & ; : : : ; - & : 1 & : : % @ # # $ $ $ & ; 1 q b Y / #./ T / %.$.%.` ^ T T K H N N b c h g w q q q q q 9 9 9 8 8 4 2 1 ",
"w w 0 7 2 q q w I 2 ; h b N ( ( ( ( ( ( I G T K b b b b b H R ( ( T G b H b b b b _ ] %._ K G Y ( E b H ( ( ( ( ( E r 1 1 : : 1 8 q _ (.R g t w w w q q q q q q q 9 t @.x 9 9 9 9 9 9 9 9 9 9 w d d q 9 9 9 9 q 9 8 4 4 2 1 1 1 : l F F F F F F F F F F F F T ` : 1 x F F F F F F F F F F F F F F F F F F G K K F F F F F F F F F F F F T T 1 1 w +.j.Y././.*X*X*X*X*X*X*X*X*X&X&X&X/.Q.z.<.;.w $ : N / $.$.$.$.$.$.#.O.X./ +.r.>.H M z s 4 $ $ % 2 K %.+.` ( ^ T Y ^ ` ] %.%.%.%.:.;.>.<.r.t.j.j.z.j.2.;.$.;.,.<.<.2.3.2.2.<.<.",
"w w w 0 0 w w 0 G w 1 h b N ( ( ( ( ( I b b n n G K K Y T ( ( ( T n n G T I G b n _ %.] G b b b N T Y R ( ( ( ( T r 2 1 1 : 1 c T ) $.j.j.j.j.j.j.j.z.j.c.z.t.t.t.t.b.@XD.t.t.t.t.t.t.t.t.t.t.t.j.t.t.t.t.t.t.t.t.t.t.t.t.w : 1 1 h F F F F F F H L H F F F K +.: 1 x F F F F F F F F F F F F F F F F F F F F F F F F F F F F F F F F F Y T 1 1 g F G K ^ ] ] #.%.] +.+.$.$.$.;.;.;.>.>.+.3.b.^ $ 2 c N E $.,.2.3.t.t.t.t.a.z.&XQ.z.z.z.z.<.8 @ & j j d l M F F F G L L L L K G G G G G G G G G G M F F v h l h c b N Y ) $.<.j.",
"q q w w w w w 0 c b 1 w b N ( ( ( ( E n b b b b R ` H T ( ( ( ( H b n I R R H b H ( #.` R G b b H R ( R R T Y b 8 : 1 1 1 : 2 g t g G L H H %.` H H H H K H ` T L H K T L K K K K H H H H H H H H H K H H H F H K K K K <.( ; 1 : g F F F F H H L K L H F F K #.: 1 j F F F F F F F F F F F F F F F F F F F F F F F F F F F F F F F F F Y ( 1 1 j F F F L L L L K G G G G G G G G G G c g <.*Xj.: 8 l w u g l c N K H H G G H ( #.K Y o.3.z.h # 2 t t d g l F F F K L L K K F F F F F F F F F F F F F F G x g u t t t t d g z >.",
"2 2 8 q q w w q u H 1 2 b K ` ( ( ( R H N b b N R R R &.+.( ( R N m c b U K b h b b b k g r w e 9 8 > > ; > : - : : : 2 2 q c H g g x c K H _ R F F G F H F T K K F F F F F F F F F F F F F F F F F F F G x g c F F F F L >.1 1 : t F G F H L L L L K F F G K #.: : l F F F F F F F F F F F F F F F F F F F F F F F F F F F F F F F F F K ` 1 1 x F F K T L K H F F F F F F F F F F F M x ;.>Xn.2 8 b g u d g x M G l t t u u u x c g g +.z.b # 4 d g g g g M F H K L L H G F F F F F F F F F F F F F F F G l g g g g g g g d K ",
"2 2 2 2 2 0 w w w K 8 : q j H G G G G G b c g w w w k J Z r e 9 , - - - : - & + - - - - - - - : : - % $ & 9 8 2 : : 1 1 5 y.|.y.c c x c F G F F H F H F T %.F F F F F F F F G M c b N F F F F F F F F F c g g c F F F F F >.4 : : q F G H K T L K H G F F G H #.: : l F F F F F F F F F F F F F F F F F F F F F F F F F F F F F F F F F K +.1 1 x F H K L L H G F F F F F F F F F F F G G ^ *XL.2 8 G c g l c G G G c g u u u u u g g t H z.N # 9 d g g g g c F L L L K F F F F F F F F F F F F F F F F F G l d d g g g g g d l ",
"2 2 2 2 2 q q q q G d 5 2 2 > ; - - - % @ @ @ + + O 2 q q : : - @ @ @ @ @ $ @ @ - : : : : : : : ; & - 2 1 q 4 : : 1 1 2 8 V.3XOX` z c G F F F F H F F F H K F F F F F F F F G l g g c G F F F F F F G z g g x G F F F F M >.q : : q F G H L L L H G F F F G H %.1 : l F F F F F F F F F F F F F F F F F F F F F F F F F F F F F F F F F K +.2 1 x F L L L H F F F F F F F F F F F F F F F K Y.L.4 8 G F M b h h b F M g u u g g g g g t c 3.N # 9 g g g g u j H L K D F F F F F F F F F F F F F F F F F F G g d d g g g g g g g ",
"2 2 2 2 2 2 2 2 8 h j 3 4 2 9 w g g w w q q q 9 9 8 q g g q 8 2 2 1 1 : 1 : : : : 2 : : : : 2 : & & A C.c 2 1 : : ; ; 1 q @.`.y.L H F F G G F F F F F F F F F F F F F F F F G l s g h N F F F F F F G c c M F F F F F F M ;.g : : q G F L L L H F F F F F F H $.2 : l F F F F F F F F F F F F F F F F F F F F F F F F F F F F F F F F H K #.2 2 x L L K H F F F F F F F F F F F F F G G F H L.L.4 8 G F F F b c b F G l d g d g g g g g l <.H # 9 g g d d u x x K K F F F F F F F F F F F F F F F F G c c l g g g u t d d g g g ",
"2 2 2 2 q q 2 2 2 q 2 1 q Y ,.2.2.$.Y Y Y Y Y T T Y ) 2.r./ Y T T T Y T T T T Y Y Y Y Y Y Y Y Y +.>.D.3Xc.>.>.>.$.>.Y 1 1 4 J _ L D G c l b F F F F F F F F F F F F F F F F F c g l c M F F F F F F F F F F F F F F F F M +.l : : q H L L H H F F F F F F F F $.2 : l F F F F F F F F F F F F F F F F F F F F F F F F F F F F F F F F F H +.4 2 b K T K F F F F F F F F F F F F F G c h c F b.L.4 8 N F F F F F F F F M l g g d g g g g g ;.N # q g g d d j x x c c b G G F F F F F F F F F F F F F c g g g g g g g t t g g g g ",
"2 2 2 2 *.U 2 2 q q 3 1 c j g l x j t w w w t G G d d c x w w w w w w r r r r s g g h h l g g h l b T ` T T ^ ^ ( %.c.w ; 5 j D H b l s g b F F F F F F F F F F F F F F F F F G l l G F F F F F F G c b F F F F F F F F M ] l : : q L L L K G F F F F F F F F &.8 : l F F F F F F F F F F F F F F F F F F F F F F F F F F F F F F F F F H %.4 5 C L T K G F F F F F F F F F F F F F x l M F t.L.2 8 N F F F F F F F N N G G c z g g g g g #.b % q g g g j j c l j g g l c G M c x z x c G F F F F F c g g g g g g g g g g g g g ",
"9 2 2 2 q 0 8 q q 2 & 2 t t t g g g g g g g g c c x M F M h g g g h z h g s g s s s c G G x g g d a z G G G H H F K T H 3 5 j D x g g g b F F F F F F F F F F F F F F F F F F F b z M F F F F F G x s c F F F F F F F F G ] l : 1 t L L L H F F F F F F F F G ;.9 : g F F F F F F F F F F F F F F F F F F F F F F F F F F F F F F F F F K $.y 5 G K L H F F F F F F F F F F F F F F F G F F 2.M.2 8 N F F F F F F F G G G F F G M l g g g ( b # q g x c x x j g g g g t g g g g g g d g c F F F F F c d g g g g g g g g g g g g ",
"q 2 2 2 2 2 q q q - @ 1 t d g g g g g g g g g t x G G c c c c b M G F G h g g g z c M G G G G b c x b G F L 0.w.Y G K ` 9 9 j G g g h M F F F F F F F F F F F F F F F F F F F F F G F F F F F F F x z G F F F F F F F F G ` x 1 5 t L K L F F F F F F F F F G ;.q : g F F F F F F F F F F F F F F F F F F F F F F F F F F F F F F F c l G ;.t 5 c F F F F F F F F F F F F G G F F F F F F G ;.n.2 9 N F F F F F F F F F F F F F F G l d g T h # 9 x j x x l g g g g g g g g g g g g d t c F F F F F x d g u g g d d g g g g g g ",
"0 2 2 2 7 q t g y & $ : t d g g g g g g x l d t h G G g d g g l c F F M g g s l c c x l l l l c F F F F F _ S.G.#.H L l 5 5 t G c c M F F H F F F F F F F F F F F F F F F F F F F F F F F F F F F G G F F F F F F F F F G ` G 9 9 t K G G G F F F F F F F F G &.q : g F F F F F F F F F F F F F F F F F F F F F F F F F F F F F F F b x c ;.t 2 l F F F G F F F F F F F N h z M F F F F F F ` ,.; 5 G F F F F F F F F F G G N N G G l g g Y g # 2 c x x g t g g g g g g g g g g g g d u x G F F F G g t u u g g d d g g g g g g ",
"q 2 2 8 q q q q 2 & $ & w d g g g g g g g u g t h G x g g g g g c F G x g g g s g g d g s s l M F F F F F K &.0.] L L x 1 1 9 G G H F G c x c F F F F F F F F F F F F F F F F F F F F F F F F F F F F F F F F F F F F F D #.c 5 5 q G G F F F F F F F G F F G $.q ; g F F F F F F F F F F F F F F F F F F F F F F F F F F F F F F F H L L >.9 1 l F F F F F F F F F F F b g g g c G F F F G ( <.& 4 G F F F F F F F G c h h h h h g s s d H w $ % w x g g g g g g g g g g g g g g g g g g b F F F c l g d g g g d d g g g g g g ",
"q 8 j g g g 9 @ @ $ $ $ q g g g g g g g g g g t g g g l G c x c F F G l g g g s g g g l g s l x c c x c G G K L L c K c : : 8 G K 0.H l s d l G F F F F F F F F F F F F F F F F F F F F F F F F F F F F F F F F F F F F D :.c 2 1 9 G F F F F F F F F G F F G %.t ; g F F F G G F F F F F F F F F F F F F F F F F F F F F F F F F F F K L ;.q 1 l F F F F F F F F F F F G x g s a c F F H H ( j.1 4 c c N F F F F F G x g g g g s s s s g Y g $ % : d g t t t t t d d d d d d d g g g g t l G F H x x g l t g g g g g g g g g g ",
"q q j j g q @ X % $ $ @ 2 t u g g d t g g g d d g g x K _ L G G F F G b l g g g g g g g g g g g g g g g b F K ^ K l b H : : q &.y.XX_ h g c G F F F F F F F F F F F F F F F F F F F F F F F F F F F F F F F F F F F F F G ] c 1 : 8 G F F G F F F F F F F F G #.g : t F F F H H F F F F F F F F F F F F F F F F F F F F F F F F F F F F H &.q 1 l H F F F F F F F F F F F G b z g c H H L H ` r.; & 9 d l b F G G G G F N c z h g s a w l b 9 % % # : q w u d d d t t d t t t d d d d g g g l F K G x x g t g g g g g u u g g j ",
"g j g 9 : O O % $ $ @ @ @ q t w t l j j w w w w w g x l l g g g l l x b b g w t t t t t t t t u u t t g b G G L D g t l : 1 9 C.3X3XOX*.x G F F F F F F F F G F K H F F F F F F F F F F F F F F F F F F F F F F F F F F G ` l : : 8 G F G G F F F F F F F F G +.j : w F H K L H H F F F F F F F F F F F F F F F F F F F F F F F F F F F H &.q : j H F F F F F F F F F F F F F F G K L L L D K ) @ @ O : 4 w l l h z z l h g g w 8 : - % O X % % $ $ O O % ; : : : : : : : : : 1 1 1 1 1 2 2 4 9 t 8 9 4 2 2 2 4 4 4 4 4 4 4 8 q ",
"O & $ # @ $ $ % $ @ @ @ @ O % % & ; - % + + + + + % & % + + + @ + + + % & % % % % % % % % % % % % % % - > > > > 2 - + ; : 1 2 4.3X3XB.K G F F F F F F F F F H K L K H G F F F F F F F F F F F F G F F H F F F F F F F F M / g ; : 8 G F G G G F F F F F F F G ] z : w L L L T L H F F F F F F F F F F F F F F F F F F F F F F F F F F F F $.t : g F F F F F F F F F F F F F F G G K L H M g x K $ & & & % % % % % % % % % % % & % @ # # $ % $ % $ $ $ @ O O # # # # # # # O O # # # # # # # @ & & & O O O O O O O O O O O O O # ",
"; ; ; & & @ $ $ @ @ @ $ $ % @ & ; : - % # $ # % $ & : & $ & & ; & % % % % % % % % @ % @ & ; : - & % & ; - - : - - % % ; 1 1 1 %.4.V.%.c M F F H F F F F F K D M L L F F G G G G G F F F F F F N c G F F F F F F F F G F G ) q : : 4 G F G G G F F F F F F F G ] c ; d T L K K F F F F F F F F F F F F F F F F F F F F F F F F F F F F F F %.g : g F F F F F H H F F F F F F G z l C K D z g x H & 1 1 1 1 1 1 1 1 1 : : $ $ & : 2 4 8 8 2 2 2 2 1 1 : ; & & & $ $ $ @ @ @ @ @ @ $ $ $ $ $ & 1 3 1 & % % % % % % % % % $ $ $ % & ",
"$ @ @ % % & @ @ # # # # # # # & & & - % # # $ * 1 1 4 4 : : 1 : & % & : : ; & ; ; & & ; 1 1 1 1 : 1 1 1 1 1 1 : & $ % $ : 1 : - % 2 4 : 8 g l z x c b M G B x c K H H ` Y H H H H H F F F G F G G G G G G G G G G F H H b w 2 : : 2 M F F F F F F F F F F F G ] b : d L L K F G F F F F F F F F F F F F F F F F F F F F F F F F F F F F F +.g ; g F F F F F F F F F F F F F G z x G K F G G K / : 1 : & : : 1 1 : : & ; 4 w r h c N N b g r u g g h h h k k k h u r w 0 9 2 2 : & & $ # $ 1 1 & $ O # # # # # $ $ $ $ $ $ $ % $ ",
"; & $ $ ; 2 w h b b n N N H ( +.+./ ) N c h z c l c b c h l g 2 % $ $ ; : 1 8 U U 8 1 1 1 1 : ; $ & : : : : : & @ $ $ $ : 1 : : ; - & % % % % % % % % & - : 1 : : > u t 8 8 q w w g l z c c x c b M M N G N M M b c g 9 ; : 1 : : 2 b F F F F F F F F F F F G ` G 3 g L b b F F F F F F F F F F F F F F F F F F F F F F F F F F F F F F F +.g ; t G F F F F F F G F F F F F H H b F D F F F L +.: 1 1 H t.c.n.>.2 1 w r r w 9 8 4 2 2 2 2 2 2 2 2 2 2 4 8 8 9 9 w q w r u g h h h h h h 5 3 1 & 4 l b N H H H H K Y Y Y Y Y Y Y ",
"1 : 2 T v.m.F.E.E.E.~.~.!.!.;XeXzXtX1X~.E.E.E.Q.W.!.,XeXyXrXeXn.2 % @ & g Y 0.}.|.&.( &.>.&.Y H H T +.) Y H c 9 : % $ & : 1 ; & & ; : 1 1 1 1 1 1 : : 2 2 4 2 1 4 - i 8 & & - % % % % % - % % % - : > > > > > : - % % % & ; ; : : 2 c F F F F F F F F F F F G ` L 5 t c g c F F F F F F F F F F F F F F F F F F F F F F F F F F F F F F G +.l ; t G F F F F F c c F F F G K L T L F G F F F K / : 1 8 +.c.n.L.n.4 2 8 2 2 2 2 2 2 2 2 2 2 2 2 2 2 2 2 2 2 2 2 2 2 2 2 2 2 2 2 2 2 2 8 j j 1 1 4 b N b b c c x x z z z z z z z x ",
"z : l U.qXE.N.m.x.a.a.1.<.=.$.t.b.$.$.#.+.$.$.&.#.X.X.$.L.rXlXtX$.& % 2 c M T y.s.R H ( >.$.Y ) >.b.L.Y.Q.Q.D.1.$.+.c 1 1 1 : & $ & & : 1 1 1 1 1 1 2 9 2 4 1 2 q 1 1 8 2 1 q w q 9 4 4 4 2 2 1 1 1 1 1 2 2 2 4 2 4 w g N T Y 8 : 1 c F F F F F F F F F F F G ] ^ 5 t g l G F F F F F F F F F F F F F F F F F F F F F F F F F F F F F F G +.x ; w G G F F G c g c F F F H L L L L G F F F F K / : 1 9 G H H K <.4 2 2 4 4 2 2 2 2 2 2 2 2 2 2 2 2 2 2 2 2 2 2 2 2 2 2 2 2 2 2 2 2 2 q y x 1 1 q u t u t t d d d d d d d d d d g ",
"T : c ( $.( H b b b N b c c b T ^ K c c M K T ( T Y T _ ` s.<XlXQ.q $ 1 t d g h h g d g M c l c G G F L ( ] / ,.n.*XQ.t : 1 1 1 : : : 1 1 1 1 1 1 2 9 9 4 : : : : 1 2 S u 4 +.t.t.t.t.r.r.r.<.>.>.>.>.>.2.<.r.2.) T Y Y T #.c.H : : j F F F F F F F F F F F F #.L 5 t c M F H F F F F F F F F F F F F F F F F F F F F F F F F F F F F F G +.b & q G G F F N g g M F F K L T L L K F F F F F K ` : : 9 G F H F $.4 2 2 8 q 2 2 2 2 2 2 2 2 2 2 2 2 2 2 2 2 2 2 2 2 2 2 2 2 2 2 8 q q 9 q u ; : t u u g g g g d g d d d g g g g g ",
"( 1 H ` ( T b b b T ( R N b G ( ( ( N H ^ #.] ( ( ` &.0.0.*.1.eXfX6.$ ; t c G G M M M N F F G F F F G G G c g z b.=X*XH : 1 1 1 1 1 1 1 1 : : 1 2 8 4 9 2 1 1 1 1 1 1 1 1 9 G G H H K Y Y Y Y Y Y Y Y Y K K K K N c x z x M ( / & : q F F F F F F F F F F K L %.T 5 q G F H H F F F F F F F F F F H F F F F F F F F F F F F F F F F F F F ` b & q G G F F c s h G K L L K L H H F F F F F F K +.: : 9 G F F F #.2 2 2 2 2 2 2 2 2 2 2 2 2 2 2 2 2 2 2 2 2 2 2 2 2 2 2 2 2 2 8 8 q q q 8 r & 2 u t d g g g g d t g d d g g g g g ",
"^ 1 H ( ( T n b b G H N b b Y ( ( H N ( ` %.` ( ( ` *.s.3X}.V.wXgXT : & q g c F F F F F F F F F F F F F F G c x ;.*X=X] : 1 1 1 1 1 1 1 ; ; ; 2 9 8 5 5 2 1 1 1 1 1 1 1 1 q G G G G G G G G G G G G G G G G G H H F F F H F Y +.& 1 4 M F G G G G G G K L L K ` x 1 4 M G F F F F G G G G G G G F F F F G G F F F F F F F F F F F F F F G ` G & q G G F F z g c H K L L L H F H F F F F F F K X.: : 9 G F F F %.9 q 9 8 2 2 2 2 2 2 2 2 2 2 2 2 2 2 2 2 2 2 2 2 2 2 2 2 2 2 y q y 9 q 9 w & 8 t t t g g g g g d g g g g g g g g ",
"T 1 G ( Y b b b b b b b b K ^ ( ( ( ] %.#.%.` ( +.%.0.B.@X3XaXwXtXG 1 : g c b F F F F F F F F G c c M F F F F G T Y.=X$.: 1 1 1 1 1 1 1 & 1 2 5 2 5 1 1 : 1 1 ; ; ; 1 1 1 9 G G G G G G G G G G G G G G G G N M G F F F F G K $.: 1 : w G F H H H H K L L L c 8 2 : 2 b H H H H H F H H H H H H H H H H H H F F F G G G G G F F F F F F G ` G & q G G F F x g F T L T H H G F F F F F F F F K ( : : 9 G F F F +.q q q 8 2 2 2 2 2 2 2 2 2 2 2 2 2 2 2 2 2 2 2 2 2 2 2 2 2 2 4 q q q w w r & q t t g g g g g g d g g g g g g g g ",
"Y : c K b b b b b G N K T ( _ #.#.#.] #.` ` / ( ( ` %.<.q.B.}.:XtXG : : g H G F F F F F F F F G h g c F F G F F H j.=X#.; 1 1 : 1 1 1 ; & 1 5 9 5 1 1 1 1 1 1 & @ $ & : 1 9 G G F F F F F F F F F F F F F b h l M F F F F G H $.: 1 : - - > 2 4 4 9 d q 9 : - - : : : > w g g g g d w w w 9 8 8 8 8 8 9 q w d l x c b M G G F G F F F G N K l ; q G G F F M c F K L D F F F F F F F F F F F K ) : : 9 G F F M Y 2 2 2 2 2 2 2 2 2 2 2 2 2 2 2 2 2 2 2 2 2 2 2 2 8 8 2 2 2 2 2 8 0 q w w u & q u g g g g g g g g g g g g g g g c ",
"c & q b b b b b T ( ( _ _ ( _ #.%.%.#.` ( ( ( ( ( ( E ` +.&.%.Z.eXx 1 : w H H F F F F F F F F G M b G G z b F F G +.*X/ ; : ; & & & $ ; 2 5 5 3 1 1 1 1 1 1 ; $ $ $ $ & : 8 Z G F F F F F F F F F F F F F G b M G F F F F G H $.2 : : 1 ; - - - - - 2 4 1 : 1 : : : : - & % % % & & % % % & & & & & & & % O O + % - - - : 2 2 8 8 8 8 8 > : 2 1 9 G G F G h c F F H D G F F F F F F F F F F K Y : : 9 G F F c N 2 8 8 4 2 2 2 2 2 2 2 2 2 2 2 2 2 2 2 2 2 2 2 4 q q 2 2 2 2 2 2 q w w w u - w t g g g g g g g g g g g t g l x c ",
"w % q b b b b Y _ _ ( R ( ` %.#.#.` ( ( ( ( ( ( T N n b N ( ` t.<Xq 1 2 x K Y K H F F F F F F F F F G l g l G F F T Q.T 1 ; $ $ $ $ $ $ 1 4 2 1 1 1 1 1 1 ; $ $ $ $ $ $ : 2 b G F F F G F H H F F F F F F F F F F F F F F G H %.1 1 1 1 1 1 1 1 1 1 1 2 1 : 1 1 1 1 : : : : : : : : : : : : : : : 1 1 5 2 : : : : : : ; - ; - - & & & - ; : : 1 4 M F F G z c G F F F F F F F F F F F F F G K c : : 9 G F F G Y 8 q 9 9 2 2 2 2 2 2 2 2 2 2 2 2 2 2 2 2 2 2 2 8 w 8 2 2 2 2 2 8 q w w w h - w t g g t t g g g g d t g g g c j c ",
"w % 8 b b b K _ _ ( H n H T ^ Y G N Y ( ( ( ( ( Y b b b G ( ( r.*X8 1 2 Z ` ` ( L H H F F F F F F F c g d g M F F K U.+.2 : & & $ & & & : 2 1 1 1 1 1 1 ; & @ $ $ $ $ & : 2 c G F F H H H L K H F F F F G G G G G G F F F F H #.1 : 1 : & & ; & ; ; ; ; : : 1 2 4 4 4 8 8 9 9 9 q q q q q q 8 4 9 g g j l l g g g g g u q 9 2 : : 1 1 1 : : : : 2 M G G G G G G G G F F F F H H H H H H H H M 9 1 : 9 G F H K :.q t 9 2 2 2 2 2 2 2 2 2 2 2 2 2 2 2 2 2 2 2 2 8 8 2 2 2 2 2 2 8 q q w r k - w u g d d t g g g g d t t g j x j l ",
"w $ 8 b b b R _ _ ( G b b n b b b b H ( ( ( ( ( ( Y K Y ( ( ( 2.F.2 1 1 l 0.`.f.` R G M M G F G G c l g g j c G G H c.H 1 1 1 : ; : : 1 1 1 1 1 1 1 ; & $ $ $ $ & $ & : : : j b c h z x l l g w 4 4 > > : : : : : > 4 9 w g l c : 1 1 2 t G R $.<.a.c.v.D.D.D.D.D.E..X;X:X:X:X:X,X,X<X<X<X:XP.F.;X8XeXeXeXeX8XeXeXeXeXqX<X:XW.t.b 2 1 1 1 1 1 1 2 l N G G G G N N M b c z l g w w q q q w q > > 1 : 9 G F H L :.q q 9 2 2 2 2 2 2 2 8 q q w 8 8 9 8 2 2 2 2 2 2 2 2 2 2 2 2 2 8 0 w w u b ; q u g g g g g g g g g g g j x x g g ",
"w % 4 b b b T _ _ _ Y b n n b b b G ( ( ( ( ( ( ( R T Y Y Y T 2.z.1 1 2 j y.aXOX&.K g g g g l l l g c K G G F G M c H 8 : 1 1 1 1 1 1 1 1 1 1 1 1 : & $ $ $ & ; 1 ; & : 1 : & & % + ; 1 1 : & % % & & & & - ; ; ; - & % % + + : : : t t.D.Z.t.t.a.c.v.Z.D.D.t.<.<.3.v.!.:X<X<X6XeXrXrXrXyXrXrXrXtXtXtXtXuXuXuXlXcXuXlXuXlXlXvXvXtXt.2 : 1 1 1 1 : - : : > > > : ; - & % % + % % % % % % % % - : 1 1 9 G F L L %.9 2 2 2 2 8 2 2 2 8 q q q q w w w q 2 2 2 2 2 2 2 2 2 2 2 2 2 2 2 9 w u b : 0 u g u g g g g g g g t l x l l g g ",
"g % 8 b b b T _ _ _ K b n m b b H ( ( ( ( ( ( R G n b b G b G <.,.: 1 8 J @.y.*.Y h 8 4 4 4 2 2 2 8 T b 0 q k q - & : > : 1 1 1 2 1 1 1 2 0 4 1 1 : & $ $ & ; 1 1 : : 1 1 : ; 2 q t j x x x b G K T T ^ ^ ^ T H c w 1 : : & & & & ; Z +.R R G c c b I R T b c b b b b b T +.+.%.%.%.&.&.&.&.>.0.0.r.0.r.t.a.n.U.*XeXuXvXlXlXcXlXzXtXb : 1 1 1 1 : ; % # $ ; ; ; ; : : : : 1 1 1 1 1 1 1 1 : : : 1 : 8 G L L G T : O - : 2 q 8 2 9 w w w w w w w w 0 2 2 2 2 2 2 2 2 2 2 2 2 2 2 2 0 w q q & q g g g g g d t g d g j c x g t t g ",
"h $ 8 n b b K Y Y G b b N N b H ( ( ( ( ( ( ( G b b b K R Y N &.( : 1 q U C.Z 0 : 2 : # O O o O O % t ; & - u q : : : : : 1 1 2 y 4 4 2 8 4.T 2 1 1 : : : : 1 1 1 1 1 1 : 5 T 2.r.k.c.t.r.2.2.>.;.$.$.$.$.$.;.2.t.z.t.T 4 & ; ; ; 2 J _ ( T n b b b G ( G b b b b K Y T ( ( ( ( ( _ ( _ _ _ #.+.#.` ( _ _ ( ( ( ` +.<.D.,XuXcXlXlXlX( : : : : : 1 : & : 5 q q q w t t g g g g g g u t w w q 2 : : : 8 K L G g N : O       O O O @ @ @ @ % % & & & @ @ # # @ @ @ @ @ + % % & - & - : - O O @ q g g g g g d t t t g x j c g g g g ",
"c % 2 c b b b n b b G T ( ( ( ( ( ( ( Y G G T I G b b b b n c ( K : 2 8 y A b j g l c x g q q w l l g d w w w 8 8 4 2 1 : ; ; ; 0 y 8 3 2 J A 2 1 1 1 1 1 1 1 1 1 1 1 1 : x T K L K L H G G G G G G G G G G G G G H ^ t.;.2 1 1 : 2 Y ( ( I b I b b Y T b b b H E ( _ ( ` ( ( ( ( ( ( _ _ #.%.#.` ( ( ( ( ( ( ` ` ( ( ( +.c.rXcXvXvX$.: : : 8 K $.#.E 2.n.n.D.D.L.L.Y.T.T.T.^.^.^.^.^.^.Q.P.z.^ 4 : q K K c g N : $ $ # # $ & & & & & & & & & & # O O O O O O . O O X o             o O % $ 4 d u g g g g t g j c x x x g t g g ",
"N & 8 K Y T R T T R ( ( ( ( ( ( ( ( ( E T T ( ( ( T K b b b b $.G 1 8 j %.r.t.r.<.2.2.<.2./ Y Y / ;.<.r.t.t.t.r.r.r.r.2.2.>.>.>.2.B.&.T G b x g q 9 5 4 2 1 1 : : : 1 1 1 x H L L L F F F F F F F F F F F F F F F F F H j.g : 1 : 2 Y ( ( T K T ( R _ Y b n Y ( ( ( ( T H I R ( ( ( ( _ +.+.#.#.( ( ( ( ( ( ( Y K T ( ( ( ` c.eX;X<X$.: > h / ` ( G z K T T T T T ^ ^ ^ ( ` ] #.%.%.>.2.j.L.^.&Xr.q t K G x g N : $ ; 2 4 8 t u t t q q q q q 9 2 ; : & & & & & & & & $ $ $ $ $ % % @ $ $ % 2 t g g u g g j l x j j l g t g g g ",
"` 1 q ^ _ ( ( ( ( ( ( ( ( ( ( ( ( ( ( ( ( ( ( ( ( ( ( R T I Y 2.c 5 t _ T H G G G M G M M c d w w w g b G G G F H H K Y T ( %.>.S.aX}.t.t.t.t.t.t.t.r.<.>.+.( K x 4 : 1 2 x L L L L F F F F F F G F G F F F F F F F F F ;.K & 1 1 2 Y ( ( H b b ( ( ( H c K _ ( ( ( ( G b b N ( ( ( ` #.%.#.#.#.( ( ( ( ( ( T b b G ( ( ( ( +.N.E.E.X.; 9 K F G G l u b G G G G G G G G G G G G G G G N G H ` Z.&XG q c g g d N : & c Y T ( t.b.n.n.n.R.R.n.R.L.n.;.$.#.+.+./ ( E Y Y H N N N b c z w & @ @ 2 t d g g g g c c x j g t t g g g g ",
"$.2 9 R ( ( ( ( ( ( ( ( ( ( ( ( ( ( ( ( ( ( ( ( ( ( ( ( ( ( ( <.j 3 x K G F G F M z z G F G l g c x l M F F F F F R K G G G H Y w.`.s._ Y H F H H K K T ^ ` #.>.$.Y : 1 2 G L L L L F F F F F F G G G F F F F F F F F G ^ $.; 1 1 1 K ( ( K N Y ( ( R G b b Y T T Y H n b b H _ ` #.#.` #.+.` ` ( ( ( ( ( ( ( T Y Y ( ( ( ( ( 3.E.E.$.& t F G F b g g G F F F F F F F F F F F F F F F F F F H ^ b.>.5 t g d d N : $ q g g g F H H b b b N N K +.;./ / +.;.<.<.3.3.t.t.t.t.t.t.t.t.t.t.h # $ : t g g g x c c l l g g g g g g g g ",
">.4 4 Y ( ( ( ( ( ( ( ( ( ( ( ( ( ( ( ( ( ( ( ( ( ( ( ( ( ( _ 0.d 5 B K F F F F M g g b G G z g G F G F F F F F H Y H F F F H L ` ` +.Y F F F F F H H F F G G M x / q 2 9 C L K K H G F F F F F F F F F F F F F F F F G F <.4 : 1 : G ` ( ( ( ( ( Y b b b b b b b b b b b b K _ ` %.%.#.+.( ( ( ( ( ( ( ( ( ( ( ( ( ( ( ( ( ( $.E.E.1.- l H F F x g j G F F F F F F F F F F F F F F F F F L L T ^ %.; w g g g N : $ q g g g c z g g g g g g t w w w w t g g l z b N H Y ) / #.$.2.t.z.T @ @ ; t d g g g x j g t g g g g g g g g ",
"&.9 2 K ( ( ( ( ( ( ( ( ( ( ( ( ( ( ( T G Y ( ( ( ( ( ( ` ` #.( q 4 Z H F F F F G M M G F G z g M F F F F F F F F F F F F F F K H H R K F F F F F F F F F F F F G $.H 9 q G K F F F F F F F F F F F F F F F F F F F c h g >.t : 1 1 b ` ( ( ( ( ( K b b b b b b b b b b b b G %.#.%.+.` ( ( ( ( ( ( ( ( ( ( ( ( ( ( ( ( ( ( ( %.;X;XD.4 l H F F x s h c c c F F F F F F F F F F F F F F G K T K K H & q u g g b & $ 8 g g d d t t g g g g g g g u g g g t u u d t t t d d d d g c $.z.T @ % & w t g g t g l g g g g g g g g g g ",
"+.9 1 h ( ( ( ( ( ( ( ( ( ( ( ( ( ( ( Y N K ( ( ( ` ( ( #.%.#.b 2 1 c G F F F F F F F F F F M h l c c b G F F F F F F F F F F G z b K H F F F F F F F F F F F F F %.] 5 8 b G F F F F F F F F F F F F F F F F F F G l d w +.b : 1 : c ( ( ( ( ( ( ( Y b b b b b b b b b b b n Y ` #.` ( ( ( ( ( ( ( ( ( ( ( ( ( ( ( ( ( ( ( ( `  XcX<Xq g F G F x g g g g g c F F F F F F F F F F F F F F F K K G w $ q g g t 0 $ $ 8 g g g d g g g g g g g g j g g g g g g g g g g g g g d d d d c t.I # $ @ 8 t g g g g u g g g g g g g g g g ",
"c 2 : > h H K K K K H G G G N b n b c h h h h h c b K ` ` _ l : & 1 c F F F F F F F F F F F F c d g g g c F F F F M G K H F F H K F F F F F F F F F F F F F F F F _ >.5 2 c F F F F F F F F F F F F F F F F N c c M c l g ( T : 1 : h ` ( ( ( ( ( ( ( Y b b b b b b b b b b b N ( ` ( ( ( ( ( ( ( ( ( ( ( ( ( ( ( ( ( ( ( ( ( _ Z.cXeXd q H H H c g g g g l G F F F F F F F F F F F F F F F H H g : % 2 w w : % $ $ 8 g g d g g g g g g g l j j j g g g g g g g g g g g g g g g g g $.n # $ % + - 4 q q q q w w w w w t u u t g ",
": : 1 : - ; : : : : , ; ; ; ; ; ; ; ; ; ; - - ; ; ; : 4 4 4 : & : 1 c F F F F F F F F F F F F G g g g j M F F F G h l Y K H H Y Y H F F F F F F F F F F F F F F F H 0.4 2 c F F F F F F F F F F F F F F F F z a g h F K G T ` 1 1 : g ( ( ( ( ( ( ( ( ( N b b b b b b b b K R ( ( ( ( ( ( ( ( ( ( ( ( ( ( ( ( ( ( ( ( ( ( ( ` ` r.tXtXc - 4 w w q 4 4 8 9 q w w w w w w r t t t t t t t t w w 4 - : ; % % O O % $ $ 9 g g g g g g g g g c x x j g g g g g g g g t t t g g g g g g t E c # $ $ % O O O O O O O O O O O @ @ @ % & ",
": : 1 1 1 1 1 1 1 1 2 2 1 1 : : 1 1 1 1 1 1 1 1 1 1 1 1 5 1 1 1 1 1 x G F F F F F F F F F F F F c g x G K K F F G b b K ` K T ( Y H H F F F F F F F F F F F F F F G &.8 2 c F F F F F F F F F F F F G M c c l d l l F K L K &.2 1 : w ( ( ( ( ( ( ( ( ( G b b b b b b b b H R ( ( ( ( ( ( ( ( ( ( ( ( ( ( ( ( ( ( ( ( ( ( ` %.#.&.8XtXH : & % % O o O % % % % % % @ @ @ % % % % % % % % % % % & 1 1 : : : : ; & $ @ q g g g t u g g g l x j l g t g g g g g d g d d t d g g g g g w H h # $ $ $ $ $ $ $ @ @ @ @ @ @ @ @ @ @ # $ ",
": 1 1 1 1 1 1 1 1 1 1 1 1 1 1 : : : 1 1 1 1 1 1 1 1 1 1 1 1 1 1 1 : l F F F F F F F F F F F F F G h M H L K K N M M H R +.%.+.+.R K H F F F F F F F F F G G F F F G $.q 2 c G F F F F F F F F F F N z g g g g g c c K L H F ( 1 ; : w ( ( ( ( ( ( ( ( T b b b b b b b b b b N N N Y ( ( ( ( ( ( ( ( ( ( ( ( ( ( ( ( ( ( ` +.%.#.`  XuXE : : : : ; @ & : > 1 1 1 1 1 1 1 : : : : : : : : : : : : 4 9 9 9 9 9 1 : ; ; w g g g g u g t g x x l g g g t g g g g d d g g g g g g g g g t N g # $ $ $ $ $ $ $ $ $ $ $ $ $ $ $ $ $ @ & ",
"l 1 1 1 1 1 1 1 1 1 : : 1 1 1 1 : 1 1 1 1 1 1 1 1 1 1 1 1 1 1 1 1 : g F F F F F F F F F F F F F F H G L L L F z g g G T &.V.C.y.R K H H F F F F F F F G c h M F F G %.q 2 c G F F F F F F F F F G c g g g g l c K D K F G F ( 4 % & 9 R ( ( ( ( ( ( ( Y b b N H G b b b b b b b N T ( ( ( ( ( ( ( ( ( ( ( ( ( ( ( ( ( ( ` ] ` _ Y t.<X( : : 4 d x z b ) X.#.$.$.;.>.>.$.$.+./ T K c l w 2 ; 2 G t.L.U.U.U.P.T : : : q d g g g u g g x x x g t d d t g g g d d d g g g g g g g g g t b g # $ $ $ $ $ $ $ $ $ $ $ $ $ $ $ $ @ $ 8 ",
">.1 1 1 1 1 1 1 1 ; & & : 1 1 1 : : ; : 1 1 1 1 1 1 1 1 1 1 1 1 1 : t F F F F F F F F F F F F F H L G c K F G b h G R _ 0.|.3XC.` ( R K F F F F F F F G b c G F F G $.d 2 c F M c b M G G F F F F G M M M G H L L K F F F G $.g % @ : H Y K K T ( ( ( ( T R ( ( ( Y G b b b b G R ( ( ( ( ( ( ( ( ( ( ( ( ( ( ( ( ( R Y Y K H b c K F.R $ 9 / >.>.+.K ( ( ) T ) +.&.2.z.b.D.P.T./.*XQ.P./ & 8 c ^ j.R.P.T.*XT.g & & q d g g d d g c x g g t g g g g d d d g g g g g g g g g g g g t b g # $ $ $ $ $ $ $ $ $ $ $ $ $ $ $ $ & g G ",
"2.9 1 : ; ; ; : : ; & & : 1 1 1 ; $ $ ; 1 1 1 1 1 1 1 1 1 1 1 1 1 : q G F F F F F F F F F F F F K L G x G F F F G F F F F F F F F F F F F F F F F F F F F F F F F G #.l 2 b F c s g g l c G F F F F F F F K L L L F F F F G #.N @ @ & h b b b N R ( ( ( ( ( ( ( ( ( ( Y n b H ( ( R R ( ( ( ( ( ( ( ( ( ( ( ( ( ( Y G H H b b b b b v.+.& 4 b N G c w t t t t w t t t c G F M F ( <.Q.*Xb.2 q c G F F H L t.Q.Y % ; w g g g t g x j c g g g g g g g d d d g g g g g g g g g g g g t c g # $ $ $ $ $ $ $ $ $ $ $ $ $ $ $ $ q j g ",
">.q 1 ; $ % $ & : 1 : : 1 1 1 1 ; $ @ & 1 1 1 1 1 1 1 1 1 1 1 1 1 1 q G F F F F F F F F F F G K L L K M G F F F F F F F G F F F F F F F F F F F F F F F F F F F F G ` h 2 b G G l d d d g b F F F F F F K T L H F F F F F G / ^ & ; - h b n b N R ( ( ( ( ( ( ( ( ( ( ` H b T ( H b b K ( ( T H R ( ( ( ( ( ( ( ( G G G H b b b b c 1.,.& 4 N H M l s g x l s g g g g h c l g t u x t.Y.t.2 j F F F F F F K b.$.: ; w g t g g x x x x g t g g g g g g g g g g g g g g g g t t t t t z 9 # $ $ $ $ $ $ $ $ $ $ $ $ $ $ $ 2 t t g ",
"%.t 1 ; ; & & & : 1 1 : : 1 1 1 : ; ; ; 1 1 1 1 1 1 1 1 1 1 1 1 1 1 8 G F F F F F F F F F F K L L H F G c G F F F F F M l l M F F F F F F F F F F F F F F F F F F G ( x 4 b G F M l l c M G F F F F F K L L L H F F F F F G T +.& 1 : c b n N T ( ( ( ( ( ( ( ( ( ( ( T b b T ( T Y Y T ( ( ( R ( ( E T R ( ( T K H H H H b b b b c $.t.; 2 c x g d g g x l g g g g g g z h g u u d / z.X.- q c G G F F N c ( 3.5 & q g l g x j x l l g g g g g g g g u t u g u g g g u r w w w w q 4 & $ $ $ $ $ $ $ $ $ $ $ $ $ $ @ & q t u g ",
"+.u 1 1 1 1 : : 1 1 1 ; : 1 1 1 1 1 1 1 1 1 1 1 1 1 1 1 1 1 1 1 1 1 4 M G F F F F F F F G K L L L F F F z c F F F F F c s d x G F F F F F F F F F F F F F F F F F F ( c 4 b G F F G G F F F F F G F D G G K L F F F F F F G K &.1 1 1 G R T ( ( ( ( ( ( ( ( ( ( ( ( T b b b G R ( ( ` ( ( ( ( R Y G b b b N G N G G G G N b b b b b E a.: 1 t t g g g g t g h z x c c c b M l u u d ( j.) & q g l x c z h t x 3.a $ : w c c c x l g g g g t t t w w q w q 9 8 4 2 > : ; - % @ O O O O % $ $ $ $ $ $ $ $ $ $ $ $ $ $ @ 8 u u u g ",
"` t 1 1 1 1 1 1 1 1 1 : : : 1 1 1 1 1 1 1 1 1 1 1 1 1 1 1 1 1 1 1 1 2 b G F F F F F F F K L L L L F F F M g c G F F F N z x M F F F F F F F G G F F F F F F F F F G ( b 4 b G F F F F F F F F F H D c x x c H G F F F F F G H >.4 : 1 b ( _ _ ( ( ( ( ( ( ( ( ( ( ( N c b b b b Y ( ( ( ( ( T b b b b b b G _ _ _ Y N b b b b b b b H a.2 1 t d g g g g g g c G G F c g g g g g g d ^ j.Y & q d d g g d d g g $.b = & : 2 2 2 : ; - & & & % % @ O O O O X O O O O O O O # # # # % % % % $ $ $ $ $ $ $ $ $ $ $ $ $ @ 1 t t g g g ",
"/ q : : 1 1 1 1 1 1 1 ; & ; 1 1 1 1 1 1 1 1 1 1 1 1 1 1 1 1 1 1 1 1 1 c F F F F F F H H K L K L K F F F F c g z G F F G F F F F F F F G M c h c F F F F F F F F F F ( N 4 M G F F F F F F F G H ^ K x x g g c F F F F F F F G >.w : 1 c ( ( ( ( ( ( ( ( ( ( ( ( ( ( N b b b b b H ( ( ( ( ( T b b b b H _ ` %.#.#.` T K K Y R ( T K K a.4 : w g g g g g g g g l z x g a d s g g g d T t.N & t d g g g g g g g ( K $ 6 3 1 & O O # O O O # # # $ $ % % % % % $ % % % % % % $ $ $ $ & : ; $ $ $ $ $ $ $ $ $ $ $ $ @ ; q u u g g g ",
"( q : : 1 1 1 1 1 1 1 : ; : 1 1 1 1 1 1 1 1 1 1 1 1 1 : : 1 1 1 1 1 : l F F F F G H ^ L L L H F F F F F F F c g l M G F F F F F F F G h g g g c G F F F F F F F F F ( N 4 M G F F F F F F F L K L K x g g g g x G F F F F F M &.h ; 1 j ( ( ( ( ( ( ( ( ( ( ( ( ( ( T b b b b b T ( ( ( ( ( Y n b b Y ( +.%.#.+.` ( ( ( ( T Y Y T ( ` P.w 4 x M x g g g g g t t g g x x g s g g g d T t.c ; t d g g g g g g d K ) $ $ & 1 $ % % $ % % % @ $ $ & & : : > 4 8 q q w w w 4 2 & $ 8 H X.$.#.M 5 & $ $ $ $ $ $ $ $ @ & q u g g g g g ",
"H 1 $ $ & ; : 1 1 1 1 1 1 1 1 1 1 1 1 1 1 1 1 1 1 1 1 ; & : 1 1 1 1 : g G F F F L K L L K H F F F F F F F F G l g g h M F F F F F F G c z x M F F F F F F F F F F F ) N 4 M G F F F F F F F K L L K v l l l g s c F F F F F M %.N : : g ( ( ( ( ( ( ( ( ( ( ( ( ( ( T b b b b b H T T T Y H n b b Y ( ( ( +.+.( T ( R Y H n b b b Y ` n.t 9 G F G l g g u g l g l M G F M z g u t t T t.h : t d g g g g g g d N +.& $ $ : q g l z b N N Y ) / #.$.;.<.2.3.3.t.t.a.z.z.t.$.4 : N T +.<.t.z.3./ h : $ % % $ $ @ $ 9 t t g g g d g ",
"b ; $ % @ $ : 1 ; & ; : 1 1 1 1 1 1 1 1 1 1 1 1 1 1 1 ; ; : 1 1 1 1 : w G G F F T T L H F F F F F F F F F F F G z g d l G F F F F F G G F F F F F F F F F F F F F F ) N 4 M G G F F F F F b l x x c F G G c g g g c G F F F G ` Y : : w ( ( ( ` +.( ( ( ( ( ( ( ( K n b b b b c b b N G G b b b b T ( ( ( ( ( R b N n b b b b b G ( _ 2.q 9 G G G M b b c x c G G b G F F G M c c c >.P.h 4 g g g g g d g g g c #.: $ $ w G H H H K Y Y Y Y Y Y Y Y Y Y K K H H ) 2.z.b.t.q : t u g z Y ;.3.z.t.+.4 % % $ % $ q u t t g g g g g ",
"Y 1 ; ; $ & 1 1 ; $ $ ; 1 1 1 1 1 1 1 1 1 1 1 1 1 1 1 1 1 1 1 1 1 1 : q G G F F H L H F F F F F F F F F F F F F G c g g M F F F F H K F F F F F F F F F F F F F F F ) c 4 M G F F F F F F l d g g g M G c g g g l b F F F F G ^ ` : : q T ` ` +.+.` ( R R ( ( T N b b b b b N K Y R ( ( H b b N G b K ( ( ( ( ( T b b b n G Y Y R ` ( n 2 9 G G F F F L L L L D c c G F F F F G F F t.Q.g q c g g d d d d t g x ,.2 & : q d t d t t r s u t t t w t t t a w g d l c H <.2.4 ; t g g g d g b Y <.a.) - % $ ; t g t u u g g g g g ",
"#.4 : : & & 1 1 1 ; & 1 2 1 1 1 1 1 1 1 1 1 1 1 1 1 1 1 1 1 1 1 1 1 : 4 N F F F F H H F F F F F F F G M G F F F F G c c F F G H H L H K F F F F F F F F F F F F F G ^ x 4 G F F F F F F F x d g s g M F x g g h M F F F F F G Y $.1 : : 8 b K ( _ Y G N N H ( R G b b n H T ( ( ( / ( Y b b b G T K ( ( T Y K T ` T N H ( _ ` ( T N w > & 9 G G F F H T L K G c G G F F F F G c c G j.P.q q j t g g d d d g g G n.q : 1 w g g g g g g g g g g g g g g g g g g g l x j / <.> : t g g g g g t t N 3.t.9 % & w j t g g g g g g g g ",
"$.4 : : ; ; : 1 1 1 1 5 2 2 1 1 1 1 1 1 1 1 1 1 1 1 1 1 1 1 1 1 1 1 : 2 b F F F F F F F F F F F F F G N G F F F F G F F F F H L L L L K F F F F F F F F F F F F F G T l 4 G F F F F F F F G x l l c G M l g g b F F F F F F F H $.2 : 2 2 9 2 4 > ; > > 2 9 g h k k h k b b b b b N b g r r l b b b h s w w w s c c h u w 9 2 > ; - - % $ 4 G G F F K L L K F F F F F F F F G M b G <.3.: 8 g d g g t d t u x H n.w : 2 g g g g g g g g g g g g g g g g g g g j x c l T ,.: : t g g g g g g g g #.z.s # 1 d t g d d g g g g g g ",
"%.5 1 1 1 1 1 : 2 5 5 5 5 2 : 1 1 1 : ; & : 1 1 1 1 1 1 1 1 1 1 1 1 1 : x F F F F F F F F F F F F F F F F F F F F F F F F H K T K L H G F F F F F F F F F F F F F G T q 4 G F F F F F F F F F F F F G x d g c F F F F F F F F H >.4 1 1 4 5 8 2 : - % O % & - - - - - - - - - - - - - - % + + % @ + O + + + % - - - + O O @ @ & - ; & % $ 5 G G M H L T H H F F F F F G G G F F F x X.X.$ 9 g t t t g j j l G H b.g : 2 x l d g g g g g g g g g g g g g g g l c l l g Y $.: : u g g g g g g g s Y z.h # 8 d d g d d g g g g g g ",
"$.5 1 1 1 1 1 1 2 q 2 5 1 1 1 1 1 1 & @ $ & 1 1 1 1 1 1 1 1 1 1 1 : & $ u H N G F F F F F F F F F F F F F F F F F F F F F F L L L H F F F F F F F F F F F F F F F G K 9 8 G F F F F F F F F F F F F G c l b G F F F F F F G G G $.4 : 4 5 5 2 : : : & % & : : : : : : : : 1 1 : - & : : 1 ; $ $ $ % $ % % ; 1 1 2 2 2 2 2 2 2 2 2 2 : ; ; 8 c l x c x b b M F F F F F b h l N F F c %.Y $ q g j h x Z G c G G F j.w & 2 x M l g d g g g g g d d g u g g t l j c l g d Y $.& : g g d g g g g g a Y z.h $ q d g g d d g g g g g g ",
"$.9 1 1 1 1 1 1 5 5 5 1 1 1 1 1 1 1 ; & & ; 1 1 1 1 1 1 1 1 1 1 1 : & $ q G c M F F F F F F F F F F F F F F F F F F F b x D D L G c M F F F F F F F F F F F F F F G H 4 5 G F F F F F F F F F F F F F F G F F F F F F F F M l g K 2 1 1 & & & ; ; & % % & : : : : : : : : : : : & & 1 4 9 q q 8 9 q r g l b K ( %.$.>.>.2.2.3.3.3.2.%.8 : 4 g j x c l u g g x F F F F M z x G G N c $.N $ w c G G F G b c G F G t.w ; 2 c G c g d g g g g g g d t t g g l x j c l t t Y #.& : g g d g g g g g t K z.g $ q d g g g g g g g g g g ",
"$.9 1 1 1 : 1 5 9 8 1 1 1 1 1 1 1 1 1 : : 1 1 1 1 1 1 1 1 1 1 1 1 1 : ; 9 G G G F F F F F F F F F F F F F F F F F F F c z G D D b z M F F F F F F F F F F F F G F F z 1 9 G F F F F F F F F F F F F F F F F F F F F F F N l u d N q 1 3 & @ $ @ # # $ $ $ 1 4 8 q g x b H Y / $.;.>.<.2.2.<./ Y H H H N M c c c c c x x x c M M b F 2.N : 1 g x x c l g g u c F F F F G G M c h g g ,.h & c F F F F F F F F F G t.h ; 2 c F x g g g g g g d g g g g g l x x j x g g t Y X.$ : g g g g g g g g d H z.g $ q d g g g g g g g g g g ",
"&.9 1 1 1 1 5 5 2 2 1 1 1 1 1 1 1 1 1 1 1 1 1 1 1 1 1 1 1 1 1 1 1 1 1 1 2 b F F F F F F F F F F F F F F F F F F F G F v c F H G F F F F F F F F F F F F F F F F G N w : 9 G F F F F F F F F F F F F F F G N G F F F F b g g u g H t 1 3 & & 4 g c b M G T >.2.2.2.2.2.2.#.) / ( ^ L K H H c g t t t t d d d d d d d d d t t g d d g M H & 4 j x j x g g g u j c c x x l g g g g g g ;.w 1 M F F F G F F M M G G r.h ; 2 c c g d g g g g g d g g t x c x j j g g g g t Y ( # 1 t t g g g g g g d H z.g # 8 d g g g g g g g g g g ",
"$.q 1 : 1 5 9 9 1 1 1 1 1 1 1 1 1 1 1 1 1 1 1 1 1 1 1 1 1 1 1 1 1 1 1 1 2 c G F F F F F F F F F F F F F F F F F F H K G x D H F F F F F F F G c b F F F F F F F F c 2 : 9 G F F F F F F F F F F F F F F b l M F F F M g d g g x H g 1 1 : l N M b b c z c F b l l M G G G M G G G F F F M l g g g g g g g g g g g g g g g g g g d d l L 2 5 g j d g u g g g t u t t t t d g g g g h $.8 5 G F b x x c x g g g l >.x ; 2 b M c l g d g g g g t g l l x x l g t t g g t K Y # 1 t t g g g g d g d N z.g # 8 d g g d d g g g g g g ",
"$.9 1 1 2 5 5 9 1 1 1 1 1 1 1 1 1 1 1 1 1 1 1 1 1 1 1 1 1 1 1 1 1 1 1 1 1 l G F F F F F F F F F F F F F F F F F H L L F x F H F F F F F F F b g l G F F F F F F N 9 1 : 9 G G G F F F F F F F F F G M G G N G F F F c d g c x x G g $ $ 9 l g d g g g g g g d g x c c b b M M b c c c l g g g g g g g d g g g g g g g g g g g g d g z T 4 4 g g t d g g g g g g t t t g g g g g g l X.2 9 b x g t t u u g g g t E g : 2 x z l g g g g d g g d g c x x g d d t t g g d K Y # 1 t t g g g g d d d N z.g # 2 g g g d d d g g g g g ",
"%.q 1 5 9 5 5 5 1 1 1 1 1 1 1 1 1 1 1 1 1 1 1 1 1 1 1 1 1 1 1 1 1 1 1 1 : d F G F F F F G N G F F F F F F G F T L L K K c h c G F F F F F F M x l c G G G G F G w : 1 ; 9 l g z G F F F F F F F F b g c F F F F F F M c l x x x M t # & q t g g g g g g g g g g t t t g g g g g g t t t g g g g u t t d d d g g g g g g g d g g t l G ( 4 : w d g g g g g g g g g g g g g g g g g z E & 2 u t g g g g g g g g g ) u ; 2 u t t g g g g g g g g d l j g g g g g t g g t H N # 2 g d g g g g g g g N z.l # 1 u g u u g g g t g g g ",
"#.d 5 4 4 2 1 1 1 1 1 1 : : : 1 1 1 1 1 1 1 1 1 1 1 1 1 1 1 1 1 1 : : : : 2 x F G G G x h h M F F F F F F H H T L L K G G x g c F F F F F F F F G G c c G G c 9 - : 1 ; q h g l G F F F F F F F F G b G F G b z x c M K D c x g z t # 2 t t t u g g g g g g g g g g g g g g g g g g g g g g d g g g t t g d t g g g g g d d g g d d j T 1 ; w d g g g g g g g g g g g g g g g g u c N & 4 t u g g g g g g c G Z &.g ; 2 j g g g g g g g t g g g t g u g g g g g g g t H N O 2 g d g g g g g g g N z.j $ ; t g u g c M b l g g g ",
"#.t 9 5 4 1 1 1 1 1 1 1 ; & & : 1 1 1 1 1 1 1 1 1 1 1 1 1 1 1 1 : & & ; 1 ; - w l c b g g g l c G F F F F L ^ T K K F F F F b b F F H F F G G N b c l w q : % % : : 1 : q G G G F F G G G F F F G F G G G G l t t t g g x l g g z w $ q g g g g t g g g g d d d g g g g g g g t d d g g g g d d g g g g g g g g g g g g t d g g d g g K : & w t g g g g d d g d g g g d g g g g d b c 1 9 g d g g g u t t x G G +.w : 4 c x l g u g g g t t g g g g g g g g g g g g t H c O 2 g g g g g d t g j H z.j $ & w t g c G G F M g d g ",
"#.t 4 1 : 1 1 1 1 1 1 1 : ; ; : 1 1 1 1 1 1 1 1 1 1 1 1 1 1 1 1 1 ; ; 1 1 : : - % - ; ; - - - - 2 8 8 8 8 9 d w w w w w w w w w w w w 9 8 < > : - % % & % # % & & ; : 1 : 8 g x b M G G G M c x z c G F F F M g g g d t s a w 8 4 : ; j G G G b g g g g g d d d g d g g g j g g t g g g g g d d g g g g g g g g g g g g t t g g g g g H 1 & w d t g g g g d d t g g g t g g g g l G l 3 y g t g g g g g x Z G x G 4 & 4 M G G x t g g g d t g g g g g g g g g g g g t H z # 2 g g g g g t g l c G z.g $ $ q j c G G G F G b g g ",
"( 4 1 : 1 1 1 1 : ; ; 1 1 ; ; ; ; : 1 1 1 1 1 : 1 2 1 1 1 1 1 1 1 1 1 1 1 1 1 1 : : : : - - - - - & & & & & & : % % % % % % % % % O % % & - - : : : : - $ $ & 1 ; ; : : : - % % % - > > : ; ; : : : 2 8 8 8 > - - % % + @ O O O O $ ; x G F G c g g d d g g g g g u l j j x x g t g g g g t d d g g g u t t g g g g g g g g g g g g d H 2 & w d t t g g g g t t g g g g g g g g j K q 1 9 t g g g x M G G F G c G 2 & 4 M F F M g d g g g g g g g g g g g g g g g g t H g # 2 g t d g g t g j x G t.w % ; l G G G G G F F G c l ",
"c 2 1 1 1 1 1 1 : ; ; 1 1 ; & @ $ ; 1 1 1 1 1 1 2 4 2 1 1 1 1 1 1 1 1 1 1 1 1 1 1 : : & : 1 : : : : : : : : : 1 1 1 1 : ; & & & ; $ @ & & ; ; ; ; ; $ $ & 1 1 5 5 1 : 1 1 1 1 : : : ; ; % # # O # # # # O # # O # # # # # @ % $ % % & l c h g g g g g d g g g g g g x x j j g t g g g g t t g d g g g g t t g g g g g g g g g g g g d H 2 & w d d t g g g g d t g g g g g g t g j G 2 $ 9 u g g g G F F F F F G +.9 ; 4 M F F G x d g g g g g g g g g g g g g g g g d H w # 2 g g d g g g x c x c b.z : 1 l G F F F F F F F F F ",
"8 : 1 1 1 1 1 1 1 1 1 1 1 : : ; ; : 1 1 : 1 2 5 5 5 5 1 1 1 1 1 1 1 1 1 1 1 1 1 8 9 2 2 2 q u u t r r u u u w 8 : : 4 h K ` $.>.<.2.%.Y ` %.( K b w : : 5 1 1 4 1 : : 1 1 1 1 1 1 2 1 1 ; $ $ $ $ $ $ @ $ @ @ @ @ @ @ @ @ @ % % % % & w u u g g g g d d g g g g g l j x l g g g g g g g g g g g g g g g d g g g g g d g t t g g g g d H 4 & w g g g g g g g d g g g g g g t g x x c & $ q g g g x G F F F F H G #.q : 4 M F F F M l g g g g t g g g g g g g g g g g t H w # 2 g t t g g x j l j H Q.b ; : 8 M F G F F F F F G H ",
"1 1 1 1 1 1 1 1 1 1 1 1 1 1 1 1 1 1 1 1 1 2 9 5 8 4 1 : 1 1 1 1 1 1 1 1 1 1 1 u n k u g k n +.-.-.X.X.O.$.$.X.H : - b >.<.2.r.j.b.Z.L.z.b.*X>X*X*Xn.T 1 1 1 & & 8 l c G +.2.$.X.O.$.$.$.( Y Y I I K H G N b b k h g u r w w w 4 % % $ q g g g g g g d d g g g g g x x l g t g g g g g g g g g g g g g g d d g g g g d d t t g g g g d H 4 & w d g g g g g g g g g g g g t g x l x w : 1 x b M b G F F F F F H F +.8 : 8 G F F F F M h g g t g x c c c b c g t t u l x E d $ 9 h l l c K H G c G T Q.b ; : - 2 g b G F H H H H K ",
": : 1 1 1 1 1 1 1 1 1 1 1 1 1 1 1 1 1 1 1 2 5 5 2 1 : 1 1 1 1 1 1 1 1 1 1 : 2 r w q q 8 2 8 w k h h b n n I R X.q : c H F F F G G H K H M ( z.U./.b.2.9 3 1 t t.;XeX!.P.;X1X!.E.E.E.E.E.E.E.E.E.E.E.E.E.P.P.P.F.F.F.F.F.F.F.F.v.E & $ q g g g g g g g g g g g g x l j g d d g g g g u u u g g g g g g d d t u g g t t d t d g g g g d H 4 % 4 d t t d g g g t t d d d d g x x x u 8 1 > w M F F F F F F H F F F b 2 : 8 G F F F F F G M b c Z G G G G G G b x l c G G %.z * t G G G L J L L G G Y Q.b ; : : - % - : 2 8 8 8 9 9 ",
"1 1 1 1 1 1 1 1 1 1 1 1 1 1 1 1 1 1 1 1 2 5 9 2 1 : 1 1 1 1 1 1 1 1 1 1 1 : 8 w w w w w 0 9 0 q 0 q 0 q q r $.-.q : b F F F F F F H H M g w l F r.Q.b.q 3 4 y.tXuXrXE.m.x.d.a.a.d.x.x.a.3.1.1.1.1.1.1.1.1.<.<.<.1.1.x.F.E.E.E.E.E.b % 9 g g g g g g g g g u g c x j t g d t g g g g l x l g t g g g d d d t t g g g g d d g g g g t t H 4 $ O - 2 4 4 4 8 8 q q q q q w d q q 4 - > : : % : 9 w h x x c c c x w 2 : : 8 G H F G G F F F F F F G F F F F F F F F F F F %.x * t G G L Y L L L G G Y Q.c ; : : : > : - - - - - % - ",
"2 1 1 1 1 1 1 1 1 1 1 1 1 1 1 1 1 1 1 2 9 2 4 1 : 1 1 1 1 1 1 1 1 1 1 1 1 2 0 w w w w w w w q w w w w w q 9 I +.2 2 M F F F F F F F F c g g g g T &X&Xx : q ` 2.2.X.H G Y T T ( ( _ ( R N b b b b m n n n b b b n b b X.D.E.E.E.E.<.& 4 g g d g u t g g g g x l c l g g g u u g g l G G G b j t g g g g d g g g g g g g g g g g g g l Y 5 $ % O O X O X O O O O O O % 1 * & : 1 : : : : : ; & % % % % & - - & & : : : : 4 g c G G F F G F F G G F F F F F F F F F F G +.g : g T L K L H H G G G K T.c ; 2 b H H I I I I I I H K ",
"j.q 1 1 1 1 1 1 1 1 1 1 1 1 1 1 1 1 2 5 4 1 : 1 1 1 1 1 1 1 1 1 1 1 1 1 : 2 q w w w w w w w w w w w w w w w b $.4 8 G F F F F F F F F G l d d g v c. Xx & q H N b b b b Y _ ` ( T T T T N b b b b b b b b b b b b b b b +.P.E.E.E.v.: 2 t d g g g t g g g x x x x l g g g g g g g b G F F G M l t g g g g g g g g g g g g u l b N N M %.q % $ $ @ @ $ & & & & $ ; 1 1 & 1 & : : : : : 1 1 : 1 1 1 : 1 1 1 1 1 1 1 1 : : & % % : 4 w g l c b M G G G F F F F F F F F G b 8 1 j T L L H G G F F G K Y.c ; 8 g j j j j j j j j j k ",
"*Xc : 1 1 1 1 1 1 1 1 1 1 1 1 1 : 1 5 2 4 & $ 1 1 1 1 1 1 1 1 1 1 1 1 1 : 8 w w w w w w w w w w w w w w w q h $.8 q G F F F F F F F F F c d l c c >.n.g # 4 b b b b b b b R _ ( H b b b b b b b b b b b b b b b b b b b b x.E.E.E.M.2 : u u g g g g j x x l x g g g g g g t d t l G F F F F G M l s g g g d g g g g g g t l G G F F b K q & $ $ 2 r h c b b m m m N c x g w w q 9 8 : : : : 1 1 ; & & & $ % % & ; ; : : : : : : & @ O + % - ; : > 8 8 q w w w w w e 2 : 2 9 c T K H G G G F F F K P.c ; 8 q w w q q q q q q q t ",
"P.b : 1 1 1 1 1 1 1 1 1 1 1 1 1 2 9 9 5 4 1 ; 1 1 1 1 1 1 1 1 1 1 1 1 1 1 q w w w w w w w w w w w w w w w w g ( 4 t F F F F F F F F F G H x x l x / z.g # 2 b b b b b b b H ( ( G c N K N b b b b b b b b b b b b b b b c $.E.E.E.M.2 - w g g g g g j c x x g g g g g g t t g t j G H H H F H F N z g g g g g g g g g d g M G G F F M ^ t ; & $ 8 0 0 w r g c K Y T Y Y Y O.$.=.$.$.h : : ) n.b.;.O.X./ ^ Y N M H H b l t q q 4 ; & % % % & & & % + + + % % % % % % - : : 4 c L F F F G N M b c F L.c ; 8 w w w q 0 0 q w q w u ",
"P.G ; 1 1 1 1 1 1 1 1 1 1 1 5 4 5 2 5 2 2 1 1 1 1 1 1 1 1 1 1 1 1 1 1 1 2 q w w w w w w w w w w w w w w w w u Y 4 d F F F F F F F F F F L L c x g Y z.g # > b n G H K G b G ( T b b b T Y n b b b b b b b b b b b b b b c E E.E.E.x.: & w g g t g c x x l g d g g g g g g g g t g c N N G H G c G G c g d g g g g g g d l F F G c c G $.g ; & & 2 2 2 2 2 2 2 8 q q q w k Y R #.<.1.+.4 1 ( L.Y.z.z.z.z.z.z.z.z.L.*X*X*X/.T.Y.z.O.T w % % @ % % % % $ ; : 1 2 2 2 2 2 : : : j H M b c h l g g g l b.c ; 9 w w q 8 2 2 2 9 0 u j ",
"&XH ; 1 1 1 1 1 1 1 1 1 1 1 9 9 8 1 & 1 1 1 1 1 1 1 1 1 1 1 1 1 1 1 1 : 4 w w w w w w w w w w w w w w w w w u H 4 g F F F F F F F F K T T L c g d H z.h $ : b T ( T K Y Y R ( E G b b b b b b b b b b b b b b b b b b b b Y P.E.E.3.& & q g g g g j x l g g g g g g g g g g g g g g h h b H G b G F c g d g g g g g g g g c c h g z N $.g ; : : 2 4 8 8 8 7 2 2 8 4 2 2 8 w w g ) 1.<.w > c K K N H Y Y Y Y Y E ` ;.r.t.j.z.j.;.$.<.$.: q Y Y Y ) ( X.2.z.z.b.b.b.b.b.;.4 ; q g g g g g g g g d g ;.u & 8 w q 9 2 2 2 2 8 q q t ",
"*XG ; 1 1 1 1 1 1 1 1 1 5 9 9 5 4 ; ; 1 1 1 1 1 1 1 1 1 1 1 1 1 1 1 1 1 q w w w w w w w w w w w w w w w w w w H 4 g F F F F F F F F H L L H h g g M z.c $ ; b Y T Y T ( ( ( ( ( R b b b b b H T T N b b b b b b b b b b b H N.E.E.$.% $ w g g g g g j g g g g g g g g g g g g g g g x c G F G G F F G g d t d g g g t d t g g g c F G %.g ; : 2 q w w w w q 0 0 9 8 2 2 4 w w w h ,.1.w : x F M g w w t w t j g x g l g g g w w a h Y 1 9 c c M H K ) ( $.2.b.J.L.L.^.=Xc $ 9 d d g g g g g g g g $.q # : 8 2 2 2 2 2 8 y q q q ",
"Y.b ; 1 1 1 1 1 1 1 1 1 1 9 5 2 1 1 1 1 1 1 1 1 1 1 1 1 1 1 1 1 1 : 1 q q w w w w w w w w w w w w w w w w w w H 4 g F F F F F F F F G G G l g g d b M.N % & h b K ( ( ( ( ( ( Y b b b b G b K ( ( Y b b b b b b b b b b b N M.E.E.E % @ q g g g g g t g g g g u g g g g g g d g g l G F F F G H K H v x l t g g u g g g x c c M G F G $.g & : 4 w w w w 0 8 9 q q w 9 2 2 9 w w w E 1.t - l H F M l g g g l c x x l g g g g g g g w b 1 8 g d d d d d g d g h H H K ] &XT % 9 d d g g g g g g g g #.w # : 2 2 2 2 2 2 8 q q 4 4 ",
"n.h : 1 1 1 1 1 1 1 : : : 1 2 : ; 6 ; ; ; ; : : : 1 1 1 1 1 1 : 2 w h w w w g t w w w w w w w w w w w w w w w N 4 g F F F F F F F F c g d d g g d z 3.N % & l b K ( ( ( R ( ( R K b G G G G Y T T G b b b b b b b b b b b N M.E.E.N % @ q g g g g g g d d d g g u t g g g g g g g x G F F F F L L L G D b z h g l c M x G F F F F F G &.g ; : 8 w w w w 0 2 2 2 8 9 q 2 2 8 w w q N $.q & g F F F M l d g j c j g d d g g g g g g w N 1 8 g g g g g g g u g c F F F K L.R % q g d g d d g g g u g ,.w # : 2 2 2 2 2 8 q q 8 2 4 ",
"r.w 1 1 1 ; ; ; 1 2 8 8 9 u x c b N N M b c l q 4 : : 1 1 1 1 : w h r t g g j g t w w w w w w w w w w w w w q b 4 d F F F F F F F G l s g g g g g l <.H % & c T ( K N b N G G H H G H H G N b b b b b b b b b b b b b b b N M.E.P.g @ % q g g g u g g d d d g g t t g g g d d t g x H F F G H L L K D G G G G M M F F G G F F F F F G ;.j ; 1 8 w w w w q 2 2 2 2 2 2 2 > 2 q w w h E w : g F F F F c g j x x g g d d g g g g g g w b 1 8 g u g g g g g g c G G F F H L.^ # 9 g g t g g d d g j b c.x & 1 2 2 2 2 8 q q q 2 2 8 ",
"+.8 : 1 q H +.<.c.Z.L.z.2.D.&X*X*X*X*X*X*X*X/.T.J.2.N 5 : : : 2 q q w j j j j u w w w w w w w w w w w w w w q b 4 u G H F F F F F G g g g g g g g g ;.K $ & g G H b b b N T Y N N G H b b b b b b b b b b b b b b b b b b H F.E.N.q % % 9 g g g g g d g g g g g t g g g g g g t g G F F F H K L L F l l M G G c g x M M G G F F F F G :.j ; 1 8 w w w w q 8 2 2 2 2 2 2 8 q w w w u Y w : g F F F F l l j j j d d g g g g g g g g t N 1 4 u u g g t t d l G G G M F D n.( & q g g g g g g g c G G t.c ; 8 4 2 2 8 q q 4 2 2 2 8 ",
"N 2 1 q ( %.%.$.;.<.2.2.2.c.J.L.Y.Q./.*X*X*X*X=X=X>X*Xj.w : : 2 q w t g j t t q w w w w w w w w w w w w w w q b 4 u H F F F F F F c g g g g g g t g $.Y % & h b K K b b b H ( ( R K G N b b b b b b b b b b b b b b b b b Y P.E.m.4 $ % 9 g u u g g g d g g g g d d g g g g g g c G F F G L K D c g g g h h h g s s g g g l M F F F G :.l ; 1 8 w w w w w q q 2 2 2 2 8 q q 0 w w u +.u : g F F F c j c x g d d d g g g g g g g g t N 1 2 u u g g g g g t g l l z F M b.$.; g g g g g g g g x Z G t.c ; q q 9 9 q q q 2 2 2 2 8 ",
"e 1 4 Z G G G G G F F F H H K K L T ^ ` ] +.$.;.<.c.L./.b.q : 2 q t g j g t w w w w w w w w w w w w w w w w q b 2 u b N G G F G c g g g g g g g g g +.Y % ; G E ( ( H b b b R #.` ` K b b b b b b b b b b b b b b b b b c E E.E.x.: $ % 9 g d g g g g g g g g g g g g g g t g x G F F H L K c h g d g g g g g g g l v c z x M G G G G %.x ; 1 9 w w w w w w q 9 2 2 2 q q q 8 q w w ( u : l H F F x j x c d t t d g g g g g g g g w N 1 4 g x c b M G b z g g g c F l $.$.; d g g g g g g g t g x t.c ; q q g j j y q 2 2 2 2 4 ",
": 1 l G F F G b b M b c c x x b F F G G G G G G G G D %.T.^ : 2 q g g j t q w w w w w w w w w w w w w w q w q m 2 u b c c G G c g u g g g g g t t t ( T % & c T ( ( R Y H Y +.%.+.` ( Y b b b b b b b b b b b b b b b b c X.E.~.a.: $ % 9 j g g g g g g g g t t t t t t d g x G G F G K L L c g g g g g g g g g x G F F F F F b b G G $.c ; 1 9 w w w w w w w w 0 8 9 w w q q q w q Y w : l H F K c c x x d t g g g g g t t d d d t K 4 9 c G F F F F F F G b M G F l ) X.& q g g g g g g g g g t #.h 1 t u g g g q 8 2 2 2 2 4 ",
"1 q G F F F c g g g g d d g g g c G G F F F F F F F G G ] r.1 2 g j g t q q w w w w w q q q w w w q 0 q 9 7 8 k 2 t G G G G x g d g g g g g g g j g ( ` & & g Y R ( ( ( ( +.+.%.#.( ( ( R Y H G N b b b b b b b N G G H H a.rXyXP.1 : ; g G G G N M b b b c c c x x x c c b G G G F L L L L L M b b b b b b b M G F F F F F F G G F G #.b ; 1 9 w w w w w w w w w w q w w w w w w q N w : z K K F x j j g d d g g g g u g x c c b c +.q t G G G G M c c M G F F F G g Y Y # 8 g d d g g g g g g t Y w 1 j j j g t q 2 2 2 2 2 4 ",
"2 c G F F F M g t u g g g g h M G c c M G F F F F F c x G 2.9 9 g j g w w w w w w w w q 9 q w w w q 9 2 4 8 q h 1 g G F F G c c c c b M M M G G G G >.t.1 1 c _ ( ( ( ( #.%.#.%.#.( ( ( ( ( ( ( ( R R R R R R R ( ( ( ` R D.vXlXM.1 1 : g H F F F F F F F F F F F F F F F F F H K K K T K L H F F F F F F F F F F F F F F F F F F F G ` x ; 1 8 w w w w w w w w w w w w w w w w w w k 0 : x ^ L G c l l l j g g g g g g c G G F F G %.q t G G b l g w a g M F G F G g H E # 4 g g g g g g g d d t H j 2 j j g w w 0 2 2 2 2 2 4 ",
"t G G F F F F M g u g g g j b M z s s g M F F F F G x g c ;.g 9 d u y q q w w w w w w q q w w w w w q q q w w u 1 g G F F F F F F F F F F F F F F N #.t.1 1 j ( ( ` ` +.+.%.` #.` ( ( ( ( ( ( ( ( ( ( ( ( ( ( ( ( ( ( ( ( r.tXlX2.: 1 ; t H F F F F F F F F F F F F F F F F G H T L L L F F G F F F F F F F F F F F F F F F F F F F G T q ; 1 8 w w w w w w w w w w w w w w w w w w r 8 5 c T L K G G G G G G Z G c c b G G G N G G %.q w c l g t t g g l b b G F G g N ( % 2 g t g g g g g g t t N g 2 y u w w w q 2 2 2 2 2 4 ",
"x F N b c x x l g g g u u u g g g g g g c F F F F F G G G >.g 5 q t 0 q q w w w w w w w w w w w w w w w w w w 9 : g F F F F F F F F F F F F F F F G / t.1 : q R ( +.%.%.#.+._ ( ( ( ( ( ( ( ( ( ( ( ( ( ( ( ( ( ( ( ( ( ( ` !.tXH : 1 : q F F F F F F F F F F F F F F F F H L L T L K F F F F F F F F F F F F F F F F F F F F F F F G b 2 1 : 2 q w w w w w w w w w w w w w w w w w q > 4 c L H F F F F F F F G F F G F F F G M G G +.q q l j g g g g g g l M F F G j b / $ - w d g d t t t t g t b w 1 4 q w w w w q q q 2 2 4 "
};
