/* XPM */
static char *_c25630eeb404316f04059d4fa7e3ca6GsccQeSpGTEug4lV[] = {
/* columns rows colors chars-per-pixel */
"256 256 247 2 ",
"   c #583E55",
".  c #483058",
"X  c #673C56",
"o  c #793958",
"O  c #7E2E57",
"+  c #513863",
"@  c #723E65",
"#  c #554256",
"$  c #5A4156",
"%  c #574358",
"&  c #5A455B",
"*  c #5D495E",
"=  c #63445C",
"-  c #624A5E",
";  c #6A455D",
":  c #75425E",
">  c #5F4A61",
",  c #5C4566",
"<  c #5F4772",
"1  c #634C63",
"2  c #6B4C63",
"3  c #654D6A",
"4  c #6A4A67",
"5  c #764966",
"6  c #665166",
"7  c #675168",
"8  c #6B536C",
"9  c #6C5469",
"0  c #73546C",
"q  c #79546B",
"w  c #664C74",
"e  c #6A4D75",
"r  c #684B76",
"t  c #774B75",
"y  c #6D5472",
"u  c #6D527A",
"i  c #6F5871",
"p  c #725674",
"a  c #735B74",
"s  c #72557B",
"d  c #765B7B",
"f  c #795D7C",
"g  c #7B5875",
"h  c #7C627D",
"j  c #786578",
"k  c #873759",
"l  c #94345A",
"z  c #913C6B",
"x  c #AE396B",
"c  c #AB2E5B",
"v  c #CA3B74",
"b  c #874968",
"n  c #97476A",
"m  c #85556D",
"M  c #874A74",
"N  c #984A76",
"B  c #875977",
"V  c #975779",
"C  c #92576D",
"Z  c #A84975",
"A  c #B74A78",
"S  c #A6567A",
"D  c #AF4D73",
"F  c #83637E",
"G  c #8A6378",
"H  c #97657A",
"J  c #88606E",
"K  c #99576F",
"L  c #CB4C7A",
"P  c #E34475",
"I  c #7B5D83",
"U  c #765A81",
"Y  c #7E6282",
"T  c #7E6389",
"R  c #875B83",
"E  c #975C84",
"W  c #984B86",
"Q  c #A85B85",
"!  c #B85A85",
"~  c #B0518E",
"^  c #826584",
"/  c #8C6484",
"(  c #846985",
")  c #8B6A85",
"_  c #83658A",
"`  c #866A89",
"'  c #8A6C8C",
"]  c #8B6689",
"[  c #936384",
"{  c #936C8C",
"}  c #9B6C8C",
"|  c #976687",
" . c #8D718E",
".. c #877687",
"X. c #96728C",
"o. c #8C6E91",
"O. c #866B92",
"+. c #986C91",
"@. c #8E7192",
"#. c #8E7397",
"$. c #937594",
"%. c #9B7494",
"&. c #967996",
"*. c #9A7996",
"=. c #957699",
"-. c #977999",
";. c #9A7B9A",
":. c #9C7699",
">. c #A7678A",
",. c #B7658B",
"<. c #A6748B",
"1. c #A86C94",
"2. c #BB6C94",
"3. c #B66A95",
"4. c #A37394",
"5. c #AB7394",
"6. c #A37C9C",
"7. c #AC7B9D",
"8. c #A77798",
"9. c #B4759A",
"0. c #BC759B",
"q. c #B37A9D",
"w. c #B87798",
"e. c #B7758D",
"r. c #9D7EA1",
"t. c #967BA3",
"y. c #AC7EA1",
"u. c #A67DA2",
"i. c #B47DA2",
"p. c #BB7CA2",
"a. c #B778A8",
"s. c #BB6CA4",
"d. c #BF5FA0",
"f. c #C65987",
"g. c #D1558C",
"h. c #C5638C",
"j. c #C66995",
"k. c #D76996",
"l. c #C6769B",
"z. c #D57094",
"x. c #C568A7",
"c. c #C67AA4",
"v. c #D779A5",
"b. c #CE74AF",
"n. c #E976A8",
"m. c #DE5E9B",
"M. c #D862A8",
"N. c #9E819E",
"B. c #978595",
"V. c #968995",
"C. c #A7829D",
"Z. c #B7849B",
"A. c #AF909F",
"S. c #9F81A1",
"D. c #9E86A8",
"F. c #A384A4",
"G. c #AB85A5",
"H. c #A688A6",
"J. c #AC89A6",
"K. c #A687A8",
"L. c #AA86A8",
"P. c #A788A8",
"I. c #A989AA",
"U. c #B383A5",
"Y. c #BB83A5",
"T. c #B38AA5",
"R. c #B386A9",
"E. c #BB85A9",
"W. c #B38BAC",
"Q. c #BB8BAC",
"!. c #BB8CA5",
"~. c #AC92AD",
"^. c #B892AC",
"/. c #AE8FB0",
"(. c #A287B1",
"). c #B98DB2",
"_. c #AF91B1",
"`. c #AD99B3",
"'. c #B396B5",
"]. c #BB93B4",
"[. c #B599B6",
"{. c #B596B9",
"}. c #B699B9",
"|. c #BA9BBC",
" X c #BB98B6",
".X c #BBA4BA",
"XX c #C8839C",
"oX c #C382A5",
"OX c #C788A9",
"+X c #D686AB",
"@X c #C793AB",
"#X c #C78CB3",
"$X c #D88AB4",
"%X c #C697B7",
"&X c #D698B7",
"*X c #D393AC",
"=X c #E88EB6",
"-X c #C7A4BB",
";X c #DAA3BB",
":X c #E3A2BE",
">X c #BD9EC1",
",X c #BEA1C2",
"<X c #BFA7C3",
"1X c #CA9DC2",
"2X c #D99BC4",
"3X c #DA8FC7",
"4X c #E59AC5",
"5X c #EF91C9",
"6X c #C2A3C5",
"7X c #C5A6C9",
"8X c #C6A9CA",
"9X c #CAABCD",
"0X c #C9A7C5",
"qX c #D7A7C9",
"wX c #CDAED1",
"eX c #D6ACD3",
"rX c #CEB1D3",
"tX c #D2B3D5",
"yX c #D4B6D9",
"uX c #D7B9DC",
"iX c #D9BADE",
"pX c #DAB5D7",
"aX c #CCB4CA",
"sX c #E5A7C7",
"dX c #E7B7DA",
"fX c #EEAFD3",
"gX c #DCBEE1",
"hX c #E8BCE3",
"jX c #F2B9E5",
"kX c #F1C6DC",
"lX c #DFC1E4",
"zX c #DECAE2",
"xX c #E2C2E6",
"cX c #E4C5E9",
"vX c #E6C8EC",
"bX c #E9CAEE",
"nX c #EAC6E8",
"mX c #F2C6EA",
"MX c #ECCDF2",
"NX c #F1CDF4",
"BX c #EED1F5",
"VX c #EFD2F8",
"CX c #F0D2F6",
"ZX c #F2D3F9",
"AX c #F5DAFB",
"SX c #F8D5E4",
"DX c #E1CBDF",
/* pixels */
"K.r.o.] 4.i._ I | @.` ] >.Q 2 X o b X $ f 6.G.i.7.4.:.;.6.#X;.;.l.! $.7.[ ] / [ R V V B E >.e.l.v.2.9.XX%.f B W V @X#Xg.! G.J.x.k.U.T.I.&XJ.G.f.x.g.j.q.k. X#Xi.;.Q L ) 1.f.0.Y.5.oXV S o # 5 <.B.0 7.k.9.I.%X%Xv.s.a.G.K.G.f.i.p.G.I.I.I.G.G.I.G.k.f.5.G.F.I.G.f.3.L.I.I.J.oX,.y.I.c.i.G.L.I.G.!.U.I.F.9.v.v.2.W.^.^.C.G.;.4.T.1.OXF $ D ,.5.j.c.jXNXbX'.Y.T.XX9.q.G.q.G.I.J.@XJ.J.J.7.0.c.a.J.9.9.L.I.q.i.J.G.l.*XY.p.J.'.@Xk.l.;.1.L l X q C.L g.G.7.U.G.W.J.s.i.p.g.3.;.=.6.C.5.] %X,.] $.;.&XW.G.I.P.G.Y.#XG.;.^ 1 * B / @.",
";.P._.{.%X&X|.{.'.U.X.^ 3.N & o o & # > $.F.F.8.q.g.Q &.Q ,.OX%.Z.f.8.X.R ~ 2.~./ V N R h.l.3.z.+X7.<.P 0.Y B V N L 1.,.A C.G.s.x.T.XXf.p.L.G.G.i.j.j.L.b.a.a.a.U.4.j.4.) >.l.1.5.XXH b o # { 8.) 0 [ L 5.C.G.OXQ..Xb.U.0.G.y.G.k.x.0X%XW.p.q.P.G.i.i.F.G.s.J.I.j.h.G.I.I.a.m.g.a.I.i.0.0.i.L.G.OX XP.7.h.0.j.k.Y.! oXC.G.' ,.+Xg.s.3 : D Q m.L v.5XfX9Xw.h.b.v.0.p.i.c.I.I.I.i.j.J.I.P.0XOXx.c.j.m.i.G.j.k.&XQ.U.c.a.R.W.+Xz.p.q.8.>.Q L z C Y.V v.W.Y.OXoX%XI.L.).i.g.L | | !.%Xc.| o.E A { ,.q.9.f.G.q.0.l.f.J.F.F. .7 # & 1 ",
"1 1 6 } >.4.h 8 9 H [ - B * # # # # # 7  .w.8.$.$.S ! ` / >.Z.F V A <.<.h M V e.A b v ,.e.~ 3.q.!.T.XXk.B [ e.2.h.! w.2.7.6.L 2.,.G.y.g.g.y.,.y.I.L.G.K.G.U.6.q.#X6.$.' } 3.l.{ { e.e.5 $ # & & g g 0 h.q.;.Z.XXl..XI.q.! q.G.G.9.f.OX=X&XQ.G.i.f.l.h.U.J.a.Y.J.oXl.U.G.L.h.k.x.a.G.l.h.j.f.G.L.'..XF.F.5.s.8.C.8.| S f.{ ] [ A E M 2 f.~ S h.z.sXjX:XOXl.j.M.k.j.Q.R.R.p.Q.}.9.,.G.9.G.%Xg.7.+X&X#XF.G.f.OX&X$X%XG.L.F.].U.Y..Xc.0.,.! b.-Xq S 2 X.G.F.].R.F.G.6.G.%.>.2.! f.L j.<.2.x B j.+.f.j.y.9.G.f.g.q.G.L.p.c.6.$.p 2 - ",
"# # # 2 m 5 * # X 2 g & H - # X 5 2 2 * p g g n 5 n 5 5 N L >.S 5 l b ..j 0 H >.n $ ; >.H = 5 <.H 0 g G V A ,.] V x V { 9.2.>.8.e.7.F.G.9.G.1.G.F.r.F.Q.;.oXZ.} { R.*X3.v.w.<.^ / e.>.H q & # a >.B 1 *.J.7.l.z.L G.G.f.g.v.k.h.L P @X*Xc.Q.G.c.OX&Xl.v.W.9.h.R.$Xh.l.b.a.J.OXj.G.oXk.9.y.q.!.G.F.%X6.6. .a.G.` E Z [ Q Q >.>.| g @ 2 A S ! ,.].mXCX0XW.).G.G.G.J.v.j.%Xv.@X&X0.y.G.f.7.G.7.f.p.W.I.I.G.i.c.Q.].0XR.U.R.R.J.J. XoXh.9.4.l.G.A b $ B X.$.F.6.5.2.3.` ` ) ~.v.A V Z / B m f q.7.{ ,.0.&X'.U.9.+Xf.y.l.q.;.$.A S 2 ",
"p 3 * n 2 z @ $ l X # # - & # l v H q # # # o c X n | 2 S : 2 D S ; <.9 * } 4 & # #   c 5 ; 2 G 5 q - - = 5 q ,.) Q Q X.| i.6.+.,.L F.).6.Z.%.4.$.' ` { E 1.oX2.2.n.>.| l.$X{ d Z A H >.e.2 # h >.8.B } C.h.j.z.4.8.j.j.j.i.k.OXl.G.W.&Xc.a.L.W.W.OXOXa.2.]. XI.W.G.0.j.L.L.l.P f.G.q.L w.5.e.! $.oX8.@X;.l.m 8 B >.E g.g.&.,.S 5 =   X V w.8.%XfXsX}.I.I.F.4.5.0.j.f.W.].Q.*Xw.! G.L.a.c.i.p.Y.I.G.I.!.%Xl.XXb.).G.i.v.k.j.$X*XoXoXh.1.3.Z.8./ m b 2 * 2 D k.B B G i H ,.V n g N L f.S } ) { ( V A ! ;.Z.6.7.,.2.5.$.' { V m # ",
"Z.7.` / F { 7 & 2 G & $ X $ & ; : H * ....2 m X # & 1 * q n V 5 1.g h V V A ~ } X.` B n V V 5 * ; m m m B $ # = 7 / } .X$.;.%.! S S j.,.( ' / d.R d B B S l.dX$XQ N B B [ oX} B c X * 5 H 2 2 e.q.T.%X!.%XE.%.$.%.>.P c.^.y.f.Y.J.R.OX0Xa.s.i.f.y.0.i.R.j.%X|.K.a.s.R.%XI.3.,.h.5.;.%.A } A ~ | ' C.-.N.<XfX&Xl.v.=XsXjXsX;.%.V S m a 4 V Z.f.k.sXv.L.I.I.F.>.L z.c.j.J.L.J.w.f.0.U.U.i.v.l.j.2.y.f.6.C.#X6.Z.l.8.! ! A ! 3.,.8.0.#X@X:.$.8.[ B m | } a a V | B h.H 3 0 V 0 7 1 2 n D 2 m 1 1 o o 5 5 B 3.X.Q.S E >.Z.V <.) l X ",
"9.h.F.9.,.<.` Y f F $ l c X 1 * * - & G 9 - q * 1 t B E p.Q 1.8.F.F.Y.j.l.h.y.q.U.P.8.3.F.6.Q >.q l : L m.o $ 5 = | F ' ` ' E.j.e.N h.f.S B E ~ B d S f.>.5.OXq.R B D V B G <.- X # = ! B $ q c.l.0.=X>.,.+.6.` ' %.1.5.Q.l.! y.I.G.oX@X2.y.G.L l.J.I.I.@XOXW.G.9.y.I.}.P.6.%.&.@.E V ( / A | G.X.{ ` ` ~.&XkXsX5XkXn.=Xl.] F 2 X.*.%.Q ,.4.a.sXfXL 0.'.I.;.Q f.Y.x.z.oXG.oX,.P p.q.i.I.7.3. X XF.1.;.;.j.,.;.f.8.4.%.%.;.*.V Q h.6.T.^.'  .1.m.oXyXqX X X$XY.q.l.q.f.*.;.Z.C.$.' { } / h | [ m 5 1 * $ Z ,.a b 5 a B b m ; X   ",
"f.L G.Y.+X[ ` ` ` a $ o X * * 2 = = = N 0 F { &.;.a.M.n.R.G.a.c.I.W.Q.Q.%X|.|.&X%X|.{.'.].OXp.U.F.*.] h.L o q h.= ; & q N [ ' | L n ) V A S R N f.[ >.v.[ B H >.g p C q ; = = 5 z X $ g g m 4.5.! ,.l.5.1 ) G.' / [ &.;.q.Q.3.g.%XI.9.f.2.G.L.i.b.W.F.F.3.g.,.1.! :.I.[.$.{ >.>.>.V M 3 4 ~ t ( 4.X.[ [ >.Q w.Q.).Q.&Xh.} { B 0 $.G.j.| 0 3.v.xXiX2.g.+Xl.Z.3.h.I.J.R.oXQ.Y.,.f.G.L.I.I.U.k.j._.S.9.+XG.4.8.{ x M 8 H 0 ~ %.F } k.Z.!.%X'.|.wX4XfXbX5XsXnXhXfX=XxXhX=XqXiXsXeXtX9X8X1XE.U.q.,.C.u.4.A [ V 1.8 # # # # = S ; 6 3 ",
"q.3.8.v.T.' ` ` ( B 5 l o * 9 H N W ) %.;.Y.oXI.6X6Xb.&X1XqX&XiXxXdXdXpXqXtXuXuX9X6X6X|. Xc.j._.I.I.I.9.w./ j j # $ $ B ! A S [ N g / A Z R f E k.f.~ G 2 ) a 2 ; $ b b x C b ~ M = z t & q ) S >.4.! 4.B 0 / E V Z | >.%.6.U.p.@XJ.U.m.k.U.J.i.3.6.,.1.%.1.} $.{ $.#X%Xq.l.n.j.~ 1   q 2 ~ n h ( 5 v Q w.f.Q >.[ A 4.w.l.w.<.J.J. XG.$.8 4.g.0XR.x.i.f.,.z.k.Y.I.l.c.oXoXg.,.9.,.L.I.I.`.^.q.I.F.8.7.G.' p * ; 2 6 F ' %.;.F.G.E.%XqXiXdXdXdXn.qX9XOXz.|.|.|.%X6X7Xv.n.eX9XeXtX&XpXeXm.k.$Xv.qX=X$X#X].u.;.@.1 # # # $ * 9 .XC.",
"F.8.' ,.>.` | { a 2 2 5 1 * V.G ,.j.f.u.P.R. XtXxXnXMXxXn.4X4XeX9X|.j.].#X).'.'. X%Xl.0.'.].].'.oXR._.I.@XY.6.` 1 o k } } B D V f Y [ L v M 5 * M M M Z = F 9 = b = $ o n ; = = # # 2 } * # $ 5 x m Z { >.C b Z / / Q f.8.6.v.#X].OXsX$Xl.6.Z.l.f.9.k.9. .{ >.) ` ` ' *.-Xl.e.5 X . . 5 C X X       z B X.XX| { } >.w.&XfXoX,.%X%X*X.XG.g &.G.!.U.s.s.j.7.3.l.W.I.2.k.v.n.2.f.9.5.L.I.I.G.G.i.0.5.L f.C.* & - G Z.*.;.F.I.|.9XgXhXvXfXsX=X;X7XOX@X'.'.'.'.'.).b.%X%X X X|.Q.c.].Y.].].j.c.'.l.g.c.k.'.a.x.6.;.' * # $ z 4 ( 7XxX",
"8.,.` | | ] L V * # 2 S 4 & 9 ^ Z.5.3.G.!.&XhX4X2X&X8X|.].}.|.'.'.W.p.].'.'.'.].&X@Xg.k. Xc.oX'.oXE.'.'.U.j.2.9.<.0 X * 4 | b 5 0 V V L ; o n 2 q ] X.k.o $ 5 V S 2 2 ; 2 6...$ $ # % - # & ; n b   = : l z ! 2 | ] ] Q } 5.*XfXkX%X#Xj.4.;.C.8.,.2.5.' ` ) >.{ ` ` ` ' %.V l O     & 2 M c 4 0 1 > 2 5 1 C.B.} 5.) 5.sXSX+Xh.5.6.,.Q oXX.| x.Y.J.y.s.g.L 7.J.I.I.U.+X-X#XG.2.w.I.I.I.I.9.g.0.j.3.>.| 2 & H l.8.F.@X0XuXvXjX=XmXeX0X|.z.z.oX;X X+Xl.'.}.6X}.).p.+X%X+X@X'.'.].'.].'.'.%X&X%X%XOX%X%X'.W.c.#X;.*.) * = 4 g yXZXZX",
"$.` %.%.] ] V 3 # # 1 g 8 * ^ &.;.F.I.%XsXjXbXc.W.'.'.'.'.-XpX<X].2.T.'.'.'.'.%Xc.l.c.%X+Xb.).'.'. XW.Y.z.G.G.2.l. .& # # & # * 2 ,.l.h.H ; C >.m o D j.Z g f.h.e.H H S : G F n 5 * - b = | >.; g q >.L k l v = 5 8 ^ ) >.2.oXfXfXqXI.6.9.;.$.0.w. .` / ) ` <.5.` ` [ ~ j.Q.B 5 4 4 B H >.z.t ~ M 3 3 3 1 j h ^ ` ) 5.k.v.f.>.q.8.%.! ! } B Z F &.,.2.].oXXXU.I.L.#X%X[.W.I.I.G.).I.I.G.! A %.;.( 1 n ; M x.c.0XiXnXCXZXbXdX=XmXdX+X].Q.%X+Xc.].Q.E.'.}.8X}.c.k.=X%X%X].'.%X%XQ.OX].'. X|. X&Xk.c.'.oXl.*X].XX,.XXD V 0 V pXNXCX",
"' ` %.%.S S d = * ....* 1 ^ &.;.F. XpX=XjXNXNXnX9XQ.^.'.'.%X:X;X].p.W.].).'.'.).R.k.oX).OXoXR.OX-XqXi.0.k.G.I.T.@X&.1 # # & = ; * 2 m ,.e.m ; >.5 x l : @ h H ; 2 2 0 F } l.h.oX0.&.' V m { g p <.C n ; = x l 1 # # 2 A ,.| } c.v.p.6.8.5.~.&.1.w.OXl.A E ` } Q ` 4.2.f.+XsXfXQ.2.Z B >.z.*.8 V Q V 1 4 t 0 H B ) ,.l.! S V 7.Z.*.*.8.A n * $ 9 ..C >.H.~.1.c.R.%Xk.j.G.3.G.L.c.OXI.-Xk.g.,.*.( * 5 L m A c.dXZXnXfXcXtX|.OX%XyXhX4X%X}.%X%X].Y.j.'.'.'.'.'.j.j.m.OX].'.'.W.Y.I.a.m.j.I.I._.].oXv.].).]. X XOXf.f.j.q & ; N.=X=X",
"` ` ` ` ] B 1 l : i i & [ Y.;.F.9XMXMXeX7X|.&XsXcXdX0X%X%X X].OX].).c.k.h.].'.'.).h.q.l.oX*Xm.g.U.J.f.3.U.I._.J.J.$.* # % 1 : k * 3 C :XkX5.2 2 5 Z ~ x z 2 a ( `.I. XaXiXiXfX=X+X7.6.! >.;.&. .' [ V 1 = V B B # # # b >.~ 1.1.3.f.l.%.$.~. .{ { w.5.E D ] ` ] { OXw.Y.kXsX#XtXdXeXrX1X%X.XF.@Xk.Q ' / W g 6.|.+.g.5./ B w.:.1.;.%.h.n o   - j j * * g F S 7.].!.7.y.G.e.l.U.G.Z.6.H.8.Z.5.) * # q S } 4.pXjXjXcXqX8X%XE.).'.'.}.6X9X6XQ.l.j. X].].7X_.I.W.!.c.0.j.l.9.y.q.f.G.U.k.h.P.P.P.I.h.g.Q.'.'.*X X'.q.9.;.%.G # 1 c.5X",
"B V b 8 3 1 * ; - * & : >.8.;.I.tXrX{.I.I.J.@X0.c.6XeX5XqX1X'.W.Y.b.E.R.W.].].I.G.! a.G.!.R.i.Y..XI.G.G.P.`..Xi.7./ n k - B g * * C.>.;X&XV M N 8 g [ ! G. X6XtXDXiXpXyXgX9X6X@X Xk.p.G.#X).F.>.! ;.;.$.` g * ; V X X X 5 ' -X1.] Q h.>.Q.$.` ` ` $.Y.A S ` ` S ! 2.} 9.;X*X5.{ ;.I.|.8XtXzXiXdXeXuXcXxXeXv.=X0.] [ ^ 1 C k.| ~ >.m L l 2 N 2.%.` ^ f | 0 b V /  .;.4.,.F.6.;.;.Z.A 1.;.G.6.1 # k x ! L z.hXn.3X|.'.'.0.h.k.^.].].'.'.0Xz.i.q..X.X@X$XW.I.T.T.I.L.i.0.f.w.G.G.P.U.j.2.I.I.I..XQ.h.R.'.'.%X%X XOXp.2.u.{ & # ' gX",
"2 b k * 0 4.6 * * #   l ,.4.;.F.P.K.P.I.I.I.I.q.9.F.G.#X+X&X6X+Xl.J.L.I.T.@XQ.I.I.G.x.L.T.J.P.6XyXI.F.6.%.=.7.h.A 3 o k - B C $ 1 >.v.h.w.U.Y.k.%XwXeXsXgXgXgXhXdXyXtX9X}.'.'._..XE.E.I.Q.R.I.G.y.G.5.6.6.R.h 5 ,.b k o o 1 %.,.` ` >.>.,.>.C.{ | ` ` V g d ^ ] ~ g.>.} 5.1.{ Q S / ( Z S ` $.8.$.&.;.F.W.i.>.~ [ F F % 2 5 $ * H m e.} ;.R.).'.I.U.6.,.4.!.j.H 1 8 B H OXG.;.;.Z.1.%.;.*.g - & V e.8.2.4XtXOX).oX].oX2.6.Q.wXv.l.'.'..X^.y.f.i.I.G.f.9.I.W.G.2.G.I.2.z.!.I.P.I.I.L.L.L.p.G.'.'.Y.%XW.%X%X|. XW.R.m.3.' 7 # 1 J.",
" .$.%.4.w.9.^ / / # # & B &.;.;.F.I.I.I.I.J.Q.J.I.U.Y.P.l.oX].z.l.G.l.R.Z.!.W.I..X.XL.I.I.I.P.I.J.;.;.,.v 8.G.:.M X k $ * * l V &.F.0X*Xh.E.#Xv.#X8XwXwXtXtXwX&X0X|..X<X'.'.I..X'.L.Y.E.OXR.Q.G.L.y.f.G.F.6.%./ [ 0 # $   # 3 ( ` ` X.%.) S 8.} >.[ U.XX8.` ;.$.` [ ) ` | | ` S A >.[ | [ ' ` ` ` ` ` U.E.X.| B g 1 g & # # * a Z.oX=X-Xv.1XpXyXyXeX0Xg.q.[.7.XX<.h 7 1 X.C.'  .*.*.%.' X.g F 2 5.F.F.b.b.'.'.].E.).v.g.qXcXbX0XW.'.'.I.G.5.y.R.U.j.x.c.G.T.7.,.G.G.l.G.J.@XW.F.L.2.2.L.l.l.I.T.5.@XOXk.E.'.'.@XW.f.>.&.^ ; l Z ",
"8XwXqX4XeX|.'.F.%.a > # # 7 ` &.;.6.F.F.G.R.%XE.L.J.G.I.I.I.Q.OXG.J.W.I.P.I.[.'.'.'.I.I.9.G.;.;.%.A %.l.g.h.,.B z   o C 2 M ,.9.y.R.b.OX+X].OXl.j.J.^.R.J.W.R.z.OXI.I.I.}.P.I.'._.L.R.&XsX#X@XR.).I.G.I.G.l.l.;.` - = n l X & 0 ( / / ` ` ) ` ` ) ,.sX;XsXtXtX|.' ` ' ' ) ) ` ` { Q >.' ' ( R V Y h f h { g 2 1 } - * C 0 h @.;.!.&XsXsXn.2XpXtXtXeX1Xa.G.G.N.6.6.;.;. .h j * 5 n ] >.0 - m 2 ) ;.;.P.).b._././._.'.).v.2X8X|.'.'.'.I.I. XOX%X@X0.g.3.i.G.J.I.I.%XQ.i.G.W.@X%X!.J.7.q.I.G.G.I.).W.j.k.h.7.I.I.T.0.9.;.%.' C l 2 ",
"CXfXdXmXjXMXdXqX$Xu. .h 1 # & 1 B ~ 6.,.6.F.G.+XR.I.I.I.I.I.I.I.W.0.I.P.I.I..X}.I.K.I..Xh.l.1.%.&.} &.;.G.4.B X l 2 0 * - { G.,.,.G.y.y.2.R.{.6XwXyXqXn.+X4Xm.v. X/.u.)..XT r $.G.Y.OX&XdX#X9.U.].I.I.I.P.G.G.F.;.[ l ; o b b m B V D / ` ` ` ` ` ' %.,.<.%.#X;.^ ( ~.h a p 8 8 z b q 6 1 > ; k & & # # # # # - l.e.F 4.6.I.).%XsXdXuXuXpXpX7Xk.g.p.l.@X^.l.c.5.;.-.;.;.;.*.' T.V ) i & 2 H 0 C.F.F.'.'.K.-.[.;.=.r.K.2.j.'.#X%X'.W.OXR.~..XT.G.G.2.x.a.oXL.I.J.%X).I.I.I.I.L.Q.J.I.I.I.I.I.P.].).0.+XW.l.R.I.L.,.! 6.*.$.` 1 $ ",
"BXhXnXmXmXhXdXnXbXgX%XI.&.h 1 # $ 4 | { Q %.j.v.J.I.L.0.c.E.I.I.I.G.P.I.K.Y.Q.F.;.;.;.H.4.3.>.%.&.Q 1.F.5.e.V : X 0 m b a ;.I.6.! XXOXl.>.6.S.F.F.P.I.c.#XqXfXjXMXxXdXpXrX1XI + u :.Y.OX%XOXh.0.I.G.U.G.W.I.L.K.F.6.>.k   X = * * 0 / ` ` ` ^ Y h f a g 0 7 F p 8 1.X.a >.B 8 i g 0 7 1 1 b = * * > 1 6 8 p h  .a.a. X6XtXyX2X2XtXwX1Xl.}.}.J.l.j.G.U.a.Q.9.c.3.;.;.;.1.>.Y.c.;.$.h ..G >.g 6 *.8.I.).y.$.#.D.=.o.o.o.+.f.2.M.Q._.I.R.J.I..X@Xl.G.F.G.W.J.I.I.I.P.I.I.P.I.a.s.L.I.I.I.I.P.I.I.I.I.I.W.W.W.R.oX9.h.f.9.;.%.1.g $ ",
"yXaX-X%X6Xz.%X9XtXeX=XxXtX6X[.h 1 & m 2 0 / S h.#XF.G.f.h.J.I.P.P.I.J.7.6.8.R.;.$.$.&.&.$.$.$.;.;.f.g.>.B q ; 2 & o k 5 ' I.}.6.P h.8.9.S.F.F.%XI.S.S.r.u.l.].0XdXNXCXZXcX=X%Xr.w z R 7.W.W.R.$XE.L.l.U.oXi.a.a.P.G.w.S ; l X # ; ; k 2 1 2 5 2 & # # 5 V m V  .%.3.8.7.@XJ.,.4.C.;.! >.%.1.o.$.$.&.S.I.'.%X7XwXtXyXuXiXuXtX&X%X{./.U.l.F.!.!.@XG.F.F.j.0.;.;.;.;.;.%.f.~ f.1.' ` ` .XC.b * 8 } L E.c.f.E o.o.:.$.o.o.o.+.>.c.W.I.I.J.oXG.I.J.G.I.G.i.@XU.0X.XI.P.P.P.P.P.G.i.I.I.I.I.I.P.I.I.I.P.I.I.I.I.I.U.i.,.y.j.:.*.} ^ - ",
".X-X-X}.'.].'..XaXI.R. X6XrXaX'.;.h 1 % # & 8 { 9.$.;.6.F.I.P.I.W.#Xc.OXQ.C.C.6.G.;.;.;.;.;.;.W.J.J.!.Z ; # $ S ;     p ;.'.0XF.5.7.r.8.3.!.G.F.F.S.S.D.S.u.F.2.+XiXMXNXZXmXhX|.K.I 5 Z | k.Y.k.c.L.0.p.U.p.s.a.G.a.5.;.^ =   # 5 5 o $ # = Z n # 1 h ;.W.3.L a.I.q.v.@X XI.0.Y.I.W.p.R.l.z.oX6X0X0XtXyXqX&XuXuXyXtX;X%X#Xp.G.G.I.'._.J.G.@X@XC.;.;.8.0.;.%.4.6.%.8.%.{ { ,.%.` ` ` ^ b k 0 1.l.f.Q.#X2XeX8X7X1X1X8X2XwXzXdXeXU.I.i.0.U.G.L.L.I.I.U.c.Q.oX^._.I.I.I.I.P.I.I.I.I.I.L.L.q.y.I.I.I.I.I.I.I.I.I.p.j.f.G.i.>.%.' ^ - ",
"}.'.'.'.'.'.'.}.}.J.oXI.I.I.'.}.'.I.;.h 1 o 5 > p `  .$.$.&.;.;.G.+X7.I.I.R.k.9.).F.F.S.;.;.;.;.$.^ 9 : 5 $ = D ; # 1 $.F.'.I.F.F.F.S.,.f.u.S.S.S.S.S.S.S.S.F.I.|.%XsXjXZXdX1XI.-.U M n . z ;.L.I.G.q.G.L.L.I.2.5.y.G.;.;./ * # * * # # # z @ ; p $.F.[.uX8X$X3XqX+X+XtXrXtX0XeXtXyXyXuXeXsXpXiX$X$XiXpX4XeXwX|.'.I.J.G.0.f.2.l.L.0X_.,.4.OX&X*.;.;.*.6.;.5.g.j.6.OX9.` ` N.`.' ^ a 6 q C 3 B f.j.).b. X8XyXiX2X4XtXv.1X9X1XsX%XU.U.U.I.I.c.x.L.I.I.W.&XJ.I.I.I.'.%Xc.T.G.I.I.I.I.U.G.p.G.I.I.E.oXI.I.R.I.I.L.G.G.I.F.A A | ( 1 ",
"'.'.'.'.'.'.'.'.E.J.v.p.I.G.J._.'.'.'.I.>.V S & & 7 h ` ` ` ' ' $.8.,.>.;.;.>.} ;.;.;.&.&.$.' ` f * $ = m q 2 n = 2 5.u.'.'.'.'.'.'._.W.I.I.I.'..XaX_.K.K.I. X%XiXjX5X9X=.R B < + . . s U , , s { ,.f.'.2Xs.F.q.6.I.I.F.o.! 5 # q m * i - = 4 Z ! F.I.'.uXuXyXpXeXqXuXiXiXqXn.pXiXvXgXiXiXiXiXiXpXeXiXpXsX0XI.P.I.P.F.F.F.6.6.8.;.Q.F.,.4.5.4.*.;.;.;.&.,.f.>.) 6.^.7.{ ` ) >.B 3 2 * 2 5 * * >.9.].].'.'.'.'.].'.I.G.L.G.E.sX%Xp.p.i.G.I.Y.OXT.I.I.J.R.I.I.y.f.W.%Xf.z.T.3.T..XR.L 3.I.P.I._.W.Q.J.G.j.2.P.I.I.I.I.F.} S A / 1 ",
"_._.I.%X@X#X'.].l.G.G.G.G.f.3.I.I.I.Y.h.,.W.;.h 6 * 1 a a ^ R V ` ` | >.%.&.%.2.8.$.' ' ` ` ^ B e.q $ m oX-XB 5 B N.7.'.'.].E.'.aX.X'.'.'.'.'.|.<X<X).c. X-XqXdXxX8XF.I T D.r.O.U U K.qX0X|.I.Q N M N ] 0.8.F.F.F.;._ w . . .   * ; { ^.m # $ F 1.F.I.I.'.6X8X-X9XwXwXwXrX&X#X8X8XaX8X6X7X6X6X1X0XsXpXuXtXI.F.F.F.;.;.;.>.1.;.;.;.G.-XH.;.;.4.%.;.;.$.' [ [ ` ` | 6.$.` ` B S V m H 2 & # # # f G.OXl.].'.'.'.).p.I.I.I.I.R.Q.U.Y.a.g.j.i.I.R.J.I.I.I.].].I.G.q.L.G.2.y.I.9.R.'.Y.0.G.I.I.I.I.I.I.2.f.7.! 6.K.I.I.W.).;.$.[ ( 1 ",
"I.I.P.W.OX).'.'.I.P.I.I.I.G.G.I.P.J.c.0.'.'.}.'.F.( a [ - * 5 N ( ` ] >.| ' | f.p.` ` ` Y 8 5 V m b n j.XX*Xm N Y.[._.'.'.Q.+X&X.X|.'.'.'.'.'.'.'. X).c.rX&X&X>XI.;.Q.%XoX].}.>X>X'.'.I.I.I.I.J.I.y.6.o.U , + < < w w r u U e ,   l 5 * # # # h ;.F.T.I.G.oXI.I.I.'.W./.I.I.I.I.I.I.I.a.s.G.G.! j.OXtXiXtXP.;.;.;.;.8.2.Q Q >.+.,.5.Z.$.' ' A >.:.@.` ` ` ` ` ` ` 3.} ' F > * G V V 7 * # # # 1 X.i.OXp.Q.OX#X%Xp.I.I.I.I.@XQ.I.L.I.G.c.#XI.I.I.I.I.I.W.W.I.I.I.I.I.G.G.I.I.I.I.R.G.G.G.I._.W.p.a.U.1.,.Z E F.K.F.J.W.&.' ` ( 1 ",
"I.I.I.I.'.'.'.'.I.I.y.G.!.!.I.I.G.l.v.J.I.I.'.}. X'.U.2.F - $ & 1 y h ^ ( { 5.] ` Y d 8 N = # & # ; ; Z h.V g $.F._.'.'.'.'. X0X}.'.'.'.'.].].'.].v.1XyX0Xv.G.y.h.W.W.G.p.G.P.R.I.P.K.K.I.I.J.I.y.x.,.w.` + + O.{.b.$X%X'.I.;.$.p X $ # # # 5 M $.Z.@XI.R.oXJ.I.I.'.I.I.I.G.G.I.I.I.I.a.x.G.I.q.i.G.].eXyX'.;.;.9.q.;.8.;.>.V _ R _ _ ^ ^ +.%.!.*.` ` ` ` ` ` ` ` ` ` ( g & 1 b V $.;.>.g # # 5 V $.F.l.Q.].W.J.G.I.I.I.I.J.I.I.I.I.%XW.I.I.I.I.I.I.I.I.F.I.I.I.].W.9.,.I.P.I.I.I.Q.0.j.|.'.+Xc.1X8XG.x.y./.6XrX1X).;. .` ` ( : ",
"I.I.I.I.'.'.'.'.I.I.2.2.J.J.I.I.G.h.F.I./.I.I._.Q.W.c.OXF.G.{ 7 # # % * 1 7 8 G 2 & % 2 >.2 # # #     ; 2 h %.F.p.Q.'.'.'.'.'.'.'.W.).'.'.0.l.'.'.3XeX'.R.a.I.!.k.Y.I.I.I.I.G.+X].I.9.>.F.W.#XI.I.L.6.s . , >X9X'.a.i.R.i.G.F.%./ & # # # # 4 @ ) Z.!.J.I.W.Q.OXQ.].I.I.I.i.c.I.I.I.I.I.I.R.R.w.2.J.@X].tX8XoX6.;.;.;.;.;.&.^ ^ ^ ] { Y ^ U.I.C.{ ` ` ` ` ` ` ` ` ` f & # ; : S >.;.W.w.%.p # # % h ;.I.'.'.).U.h.G.I.I.I.P.I.I.I.I.oXU.P.G.G.I.-X].I.F.,.y.I.I.I.I.G.G.G.9.I.I.I.W.U.Y..XI.i.G.I.9XhX4XdXsX4XtXb.a.$.` ` ` / k ",
"I.I.I.G.l.].'.'.I.I.5.,.G.I.I.I.I.G.l.p.Y.I.I.I.'.aXI.W.'.W.G.&.( 1 # # # # $ q 2 - * * g 0 # # # o k 1 ^ ;.p.].j.p.'.'.'.'.].@Xj.j.l.'.'.W.Q.l.%XgX XI.I.I.I.^.R.G.I.I.I.I.U.OX).I.q.3.F.G.h.y.K.S.u . w 7X6XI.I.P.I.I.p.G.F.,.[ 1 # # # # # # a 6.G.I.I.J.oXOXOXR.I.I.I.I.L.I.I.I.I.I.I.E.U.G.7.L.I.I. XtXW.*.*.;.;.6.;.;.] ^ ^ | } o.r.F.;.$.` ` ` ` ` ` ` ` ` N 5 & # 0 [ *.;.|.cXiX9.S 1 * * 1  .;.'.'.].E.l.I.L.J.I.I.I.I.I.I.p.i.I.p.i.I.c.k.I.F.3.y.I.I.I.I.I.I.q.h.s.OXW.I.y.! 5.I.G.2.7.Q.@XW.w.h.i.I.G.:.` ` ` 6.%.o ",
"I.G.I.G.3.^.'._.I.I.P.P.I.I.I.I.I.J.E.R.c.J.I.P.I.'.I.I.I.I.I.F.;.$.8 * f h ^ | j.2. . .^ 1 @ $ #   8 $.F.W.oX].'.'.'.'.'.'.'.].p.Q.].'.'.'.'.j.&X6X!.R.I.I.I.I.I.8.2.0XI.I.I.P.I.P.J.I.I.G.q.G.I.U . l %X>XK.I.I.I.I.I.P.6.&.4./ y # # = 5 $ # 6 *.F.J.T.Q.&XdX&XE.R.J.I.I.I.G.2.G.I.I.I.P.J.).I.P.P.I.I.,X8XN.>.>.6.Z.;.%.A [ o.=.S.F.;.;.&.' ` ` ` ` ` ` ` ` ` b n : # a ;.;.|.bXwX>X8.Q h J q # h *.F.I.U.c.J.I.I.%XI.I.I.I.I.I.I.I.I.G.L.P.G.y.L.R.I.P.P.I.I.I.I.I.U.j.g.h.P.I.U.6.G.G.G.3.6.J.J.L.Y.L.K.P.S.' ` ` ` ' a * ",
"G.x.2.2.I.'.'._.I.].W.I.I.I.I.P.P.I.I.I.I.J.i.I.I.I.I.].).I.P.F.;.;.$.0 $.;.;.6.n.g.8.G.6.M z 4 @ 0 $.I.'.'.'.'.'.'.}.'.'.'.'.'.'.'.'.'.}.].OX&XqXI.W.J.I.I.I.I.I.%X0._.I.I.%XI.I.F.!.^.I.I.I.G.F., + @ v.i.L.K.P.I.G.y.0.j.{ <./ d > # = 5 $ # *  .u.I.#XqXsXSXsXOXU.G.I.I.I.G.! y.7.7.I.I.W.].I.I.I.I.I.I.9X X4.3.;.*.;.C.9.%.r.;.;.;.;.;.$.` ` ) [ ` ` | w.1.B = $ $ 1 $.;.'.cXuXE.U.F.$.` a & & | x.1.y.G.G.I.I.I.I.I./.I.I.I.I.I.I.I.I.G.I.I.I.G.p.L.I.I.I.P.I.J.I.G.2.! G.I.I.I.I.P.2.2.G.I.I.I.L.2.U.K.;.' ` ` ` ` ` 3 7 ",
"I.L.2.L I.'.'.I.I.W.J.I.I.I.I.I.I.I.P.I.I.G.p.L.I.I.I.I.J.I.9.9.F.;.Z.L V ;.;.8.s.3.;.#Xg.x X # M +.F.'.'.'.'.%X%X'.'.'.'.'.}.'.'.'.'.'.'.].+X*Xj.7.I.I.I.I.I.I.I.-X'.I.I.I.W.I.L.I.I.I.I.I.L.l.Y.I ] w %X).K.5.3.I.2.A >.%._ ^ Y d 8 # # # # # % ` ;.G.J.0XsX&X$XU.G.I.I.I.I.I.P.I.5.2.I.I.I.I.I.I.I.I.I.I.'.8XG.8.*.;.;.8.6.;.-.;.;.;.;.8.' ` ` ] D ] ` ' { } b k # % ^ ;.F.uXMX XR.R.F.&.` Y & # 1 } 9.3.F.I.I.I.I.I._.].I.J.I.I.P.P.P.q.h.F.F.F.F.;.r.;.;.;.6.Z.T.;.F.F.F.F.I.I.I.I.I.G.G.I.I.P.P.y.d.u.-.' ` ` ' 7.{ Q b a ",
"I.I.G.y._.'.'.I.I.I.I.R.OX%XI.I.I.I.I.P.P.I.I.I.I.W.).I.I.I.9.9.K.;.6.5.g $.7.l.6.;.N.C.w.; # & ( F.W.'.'.'.r.` >.p.{.{.'.}.'.}.'.'.'.'.'.'.8X%X3.G.@XJ.I.I.I.I.I..X_.I.I.J.I.G.x.L.I.I.I.I.J.R.W.r.+.s D.9XK.9.f.9.1.S $. .^ _ ^ f M ; b $ # # 2 G ;.F.-X%XsX&XOXoXi.P.P.P.I.I.I.I.L.L.I.I.p.i.I.I._.I.I.I.I.%X&X;XZ.;.;.;.;.;.;.;.F.F.%.2.[ ^ ^ ^ ] ` ` ` ` d & $ # 7 &.F.,XMXiXI.P.I.F.&.' ` 8 # # f 8.! %.F.J.P.I.I.].%XT.T.F.F.;.;.;.%.>.*.&.&.&.$.$.$.o.' 1.h.| ' ' $.$.&.;.;.;.F.F.F.F.F.7.6.;.;.4.$.[ V ` ` ) E / N 4 h ",
"I.I.q.y.'.'.'.I.I.I.I.R.E.W.I.I.I.I.I.I.I.I.).W.R.I.W.P.I.I.I.I.F.;.;.;.X.X.%.2.8.S.;.h 2 # # d G.%Xj.p._.o.u U $.].%X].'.'. X%X].'.%X'.'. X9X_.G.G.!.J.I.I.I.I.G.I.I.I.%X^.I.J.U.L.I.I.I.I.I.I.I.I.:.3 < wXI.P.9.q.;.$.$.@.^ _ ^ f x 5 5 = & # - 5 &.F.0X#XsX;XoXY.i.G.I.P.I.I.I.I.I.I.I.I.i.U.I.'..XI.I.I.I.].sXsXq.;.;.;.;.;.;.P.aX.X;.+.| E s f I _ ` ` ^ 1 # # # ` r.'.cXMX}.G.I.}.G.6.' ` Y 1 / p >.! %.;.6.F.F.F.0.4.>.+.$.$.' ' ' ` ` ` ^ ] >.h B B f f | ,.B f } } f Y ^ ( ` ` ` ' ' ' >.{ ' ' ' ` E V ` ` ] Z g 4 z ' ",
"I.G.,.9.].1X'.I.I.I.L.Q.@XI.P.I.I.I.P.I.I.I.%X@X!.I.P.I.I.I.L.i.6.6.;.;.) * ' 4.6.;. .& # 1 7 *.%X%XQ.Y.' u ` D.{.|.%X X'.'. Xb.b. X*X-X}.7X].G.p.9.P.P.I.I.I.G.l.G.I.L.x.oXI.@XJ.I.I.I.P.J.R.I.I.I.I.T . O.|.I.I.I.F.-.$.$.` ^ _ Y d 8 # 2 J $ # 1 &.G.%XY.Y.Y.U.p.j.j.L.I.I.I.I.I.2.7.I.G.f.y.I.I.I.I.I.I.I.I.R.#X6.;.;.;.;.;.;.8.oX;.-.` ] f I Q.@.' ` ` f # # # 8 ;.F.tXZX7XG.2.G.%XY.q.} | ` 7 8 ; N / ` E ! } } $.>.} A [ ( ^ ^ ^ Y Y Y f f E Q d V >.f f 6.] d f F F d d f f ^ f h Y ^ ^ ^ ` ` ` ` ` ` ) ` } w.g & = M %.",
"P.I.G.G.'. X'.I.I.I.J.%X@XG.P.I.I.I.I.I.L.I.I.%X).I.I.P.P.I.G.x.0.OX7.$.` & a N.;.;.p # # B X.;.'.'.'.9.{ D.'. X{.'.'.'.'.'.'.].'.'.'.@Xz.#Xf.h.,.h.0.I.I.I.I.I.G.I.I.I.G.c.W.J.I.7.5.I.I.0.k.I.I.I.P.F.I + +.W.K.L.P.S.&.;.+.[ _ ^ d a * 2 - # # * $.R.l.q.G.R.0.h.G.G.I.I.G.U.I.I.9.7.I.I.y.G.I.I.I.I.I.I.I.I.G.W.I.;.%.! %.;.;.;.;.;.$.` ` ` [ 6.` @.` ` H = # & ` F.1XMXtXR.U.2.i.v.G.6.} [ ` d #   o 1 1 5 n 0 V 0 5 E { 7 7 7 B g 8 0 8 8 0 D Z 5 0 p 8 8 a p 8 8 8 y y y p f <.p p p p a { ) f R ~ B f Q V v.Z.* # * 9 ;.",
"F.P.P.I.0.l.'.I.I.I.I.R.G.L.P.I.I.P.P.G.x.G.I.W.J.G.0.7.K.U.6.*.q.;X9.} ^ * i ;.;.$.* 4 @ 1 3.9.'.'.'.'. X|.}.'.'.'.'.'.'.'.'.'.}.'.[.].%X).0.7.9.h.q.I.I.I.I.I.I.P.P.G.J.G.I.I.I.q.2.I.I.U.i.I.P.P.].Q.Y.I + _ G.oXJ.W.F.Q.4.>.^ R f d  ...# ; N k ' Y.l.i.J.J.P.G.I.L.a.G.R.Q.`.I.G.W.I.I.I.I.I.I.I.I./.I.P.I.I.I./.;.%.>.%.;.>.1.;.&.' ` ` ` 8.[ @.' ` f 2 & # 9 ;.'.cXgXOXk.*Xc.c.+X6.;.&.` ( ^ > * % 1 h  .$. . .>.S S ` ^ Y Y | / H Z.h 8 8 0 3 * & # # # # # 1 8 f ^ ` [ ' } L  .$.$.&.&.F.N.&.:.d.1.$.4.%.Z.X.g o * i ;.",
"I.I.I.I.Y.Y.'.I.I.I.J.I.I.I.I.I.I.I.I.L.a.L.I.I.I.0.h.8.;.9.%.' | 1.5.w./ 6 j ~.$.0 2 4 @ p 6.J.'.'.'.'.'.'.'.'.].).).W.'.'.'.'.}.'.'.|.,XJ.9.G.I.G.I.P.I.I.I.I.Q.T.I.U.Q.I.I.I.I.I.I.I.I.'.I.P.I.P.W.oXp.F.U + :.E.J.%XJ.F.&.$./ Z B f h 2 # = b b [ 7.G.!.@XJ.W.I.I.L.x.G.I.'.aXI.9.c.I.i.y.I.I.I.I.I.I.I.I.I.I.I.I.F.;.;.;.;.Q >.;.&.` `  .` 6.6.%.` ] 7 # # & ' G.2XsX%X!.#XW.J.R.@X6.;.-.` ^ h a V.G | '.xXbXxXhXfXdXxXcXcXcXlXxXgXdXlXyXyXeXtXrX9X,X&.5 o # & ' /.yXgXhXn.dXxXhXcXcXcXxXhXhXhXxXpXpXpX2Xv.9X6X_.} Z = a ;.",
"I.I.I.I.'.].E.G.I.I.@XJ.I.I.I.I.I.I.I.I.I.J.U.J.J.F.6.&.$.' ` ` ` ` ` A A 2 9 j 1 * J * # [ 0.'.'.'.'.'.'.'.'.'.l.j.2.3.'.'.}.0X X'.}.6X'.I.I.I.I.I.I.I.I.I.I.7.U.J.i.0.I.I.I.I.P.I.I.I.'.%XI.P.I.I.P.p.i.F.a.W s I.K.I.I.F.-.$.@.( Y d 8 # # # $ q / ;.y.z.oXG.!.I.P.G.9.G.I.I.I.I.I.G.I.a.a.I.I.I.I.I.I.I.I.I.I.I.P.P.;.;.;.;.;.;.;.$.` $.~.) [ { 1.` Q 5 # 2 V ;.|.dX%XT.J.J.P.I.I.F.;.;.-.' ^ f f 9 0 ) #X5XdXfX5XdXcXcXcXxXxXxXxXxXxXhXsXpX=XhXgXyXwX X} 5 # &  .6XCXZXcXwX1X#X|.>X|.|.%X#X X X%X#X'.'.W.R._.I.;.~ _ * f ;.",
"I.I.I.P.'.].c.J.I.I.J.I.I.I._.P.I.I.I.I.I.R.Y.W.U.&. .` ` ` ` ` ` ` w.3.>.9 ..*.a # % # 7 4.p.'.'.'.OX].'.'.'.'.].o.s <.6.P.}.-X X'.|.|.I.I.J.W.I.I.I.I.I.I.L.f.f.I.G.0.U.I.P.I.I.I.I._.-XR.I.I.I.I.I.L.I.K.a.g.I ;.L.I.I.I.F.=.$.' Y d y # # # # # a Q 1.U.R.I.I.P.P.G.j.y.I.P.I.I.I.I.I.I.I.I.I.I.I.I.I.I.I.I.I.I.F.r.;.%.Q %.;.;.;.$.` ` ' / D / ` ` 0 # # 2 } I.yX6XP.I.I.I.I.I.I.F.;.;.$.` f d h i * a OXfX#XW.R.W.I.I.I.I.Y.l.p.9.J.I.J.I.J.I.I.I.P.K.F.' & # ( |.nXxX|.'.).oX'.'.'.'.].].'.'.J.I.'.'.'.W.G.;.' R h & ^ ;.",
"I.I.I.I.'.1X].I.I.I.I.I.I.}..XF.P.I.I.K.F.8.! >.S ` ` ` ` ` ` ` ` @.%. .` 8 $.>.>.6 # % ^ F.'.'.'.'.b.b.'.'.'.[.'.` T -.=.G.}.'.'.'.,XI.I.P.P.J.I.I.I.I.I.I.I.q.9.G.L.l.i.I.I.I.I.I.G.G.R.G.I.I.I.P.P.I.I.I.I.G.!.;.I.I.I.L.I.F.&.$.` d y # # # # # 7 >.4.I.I.I.I.I.I.I.G.I.I.I.I.I.I.L.I.I./.I.I.I.I.I.I.I.L.8.u.F.;.;.;.{ E ` ' $.;.&.' ` ` ` ] ` ` ^ & # # 9 ;.I.].U.I.I.I.I.I.P.F.;.*.$.` Y d d f p & 6 F.6XI.L.I.I.I.I.I.I.w.j.7.,.G.I.I.I.I.I.I.F.I.I.G.8.p # h I.dXtX'.'.'.'.}.'.'.'.].W.J.6.y.I.'._.I.f.1.' f Y d % ' ;.",
"I.I.I.I.'.%X'.P.I.I.I.I.I.I.I.F.T.G.F.;.-.{ Q ] ] ` ` ` ` ` ` ` ` @.{ >./ q ! >.,.A.1 1 &.I.'.'.'.'.).).'.}.'.'.'.I.S.-.;.oX].'.E.*X'.I.I.P.I.I.I.I.I.I.I.I.I.I.i.y.I.I.I.I._.I.I.I.2.,.G.I.I.I.I.I.I.P.I.I.I.I.!.R.!.I.G.x.G.I.;.&.@.f p % # # # # 1 &.;.I.W.I.I.I.I.I.I.I.I.I.I.I.G.x.G.I.I.I.I.I.I.I.I.I.L.! >.;.;.;.$.` ` ` ` ` ' @.$.$.` ` ` ` ` p % # & ` F.I.i.0.q.W.].I.F.r.;.&.' ` ^ d M M d d & &  .F.K.L.I.I.I.I.I.I.3.3.P.J.I.I.~.I.P.P.L.3.y.F.7.>.) 2 F C.iX8X'.'.'.'.'.'.].OXW.R.W.j.2./.I.I.F.1.} V d ^ 7 - Z.;.",
"I.I.I.I.'.'.I.I.I.I.I.I.G.F.F.S.Z.;.&.@.` / / >.>.1.` ( V ] ` @.$.$.{ ,.F g >.$.7 6 & h F.'.'.'.'.'.'.}.}.'.'.oXOX'.'.'./.].'.'.b.#XI.I.I.I.R.R.I.I.I.I.I.I.I.I.p.i.I.I.I.I.I.I.I.I.G.R.W.I.I.I.I.I.I.I.I.I.I.I.I.I.R.G.h.3.L.I.P.;.$.^ p % # # # $ ; $.;.G.!.I.I.I.I.I.I.I.I.I.I.I.L.y.L.I.I.Z.@XI.I.I.P.F.;.%.*.;.&.$.` ` ` ` ` ' ` ` ` F.I.' ` ` ^ 1 # # 1 &.F.I.I.9.! G.G.;.;.&.' ` ^ f d d M N d h >   / F.P.I.I.I.I.I.I.I.7.7.I.G.I.I.!.J.F.F.F.,.8.F.F.C.l.H H %. X X'.'.'.'.'.'.].W.G.Y.Q.).J.I.F.u.6.&.B n ^ h & 2 %.*.",
"I.I.I.I.'.'._.P.F.F.F.u.! 1.;.&.@.' ` ( ( V Z ] } >.` ( N / ` ` ,.{ ` ` f ^ I.$.1 # 1 7.]. X'.'.'.'.'.}.'.'.'.].].'.'.'.%X).'.Q.#X_.P.I.I.L.Y.R.I.I.P.I.I.I.I.I.I.I.I.I.I.I.I.I.I.I.W.R.Z.I.I.I.I.I.I.J.I.I.I.I.I.I.I.I.l.0.I.I.I.K.&.` f % # # # X l ' ;.F.F.I.I.I.I.I.I.I.I.I.I.I.I.I.I.P.G.f.j.I.I.F.N.;.4.6.*.$.' ` ` ` ` ` ` %.} '  .;.rX-.` / f % # # 1 &.F.F.;.;.&.&.$.@.' ` Y f f f f f f h h y * b B ;.F.I.I.I.I.I.I.I.I.P.G.G.G.u.F.6.7.w.L.P.I.I.I.I.p./ & } oX'.'.'.}.}. X'.I.P.L.Y.Y.W.I.F.8.5.} V d f ( 3 # 7 &.;.",
"I.I.I.I.I.I.F.;.;.;.;.&.} { ' ` ^ Y h f f d g h ^ ^ ` ` ` ` ` ` | ) ` ` d $..X .& # f 0. X'.'.'.'.}.}.'.'.'.'.'.'.}.}.'.Q.g.W.^.].I.7.G.I.G.h.q.I.P.P.I.I.I.I.I.I.I.I.I.I.I.I.I.I.I.@XJ.F.P.I.I.I.I.I.oXR.I.I.I.P.G.i.Y.J.I.I.I.I.I.;.` f $ X $ # $   / %.F.I.I.P.P.P.I.I.I.I.I.I.I.I.P.P.I.I.7.y.F.F.;.;.*.1.1.' ` ` ` ` ` ` ' *.' )  .$.}.tX;.) Z 5 # X k $ 3 p G } f f f f f h / f a a a y 8 7 1 * # # * p ` ' $.&.;.;.F.F.F.F.F.F.J.s.s.F.K.G.9.0.I.I.I.I.I.F.' & a F.'.'.'.'.'.@XJ.I.I.I.U.OX@XF.6.5.} V n f ^ p l X p ;.;.",
"I.I.I.F.N.;.;.-.&.4.4.` ` ^ Y f d d d d d d d d d f f Y ^ ` ` ` ` ` ` ` d  .*.^ # & ' F.'.'.'.'.'.'.}.'.'.%X}.}.}.}.}.}.'.Y.].'.I.G.2.9.I.I.y.G.I.G.U.I.I.I.I.I.I.I.I.I.I.I.I.I.I.I.I.I.I.I.I.I.I.I.I.J.I.I.I.I.P.7.0.E.T.^.I.I.p.G.&.` p   l X # # # B A 6.I.I.J.T.J.P.I.I.L.@XJ.I.I.P.P.P.F.F.F.;.;.;.&.$.' ` ` ` ` ` ` ` ` ' 4.*.F.'.8X9XF.&.` B $ #   X # # # & - # # % # # & C 2 # # # # # # # # # # # 1 d d d d ` &.u.F.F.P.I.^.OXOXI.I.I.I.i.2.I.I.I.I.P.F. .* - $.R.OX'.I.I.P.I.I.I.P.G.OXp.%.5.>.B d d ^ d & X $ h ;.;.",
"P.F.F.;.;.&.$.' ` { | Y f d d d d d d d d d d d d d d d f f f ^ $.4.{ ` 8 $.*.a C 0 &.F.'.'.'.'.'.'.'.'.'.*X|. X XOX X'.'.'.'./.P.I.G.G.I.I.I.I.I.R.E.G.Y.L.I.I.I.I.I.I.I.I.I.I.I.I.I.I.W.I.I.I.`.aXI.I.I.P.I.I.I.I.I.I.!.Q.I.I.p.6.{ | 1 # $ * # # # p %.;.;.F.F.!.F.F.F.F.F.G.F.F.F.N.;.;.U.6.;.-.;.$.` ` ` ` ` ( ` @.;.I.{.|.|.|. X'.F.;.$.' ^ 1 # @ @ # # # # # # # # # # # % * & & & * * * - 2 - & % # # 1 a f 8.` 8.Z.R.R.I.I.E.Y.I.I.I.I.I.I.I.I.I.P.F.F.=.` > # h q.oXR.G.G.G.R.E.i.h.6.q.OX9.l.V p d Y f * # # # ^ -.:.",
"F.;.;.;.$.' ` ` ^ f d d d d d d d d d d d d d d d d d d d d f ` .X4.( 7 5 $.$.1 ; 0 ;.I.'.'.'.'.'.'.'.'.'.}.}. X].@X'.'.].'.'.I.I.I.I.I.I.I.I.I.I.I.I.J.Y.I.I.I.I.I.I.I.I.I.L.I.I.I.I.I.).W.I.I.I._.I.I.I.P.I.I.I.I.I.I.I.I.I.P.F.&.} Z.- # $ V ; # # 7 &.;.;.;.;.;.;.;.;.Z.Z.;.;.;.;.;.;.;.OXq.;.&.6.$.` ` o.-.F.'.|.,X|.'.I.S.;.;.2.4. .' ` ^ 8 # # = @ # # & * 6 8 a f h ^ ` ' | { &.-.;.S.F.G.l.y.-.' p & # & 7 / ^ } X.8.Q.].E.+XoXG.G.R.R.W.J.L.F.F.;.$.' ^ ^ * # 1 2.l.p.G.G.U.Y.+X0.j.9.Z.sXsXc.>.d Y a & # # # & ' ;.:.",
"N.;.@.` ` ` Y f d d f d d d d d d d d d d d d g B R W f B V h h h 7 &   l B f # # 7 ;.F.I.'. X'.'.'.'.'.}. X X}.c.j.'.Q.k.W.I.P.I.I.I.I.I.I.I.Y.Y.I.I.I.L.G.}.[.R.c.I.I.I.Y.l.G.I.I.I.I.I.I.I.I.P.P.I.G.W.I.I.I.].].I.I.I.I.F.;.*.` B C $ # # ; ; # # & ^ ' o.$.&.&.;.;.;.6.*.;.;.).;.;.;.;.;.;.;.;.&.F.'.|.,X|.'.I.S.-.$.@.'  .$.$.{ ` ` 4.) 1 # # # # & 7 d ` &.F.I.'.|.6X9XtXpX3X2X4XxXvXbXMXMXbXMXcXiX|. .>   o * 7 f ` %.C.Y.=XsX*XOXoXE.R.J.;.-.@.` Y f d d d & # # 3 ^ ' $.$.$.{ | [ | 5.*XSXSX&Xl.>.V 5 = $ $ # b 7.;.;.",
"$.' ` ^ Y f d d d d d d d d d d d d d d d d d B A >.B p 5 5 1 = & # # # $ & & # # & h ;.F.I.%X].'.'.'.'.}.}. X}.].).'.].OXJ.I.I.I.G.q.I.L.G.L.J.J.I.I.I.I.R.W.I.Y.k.G.G.G.G.U.I.I.I.J.R.I.I.I.I.I.J.I.U.@XI.I.I.I.I.I.R.Y.;.%.+.^ 8 5 ;   # # 2 V # # # 1 f ` ` ` ' ' ' $.$.&.&.&.6.;.;.6.6.;.;.;.;.;.;.F.;.;.$.@.' ' ' ` ` ` ' ' @.' ` Y G 2 # # # # 8 ) >.c.tXgXvXMXMXZXZXZXZXNXfXfXfXMXMXMXMXvXvXvXbXMXMXgXP.g k $ # & 0 C./ 5.fXSXfXOXq.6.$.' Y f f d d d d a 1 # # # = ; > 7 8 y p p y p B w.;X;X>.B m V m 2 ; = $ 5 ;.;.;.",
"' ^ h f d d d d d d d d d d d d d d d d p y 7 1 2 2 # # % * 3 n V ` F p 1 2 C & # # % 7 ^ 4.y.F.I.I._.'.'.'.'.'.'.'.'.'.I.F.F.F.F.q.9.u.6.f.8.S.F.F.F.F.K.L.Y.U.R.U.Y.Y.G.I.I.I.I.I.R.@XI.F.F.F.F.oXU.F.F.F.I.F.F.F.S.6.4.` E N & = m : l   ; 5 = # # # # & 1 p f ^ ^ ` ` ` ` ` ' ' { { C.8.$.$.$.$.$.' ' ' ' ` ` ` ` ` ` '  . .' ( d 7 & # # # # # # V Q q.dXZXZXZXZXMXvXcXgXiXtXwX8X;X6X|.|.|. X}. X|.6XrXlXvX6X .8 % # % ; m ,.;XSX:X5.{ ^ h f a a p y 8 1 > % # & * # 5 5 #   2 2 % & & - B e.V w.H 2 2 * & # # $ # 8 ;.;.;.",
"f f d d d d d d d g B d d d d d a y 1 * & # # # & 1 y ^ $.I.>XqXpXgXiX9X XF.{ 9 * % # # # q q 8 a h  .$.N.F.F.F.F.F.S.-.$.@.' ' ' ` ` ' ' / ` ` ' ' ' $.&.;.y.OX#X#XOXG.F.F.F.F.S.;.;.;.&.$.@. .' ' ` ` ` ' Z.%.` ^ h a 7 * = ; # 2 V ; X $ 5 5 # # % & & % # % & & > 1 7 8 a d f f Q / ^ ^ ^ ^ ^ ^ ^ ^ Y Y h h h h f h j a 8 8 1 * % # # # # # # # # p } >XCXZXNXMXiX6X|.}.}.'.'.l.oX%X'.'.'.'.'.].Y.'.'.'.}.>X6X'.-.( 8 0 m V m H oX>.>.m 1 * & & & = = # # # # & a { G 8 8 p d / [ ` '  .%.w.5.%.9.l.6.;.$.^ 8 * # # y ;.;.;.",
"d d d d d d d d d B n d f f d 8 & # # o = & 1 p ' F.|.yXcXBXCXMXcXgXuXuXlXcXxXtX|.S.( i 1 & # # % & * * 1 7 8 a f f d d d d f f f f Y %.6.Y Y Y Y Y Y Y ^ ] 5.*XkX&X9.%.$.' ` ^ h f a 8 7 1 1 * & & & & & 1 l 5 1 * * & # # $ 5 2 m >.; 2 ; $ 1 a ^ ` ` ' ` ` ^ h d p 8 1 1 > * & & * & & & & & & & & & & & & % # % % * 6 6 9 7 8 a f h y 1 % # # # # 7 =.6XZXNX4XqX'.'.'.'.'.{.'.Y.Q.'.'.'.'.'.'.].oX'.'.'.|.1X'.I.F.;.1.,.g m 2 B H 5 5 5 ; & & & * b b q B f F >.$.*.j.6.F.I.I.I.'.]. X%X&X&X8XwXeXsXdXlXuX|.;.' 8 # 7 =.;.;.",
"d d d d d d d d f f f d y 1 & # # # $ k B &.'.wXlXMXCXbXiX9X|.'.I.I.I.P.I._.}.6XwXiXgXiXwX}.N.( p - * % & # # # % & * > 1 1 7 7 7 7 8 y p 8 8 y 8 8 y y y p 9.OXqX*XV 0 1 * & & % # # # # # # * # # # 2 2 2 2 1 1 - ; ; 2 5 5 m >.w.OXV H 2 9 $.;.F.'.8X8X6X,X|.'._.I.P.6.;.;.&.$. .' ` ^ h h f f d a a f f h ^ `  .&.;.F.F.P.P.I.I.F.;.' I 3 # # # $ N 5.yXZXZXpX'.'.'.'.'.'.'.'.'.'.'.'.l.p.'.'.'.a.).W.Q.'. X'.'.I.F.6.%. .8 * q m * $ = m / ` ' -.F.J.OX#X7XqX2XpXiXdXxXvXbXMXMXBXBXNXmXfXjXZXZXZXmXmXCXMXyX_.N.&.g * ' ;.;.",
"d d f f f h h d a 7 > % # # % * 7 ^ F.6XgXMXMXbXgXwX|._.I.P.P.I.I.I.I.I.I.I.I.F.G.I.I.'.6XwXuXgXyX8X_.$.h 7 - 1 $ & # # # # # # # # # # # # # * B * # # # ; m m m >.V $ # # # # # # # # # # * H 6 & * G G ,.n 2 * > 1 2 5 m V e.&XSXkXe.H 5 g ;.;./.8XBXZXCXCXMXMXMXbXcX=X4XgXiXyXtXrXwX9X9X9X9X9XwXwXrXtXtXtXuXyXuXuXuXtX8X}.'.'.'.F.;.$.I y # # # # q %.aXMXxX|.'.'.'.'.'.'.'.'.'.'.'.'.Y.E.'.'.'.b.).R.oX'.'.'.'.'.I.P.F.;.$.9 5 2 # $ B f.oX8XiXcXMXBXCXZXZXZXCXmXMXbXhXcXxXlXgXiXuXeXwX2X2X9X9X9X0X1X7X|.'.'.I.;.&.f 7  .;.",
"Y Y f a 8 1 * & # # # * 7 f &.}.yXbXZXMXlXrX>X'.I.K.P.P.I.I.P.I.I.I.I.I.I.I.I.G.f.i.I.K.I.I.I.'.}.,X8XrX9X|.8.C.1 $ # # # # # # # # # # # # # * B 0 J # = 2 ; $ ; $ 5 = # & & > 1 7 8 p a h F ) ) ' ' $.;.6.%.&.&.&.&.$.' ` F B w.kX;Xe.>.V V 4.8.9.l.7X9X9X9X8X8X6X6X6X1X0XrXiXxXbXBXZXZXZXZXZXZXZXZXMXlXtX9X6X>X X{.'.'.I.I.I.I.I.F.;.&.I y % # # # 9 ;.7XfX-X'.'.'.}.}.'.l.l.'.'.'.'.'.'.'.'.'.'.'.'.'.'.'.'.'.'.'.'.P.P.F.;.( 2 * # 7 } z.bXZXZXZXCXcXdXiXyXwX9X6X,X|.g.Q.}.}.}.}.'.].].].@X'.'.'.].].].'.'.'.'.I.;.&.p 1 ^ ",
"1 > & # # # # # # & f &.'.yXvXbXlXtX6X'.I.I.P.I.P.I.I.I.I.I.I.I.I.I.I.I.I.I.I.G.y.G.I.P.I.I.J.I.P.P.J.I.I.J.Y.{ 0 * # # # # # # # # # # # # # # # * 2 * - 1 1 7 p a F / ) '  .$.$.&.&.;.;.;.;.;.;.;.F.F.I.I.P.P.I.P.P.K.F.F.8.9.9.*Xe.5 = G C 0 { 4.9.'.'.}.'.'.'.'.'.'.'.'.'.'.}.]. X9XyXcXCXZXZXMXtX|.'.I.I.I.P.P.I.I.P.I.I.I.I.I.L.F.&.^ y # # # # 8 ;.7XwX'.'.}.}. X}.}.E.Q.'.'.'.'.'.'.'.'.W.'.'.'.'.'.'.'.'.'._.I.I.K.F.;.` 1 & # ^ I.nXZXZXBXgX6XE.j.].'.'.'.'.'.'.W.'. X|.|. X X'.'. X#X'.'.'.'.'.].'.c.Q.'.'.F.;.$.1 # ",
";.F.N.h * # # # # 0 ;.'.rX9X|.'.I.P.F.P.I.I.I.I.I.I.L.I.I.I.I.I.I.I.I.L.G.F.I.I.I.I.I.P.P.G.h.G.I.I.I.G.U.i.OX<.2 # # # # # # # - q & & * 1 8 p a f [ )  .$.&.*.;.;.;.;.;.;.;.;.*.;.J.G.;.;.;.F.F.P.I.I.P.I.I.I.I.I.I.I.I.J.U.6.7.OX} m $ $ k   1  .;.F._.'.'.I.I.I.I.I._._.'.'.'.l.0.'.'.}.iXBXcX>XI.I.I.I.I.I.I.I.I.I.I.I.I.I.I.L.I.F.&.I 8 # # # # a ;.'.}.'.}. X X X}.'.'.'.'.'.'.'.'.'.'.].OX'.'.'.'.'._.I.I.I.P.P.F.C.;.$.f & # * $.>XCXZXMXwX{.'.'.'.'.'.'.'.'.'.'.'.}. X|.}.'.'.'.'.'.%X@X'.'.'.'.'.'.OX].'.'.I.F.;.` & ",
"MXMXMXtX` & # # # n 1.F.I.I.P.I.I.I.I.I.I.I.I.I.I.I.G.J.G.p.G.I.I.I.I.c.&X_.I.I.I.I.I.I.I.L.7.G.F.F.;.$.^ H -XZ.5 = # # # # % 1 g { '  .&.;.S.N.F.6.j.F.F.F.F.Z.T.'.;.%.! 4.;.5.,.;.F.u.F.F.P.I.I.I.I.I.I.I.I.I.I.I.I.I.I.I.I.P.i.0.*.{ 5 $ o $ # 1  .N.F.P.I.I.I.I.P.P.I.I.I.I.J.J.W.'.'.'.}.7X}.I.I.I.I.I.I.I.I.I.I.I.I.I.I.I.I.P.F.S.' I 3 # # # # h F.I.'.'.}.|.}.}.'.'.'.'.'.'.'.'.'.'.'. X].I.I.I.I.I.P.P.I.I.P.F.;.;.$.^ s % # 7 &.9XZXcX6X'.'.'.'.'.'.'.'.'.'.'.'.'.}.|.}.'.'.'.'.'.'.'.].'.'.'.'.'.'.'.'.'.'.I.P.S.&.8 ",
"ZXZXbX9X;.1 # # # 2 $.N.I.I.I.I.W.I.I.I.P.P.I.I.I.R.@XQ.U.2.G.I.I.I.I.G..X_.P.I.P.I.I.I.P.F.S.-.o.^ a 1 = 5 B m ; ; $ # * 8 ' ;.F.F.F.I.I.I.I.I.I.F.F.i.p.I.I.J.C.9XF.%.Q %.;.>.L ;.F.K.I.P.P.I.I.I.'.I.I.I.P.I.I.I.I.I.I.I.I.I.Y.p.;.;.' - # # # & 6 ' ;.;.F.P.I.P.P.P.I.I.I.9.2.K.P.I.I.'.'.'.I.P.I.I.P.P.I.I.P.I.P.I.I.I.I.P.F.F.-.` R I 3 # # # # ^ F.I.'.}.}.'.'.I.I.I.I.I.I.I.I.I.I.I.P.).W.P.P.P.I.T.I.I.I.7.6.&.$.` I I y % # d ;.8XxX|.%X%X'.'.'.'.'.}.'.'.'.'.'.}. X}.'.'.'.'.}.'.U.T.'.'.'.'.'.'.'.'.'.'.'.I.I.F.;.` ",
"CXyX X%XF.i # # & 6  .;.P.I.I.I.@XW.I.I.I.I.I.I.I.R.&X%XG.F.P.I.I.I.I.I.I.I.I.I.I.I.F.S.$.` ^ I s 1 % $ = * * 2 $ # * a $.F.F.P.P.I.I.I./.I.I.I.P.F.r.y.i.I.I.I.;.eX X*.;.;.;.;.6.F.I.I.I.I.I.I.I.I.8X`.I.I.I.I.I.I.I.P.I.I.I.I.W.R.J.;.;.` & # % * * - h -.;.F.P.P.P.P.I.I.I.7.9.I.I.P.P._.'.'.I.I.I.I.I.I.I.I.I.I.I.I.I.K.F.;.$._ I t z I 3 # # # 2 1.F.I.'.}.'.I.I.P.P.P.P.P.I.I.I.I.I.I.I.I.I.I.I.I.J.@XG.K.u.A [ ^ I I I I 3 # # ^ ;.}.}.'.'.'.'.'.'.'.'.}.'.'.'.'. X X}.}.'.'.'.'.'.'.l.Y.'.}.'.'.'.'.'.'.'.'.I.I.I.I.F.&.",
"tXI.P.F.F.a # # j V.' ;.I.I.I.I.I.I.I.I.I.I.I.I.L.G.R.R.G.G.I.P.P.P.P.P.P.P.P.F.F.=.` Y I I I y & # # # # # # = * p $.F.P.P.I.P.I.I.I.I.I.I.I.I.I.F.$.F.I.I.I.I.r.wX9X;.;.;.;.F.L.I.I.I.I.I.I.I.I.I.I.I.I.I.I.P.F.F.F.F.P.I.I.I.^.W.%XF.;.;.h % * * > & % f &.;.N.P.P.P.I.I.I.I.I.I.I.I.P._.'.I.P.I.I.I.I.I.I.I.I.P.F.F.;.@._ I s e e e r d 3 # # # = } F.I.'._.I.I.I.I.I.I.I.I.I.I.I.I.I.I.I.I.I.P.P.F.F.F.F.;.;.%.;.;.o.^ I I > # & ' ;.P.I.'.'.'.'.}.'.'.}.'.'.'.'. X}.|.}.'.'.'.}.'.'.'.'.'.'.'.'.'.}.}.'.'.'.I.I.I.I.I.F.;.",
"6XP.I.P.F.h # # & * B y.F.I.I.I.I.I.I.I.I.I.I.P.F.F.6.;.;.C.;.N.;.N.F.F.F.F.1.0.o.T _ _ Y N b % # # # # # # # 8 ' ;.K.I.I.I.I.I.E.U.I.I.I.K.P.I.I.G.D 4.I.I.P.I.S.9XiX).;.;.F.I.I.I.I.^.J.I.I.I.I.I.I.I.I.I.F.-.o.` ` D._.I.I.L.J.I.I.I.F.*.&.h 1 & # # # # p &.;.F.P.I.I.I.I.I.I.I.I.I.I.'.'.I.I.I.I.I.I.I.P.F.F.;.o.^ d u e r r w r r r d y # # # & ` N.I.I.I.I.P.I.I.I.P.I.I.I.I.I.I.P.F.F.F.F.;.;.;.y.9.u.F.F.I.I.P.F.o.I d % # &  .;.I.I.'.'.'.'.}.'.'.'.'.'.}. X X#X X}.'.'.'.'.'.'.'.'.'.'.'.'.'.}.}.}.'.I.I.I.I.I.I.P.;.",
">XP.I.P.F.^ % # # # 5 Q $.;.;.r.r.r.;.;.=.$.@.' ` ` _ _ ] w.^ Y Y ^ _ ^ Y s Q G.=.@._ I I 5 = # # # # # # 1 ^ &.F.K.I.I.I.I.I.I.W.W.I.I.I.I.I.I.P.y.D +.I.P.I.I.N.7XcXF.;.F.I.I.P.I.I.J.J.I.I.I.I.I.I.I.I.F.@.` ` _ $.wX'.I.I.G.G.I.I.I.P.N.;.;.h & # # # # # 8 $.1.3.G.I.I.I.I.I.I.I.I.I.'.I.I.I.I.I.P.P.F.;.&.' Y d u e e e e r r r r r d 8 # # # # ( C.I.I.U.2.G.I.I.I.I.I.I.P.F.F.F.;.;.;.S.F.F.F.L.Y.f.q.I.'.'.I.P.F.@.I 8 # # 1 $.,.9.I.'.'.'.}.}.'.'.'.}.'. X}. X%X X'.'.'.'.}.}.'.'.'.'.'.'.'.'.'.'._.I.P.I.I.I.I.I.P.F.",
"{.P.I.P.;.` * # # % * 1 7 y y s d d f I I I I I U u w < s R s s s s s u u y o.F.&.-.` I y # # # # # # # 8  .;.F.I.I.I.I.I.I.I.I.I./.I.I.I.I.P.P.I.F.@.o.K.I.I.I.;.6XMXF.F.P.I.I.I.I.I.I.I.I.L.w.7.I.I.L.F.o._ _ ` 9.2X9XI.I.I.L.G.I.I.P.I.I.F.;.N.h % # # # # # 7 } >.F.P.I.I.I.I.I.I.P.I./.P.I.I.I.I.F.N.&.' I s u r w r E 1.t r r w w e U 1 # # % & Y N.I.I.G.2.G.I.I.I.I.P.'..XF.F.F.F.P.P.L.G.L.p.p.I.W.'.'.'.'.I.I.F.` I > # # 7 %.5.7.F.I.'.'.'.'.'.'.'. X|. X}.}.'.'.'.'.}.}.'.'.'.'.'.'.'.'.'.'.'.I.I.I.I.I.I.I.I.I.I.F.",
"'.I.I.F.-._ 1 # # * 7 7 * & & & & & & * 1 3 8 , + . < U _ Y ' $.$.$.&.&.=.-.;.*.*.o.I y % # # # # # & f &.;.F.P.P.I.I.I.I.I.I.I.I.I.'.I.I.I.I.F.;.$.=.S.P.I.I.I.;.6XBXI.F.I.I.I.I.I.I.I.I.I.L.2.7.I.J.F.o.` o.K.wXeX%XI.P.I.I.P.I.I.I.I.I.I.I.F.;.;.h 2 ; # # # # 1 ' ;.F.P.I.I.I.I.I.I._.I.I.I.I.P.F.;.' Y U u r r r r e E 1.t r r w r s t & # % 1 * i &.F.I.I.I.I.I.I.I.I.P._.[.I.I.P.I.P.I.i.f.J.W.Q.'.'.'.'.'.I.I.F.$.I y X X # a ;.F.I.q.j.G.I.I.'.'.{.}.}.}.}.}.'.'.'.'.'.}.'.'.'.'.'.'.'._.I.I.I.I.I.I.I.I.I.I.I.I.I.I.F.",
"I.I.F.;.$.I 7 # * ( aXrX6X}._.P.S.-. .h y * # #   % 3 8 p d I ' $.&.*.;.;.;.-.&.' I d & # # # # # # a *.;.F.I.I.I.I.I.I.I.I.I.I.I.W.#XI.P.F.;.=.;.F.I.I.I.I.I.P.;.6XVX/.F.I.I.I.I.G.G.I.I.I.I.I.I.I.I.D.D.>XyXiX6XI.P.I.I.I.I.I.I.I._.I.I.I.I.F.;.;.;. XH # # # # # 1 ' ;.F.P.I.I.I.P.I.I.I.I.P.F.;.$._ I s e w r r w r w r e e e u e y 7 l X * & * * 1 _ S.P.I.P.I.P.I.I.I.I.P.P.F.F.F.F.F.I.I.W.'.'.'.'.'.'.'.I.P.F.$.I I 1 k k # F ;.I.I.G.q.G.P.P.P.I.I.'.}.}.'.'.'.'.'.'.'.'.'._.I.I.I.I.I.P.P.I.I.I.I.I.I.I.I.I.I.I.I.I.I.",
"I.P.N.*._ R 8 * 1 ~.xXtX9X6X,X>X|.|. X'.P.$.d 1 & # # % % & * 1 y d ^ ` o.o.` ^ I I > # # # # # # 8 &.;.F.I.I.I.I.I.I.I.'.I.I.I.I.I.W.F.r.r.F.F.I.I.P.I.P.W.].P.;.6XZX'.F.I.I.I.L.2.2.I.I.I.I.I.I.P.I.wXtX7X{.I.P.I.I.I.I.F.F.F.F.F.P.I.I.I.I.P.F.;.;.F.^ % # # # # # > ) ;.F.I.I.P.I.I.I.P.F.;.=.' Y U u w w w r e e u u s u y y 3 & % * g ' h 1 > & # s $.F.I.I.I.P.F.F.F.S.;.;.;.F.F.I._.'.'.'.'.'.'.'.'.'.I.P.F.o.I I y #   $ &  .G.%XI.G.G.I.I.I.I.P.P.I.I.I.I.I.I.I.I.I.I.I.I.I.P.P.R.@XI.I.I.I.I.I.I.I.I.I.P.I.I.I.I.I.P.",
"K.F.;.{ } 8.a * 6 ;.I.F.F.F.S.;.;.=.$.o.' ^ f s 8 & # # # % % # # j j > 1 3 y y y 1 # # # # # # % ` ;.K.I.I.I.I.I.I.I.I.I.I.I.I.L.F.;.S.F.P.I.I.I.I.I.I.P.I.I.P.;.7XZX'.;.P.I.I.I.G.G.P.I.I.I.I.I.I.I.I.L.K.P.I.I.I.I.I.P.I.t.o.o.@.=.'.I.I.I.I.I.F.;.;.&.p % # # # # # * ` ;.F.P.P.I.I.F.r.;.$.^ I d u u u u s s y y 3 1 > & * 1 a  .I.7XyXyXF.h & # # 1 I @.;.=.$.@.' @.;.;.F.F.P.I.I.'.'.'.'.'.}.'.'.'.I.P.F.;.` I I y & # # # 6 &.F.W.I.Y.G.I.G.2.G.I.I.I.I.I.I.I.P.P.I.I.I.I.I.I.I.I.I.W.I.P.I.I.I.I.I.I.I.I.I.P.I.I.I.I.I.",
"P.F.' ^ 4.4.8 * * d _ _ _ _ Y I d p y 3 1 > * * 1 7 p h h ^ ^ h a j j %   # % # # # # # $ n = # * $.F.I.I.I.I.I.I.I.I.I.I.I.I.J.;.;.F.G.G.I.I.I.I.I.I.I.I.P.I.F.;.9XZX}.;.F.I.I.I.I.I.P.I.I.I.I.I.I.I.G.! 9.P.I.I.I.I.I.I./.7XwX9XwXrX8XK.I.I.I.I.I.F.;.;.` 8 # # # # # # * Y -.F.F.F.N.$.' _ I I I d d s y 3 > * & # 9 ( -.~.|.6X7X6X,X X'.I.S.$.1 # # % 8 d I I I I I _ o.&.;.F.F.F.P.I.I.I.I.'._._.I.I.F.;.o.Y I f 7 % # # # 1 ~.C.F.y.U.Y.R.I.G.,.G.I.I.I.I.I.I.I.I.I.I.I.I.I.I.I.I.I.I.I.I.I.L.7.G.I.I.I.I.I.I.P.I.I.I.I.I.",
"-.` I f f 7 1 % # & 1 1 1 > * * & * 1 7 a h `  .$.;.;.F.F.I.'.}.|.}.F.' f 7 & # # # # # # = & # * ;.I.I.I.I.I.I.I.I.I.I.I.L.G.R.4.6.I.0.p.I.I.I.I.I.I.I.I.P.I.F.;.rXZX>X;.F.I.I.I.I.I.P.I.I.I.I.I.I.I.L.7.G.0.0.G.I.P.F.r.;.D.I.'.}.}.I.I.I.I.I.G.W.T.6.;.@.I 3 # # # # # # * f ` ` ' ^ Y I d p 8 3 > & % # # # # # &  .6XlXxXwX6X|. X{.'.I.F.;.;.d # # # # & > 1 3 8 y p s d I ^ ^ ` ' o.@.=.-.-.;.-.$.o.' ^ I d y > # # # # # & %.7.G.j.l.OXR.I.I.G.G.G.L.I.I.I.I.I.I.I.I.I.I.I.I.I.I.I.I.I.P.P.G.0.R.I./.I.I.I.I.I.I.I.I.I.I.",
"8 1 & % & > * 1 1 7 7 7 8 p h ^ ' $.;.F.P.I.{.>X9XtXiXxXbXMXMXMXbXvXlX'.;.&.' a * # # # # # # # & ' F.I.I.I.I.I.I.I.P.I.I.I.J.@X#X6.I.G.I.W.%XI.I.L.G.I.I.I.I.F.;.yXZX6X;.F.I.I.I.I.I.I.I.I.I.I.I.I.I.I.I.J.c.! y.I.F.o._ _ ` o.;.F.P.P.I.I.I.J.Y.OX%XW.6.&.Y f > # # # # # # > y i y 8 1 & % # # # # # # # # # # # # # > a  .$.-.&.&.;.;.-.-.&.&.a # # # # # # # # # # # % & 0 X.1 1 8 8 p I f I f d d d p y 3 & # # # # # # # % ` 6.Y.oXE.*XR.U.Y.Y.G.I.I.I.I.I.I.I.I.I.I.I.I.I.I.I.I.I.I.F.F.F.P.L.I.I.I.I.I.I.I.I.G.P.I.I.I.",
"1 8 a h `  .$.$.&.;.;.r.F.L./.|.7XrXiXlXcXcXcXxXiXyXwX8X6X,X X'._._.I.P.F.;.;.&.' 8 # # # # # # # p ;.P.I.I.I.I.I.I.I.I.I.I.R.Q.7.6.G.I.I.I.J.I.I.i.s.G.I.I.P.F.N.cXAX9X;.F.F.I.I.I.I.I.I.I.I.I.I.I.I.I.I.I.I.F.P.I.K.$._ ` ` _ ;.'.F.I.I.I.G.G.oXsXdX%XG.%.^ I y % # # # # & & > & * % # # # # # # % & & * * * 1 1 1 1 * * * & & * * > 1 7 7 7 1 % # # # # # # # # # # # # # & * # # # % * * > & & & & & % # # # # # # # # # # *  .;.R.OX;XfX&XOXY.G.P.I.I.I.I.I.I.I.I.I.I.I.I.I.I.I.K.F.F.F.F.P.I.I./.I.I.I.I.I.I.I.].I.I.I.I.",
";.S.F.F.F.F.K.I.'.|.7XtXiXgXxXxXgXyX9X6X|.'./.I.P.P.I.I.I.I.I.I.I.I.I.I.P.P.F.;.-.&.a & # # # # # & ' F.I.I.I.I.I.I.I.P.i.G.I.F.{ =.G.I.I.I.I.I.I.I.G.I.I.I.I.;.I.MXZXtX;.;.F.I.I.I.I.I.I.I.I.I.I.I.I.I.I.I.I.P.I.I.I.'.-._ ` _ /.|.F.I.I.I.G.G.oX:XsXOXG.-.I I d & # # # # & * * & % & > 1 7 p f h ( '  . .$.$.&.&.&.&.$.$.$. .` h a 1 & # # # # # # # # % & 1 1 6 6 1 1 1 * & # # # # * > > & # # # # # # # # & 1 a `  .a # # * $.;.G.OXfXSX;XR.I.P.P.I.I.I.I.I.I.I.I.I.I.I.I.P.F.F.F.F.F.I.I.I.I.I.I.I.I.I.I.I.I.I.I.P.I.I.I.",
"_.{.>X9XtXiXxXbXMXMXdX0X|.'.'.I.I.P.F.L.L.K.P.P.I.J.W._.I.I.I.I.I.I.I.I.P.P.I.u.-.-.;.h % # # # #   7 ;.K.I.I.I.I.I.I.P.p.Y.I.F.' $.P.I.I.I.I.I.I.I.I.I.I.I.I.;.}.ZXZXvXP.;.;.P.I.I.I.I.I.I.I.I.I.I.I.I.I.I.I.P.I.I.P.I.{.K.O.o.8X'.I.I.I.I.L.G.U.Y.p.4.} A.I p 3 # # # # & * 1 9 a ( ' $.&.;.;.;.F.F.6.f.R._.'.{. X X X}.'.I.F.F.F.N.&.` 1 # # # # # # y `  .&.;.S.F.F.S.;.$.' F p 1 * * & & # # # % 1 9 a ` N.}.rXiXwX'.' & # 1 $.7.oXOX&X;X*XOXR.I.I.I.I.I.I.I.I.I.I.I.I.K.F.S.F.F.P.I.I.I.P.I.I.I.I.I.I.I.I.I.I.P.I.P.I.I.P.",
"MXMXZXZXZXZXZXZXZXxXj.9.P.P.P.I.I.I.I.I.I.I.I.I.I.Q.%X'.I.I.I.I.I.I.I.I.I.I.I.y.;.;.-.&.a # # # # # & ( F.I.I.I.I.I.I.I.I.I.I.F.` @.P.I.I.I.I.I.I.I.I.I.I.I.P.F.tXZXZXZXgXP.;.F.I.I.I.I.I.I.I.I.I.I.I.I.I.I.I.I.I.I.I.I.I.}.,X7XwXI.I.I.P.F.F.;.%.+./ g 8 1 & # # # # # & 9 h  .&.;.;.F.P._. X6X9XwXtXwXm.$XuXuXuXiXiXiXuXuXyX8XI.P.P.F.&.h % # # # # a &.N.'.7XwXtXtXtXtXrX9X7X,X'.I.;.^ 7 % # # f $.F.}.wXxXMXxX8X'.I.F.I % # 1 4.q.R.G.E.OXG.Y.Y.R.|..XI.I.I.I.I.I.%XG.S.;.S.F.I.I.I.I.I.I.I.I.I.I.I.I.I.I.I.I.I.P.P.P.I.F.;.",
"gXuXyXgXZXZXZXZXZXuXG.L.I.I.I.I.I.I.I.I.I.I.I.P.I.-X-XI.I.I.I.I.P.I.I.I.I.I.F.;.;.;.;.;.$.3 # # # # # 7 &.F.I.I.I.I.I.I.I.I.I.F.o.@.P.P.I.P.I.I.I.I.I.I.I.I.P.I.vXZXZXZXZXxX_.;.K.I.I.I.I.I.I.I.I.I.I.I.I.I.I.I.I.I.I.I.I.K.I.|.I.I.P.F.S.;.{ _ I p 1 & # # # # # # & 8 ' ;.;.;.F.I.|.9XtXyXiXiXiXiXiXiXeXeXuXuXuXuXuXuXuXuXuXiX XF.I.F.$.f # # # # *  .;.>XtX9X6X6X,X,X>X>X>X6X6X8XtXtXwX}.&.p & 7 ( I.8X9X9X6X/.P.I.P.&.I 1 $ =  .;.L.I.Y.Y.I.I.R.R.#X].I.I.I.P.F.F.F.;.F.F.I.I.I.I.I.I.I.I.I.I.I.I.I.I.I.I.I.P.P.I.I.K.S.@.I ",
"I.I.I.I.yXZXZXZXZXcX/.I.I.P.P.I.I.I.I.I.I.I.I.I.I.I.I.I.I.I.I.I.P.I.I.I.P.F.;.;.;.;.;.;.;.` % # # # # % ^ F.I.I.I.I.I.I.I.P.F.r.o.$.P.P.I.I.I.I.I.I.I.I.P.I.I.uXZXBXBXZXZXZXbX6XF.F.P.I.I.I.I.I.I.I.I.I.I.I.I.I.P.I.I.I.I.I.P.K.F.F.;.=.o./ D t 1 % # # # # # # * p ' ;.N.P.'.|.9XyXiXiXiXiXiXuXuXuXiXiXiXiXiXiXiXiXiXiXiXiXiXuX'.P.I.F. .8 # # # # 7 &.F. X}.'.'.'.'.'.'.'.'.'.}.|.|.6XrXuXyX8XI.( 7 B [ ^ @.$.;.;.S.F.;.' s & # ^ ;.F.I.U.U.I.I.I.L.c.a.K.F.F.;.;.;.F.F.P.I.I.I.I.I.I.I./.I.I.I.I.I.P.P.P.P.K.P.F.r.$.` s 3 p ",
"I.I.I.I.'.xXZXZXZXBX|.K.I.P.P.I.I.I.I.I.I.P.I.I.I.I.I.I.I.I.I.I.I.I.I.I.F.;.;.;.;.;.;.;.;.&.i # # # # # 6 &.F.P.I.I.I.K.F.;.=.=.r.F.I.I.I.I.I.I.I.I.I.P.I.6XlXvXwX|.'.8XgXMXZXZXyXI.;.F.P.I.I.I.I.I.I.I.I.I.I.I.G.I.I.I.I.I.P.F.;.=.' ^ I f 5 $ # # # # # # 1 B.$.;.F.I.|.9XuXiXiXuXtX9X9XwXrXyXyXyXiXiXiXiXiXiXiXuXuXuXiXuXuXwXI.I.P.;.` 1 # # # # y ;.I.'.'.'.'.'.'.'.'.'.|.}. X}.}.'.'.|.9XyXgXyX,Xx.Q 1 > 3 y I _ ' -.-.` y # 8 &.;.K.R.J.I.I.I.I.L.F.;.;.;.;.F.P.I.I.I.I.I.I.I.I.I.I./.I.I.I.G.F.F.S.;.-.$.o.^ d 3 & # a ;.",
"I.I.I.I.P.>XMXZXZXZXwXF.I.I.I.I.I.I.I.I.I.I.I.I.I.I.I.I.I.I.I.I.I.I.P.F.;.;.;.;.;.;.;.;.;.;.' > # # # # % h ;.F.I.I.F.S.r.F.K.P.I.P.I.I.I.I.I.I.I.I.I.|.yXtX{.;.' ` ' $.;.'.wXvXZXcX6X6.;.F.K.I.I.I.I.I.G.G.G.R.I.I.I.I.P.F.S.;.$._ n N s > # # # # # # % 8  .`.P.I.,XtXuXiXuXuXrX>X_.I.I.I.I./.'.'.|.>X6X8XwXtXyXyXuXuXiXuXrX'.P.I.F.&.^ & # # # # a ;.'.'.'.'.'.'.'.'.}.}.}.|. X}.}.}.'.'.'. X7XyXuXqXqX|.;.h 7 > 1 y d ^ ' I 3 & F ;.S.G.G.P.P.F.F.;.&.=.;.u.x.L.I.I.I.I.I.I.I.I.I.I.I.I.S.;.;.7.@.` _ Y I s 8 > & # # # ^ ;.",
"I.I.I.I.I.I.wXZXZXZXcXI.I.I.I.I.I.I.I.I.I.I.I.I.I.I.I.I.I.P.P.I.I.P.F.;.;.;.;.;.;.;.;.;.;.;.&.d % # # # # > @.F.I.I.P.K.I.I.I.I.I.I.I.I.I.I.I.P.I.'.8X0Xh.{ I U u u u s Y ' &.F.6XpXmXpXI.;.;.F.P.I.P.I.L.Q.&XQ.L.I.I.I.F.;.&.' Y I ~ M & # # # # # % 1 ` ;.N.I.6XyXiXiXiXyXwX|.I.P.I.I.I.I.I.I.I.P.K.P.K.P.I.I./.'. X>X6X|.I.P.I.I.F.' h & # # # # f F.'.'.'.'.'.'.'.'. X|.|.}.}.'.'.'.'.'.'.'.'.}.6XrXuXiXyX9X}.-.f 1 * > 3 y y % * ` ;.6.F.F.;.&.@.$.;.F.P.G.c.W.I.I.I.I.P.F.F.N.;.;.-.@.` Y I s u s s y 1 # # & 1 8 & # ' ;.",
"P.I.I.I.I.I.I.lXZXZXMX XP.I.I.I.I.L.c.U.I.I.I.I.I.I.I.I.I.P.I.P.F.;.;.;.;.;.;.;.;.;.;.;.;.;.;.' 3 # # # # # p &.F.I.I.I.I.I.I.I.P.I.I.I.I.P.P.P.'. XK.@.B s e w r w w w r u I $..XU.&XqXpX6X;.;.;.F.K.I.L.R.&XQ.G.P.F.F.;.o.^ I I I R 1 # # # # # & h $.F.I.6XtXiXiXiXyX7X'.I.I.I.I.P.I.I.P.P.P.P.I.I.I.I.I.I.P.L.I.I.L.I.P.P.I.I.P.;.` h % # # # # h F.'.'.'.'.'.'.'.'.'. X}.}.'.'.%X|.'.}.}.}.}.'.'.}.,XwXuXiXuXtX8X'.&.h 7 * # # # * d ' $.$.` ` &.F.P.I.I.I.].%XP.I.F.F.;.-.@.` Y d s u r e u y y 1 & # & i  .;.;.&.7 &  .;.",
"I.I.I.I.I.I.I.|.MXZXZXrXI.I.I.I.I.I.p.R.I.I.I.I.I.I.I.I.P.P.K.F.;.;.;.;.;.;.;.;.;.;.-.*.*.*.;.$.f * # # # # % p _ @.$.-.;.;.;.;.;.;.;.-.-.&.$.$.$.` U u r r e e r e e u u u u U ' +.i.%.;.K.o._ ` ' $.;.r.y.y.F.u.;.$.' ^ I I I I d > # # # # # 1 ` ;.F.'.9XiXgXiXtX6X'.I.I.I.I.I.I.I.I.P.P.I.I.I.I.I.I.I.I.I.G.G.I.I.I.I.I.I.I.I.F.$.` Y & # # # # h F.'.'.'.'.'.'.}.'.}.}.}.'.'.'.%X|.'.'.'.}.'.'.'.'.'.'.|.wXuXuXuXuXtX7X'.;.h 7 * % % 1 s I Y $.;.F.P.I.I.I.P.P.F.F.;.o.^ d u e r r e e y y 1 & & 1 a &.'.6X XI.;.;.8 1 &.;.",
"I.P.I.I.I.I.I.I.9XZXZXvX'.I.I.I.I./.I.I.I.I.P.I.I.I.I.I.L.F.;.;.;.;.;.;.-.$.@.o.' _ =.6X|.;.;.-._ y % # # # # & y I I I I I Y Y Y I I I d d s p d y 8 3 3 3 3 1 1 1 1 3 1 1 3 3 3 8 8 0 y y p s d f I I ^ _ _ _ _ ^ I I I I I I y * # # # # # 7 Z.P.K.,XyXiXuXwX|.I.K.P.I.I.I.I.I.I.I.I.I.I.I.I.I.I.I.I.I.I.I.0.2.I.I.I.L.G.P.F.F.;.' ` ^ & # # # # ^ F.'.'.'.'.'.%X X'.}.}.'.}.'.'.'.'.'.'.'.'.'.'.'.'.'.'.'.}.tXiXtXuXiXiXiXtX6XI.&.Y p > & > y Y ' -.F.F.F.F.F.;.&.` d e r w w e u u y 3 & # * a -.|.uXuX,XI.F.;.-.;.8 6 &.;.",
"'.I.P.I.I.I.I.I.I.gXZXZX8XF.I.I.P.I.I.I.I.I.I.I.I.I.I.i.s.;.;.;.;.;.;.&.}.|.r.=.D.>XlXCXxXF.;.;._ I 1 # # # # # % 3 p d p y 8 3 1 > * & & & % % & & # # # # # # # # # # # # # # # # # # # % % & & 1 1 1 1 3 8 8 y y y y y 8 3 * % * 1 # # # *  .J.I.6XyXrX6X'.I.I.P.I.I.I.I.I.I.I.I.I.I.I.I.I.I.I.I.I.P.I.I.I.W.G.I.P.K.5.,.6.;.*.$.` ` ^ & # # # # ` K.'.'.'.'.'.Q.'.'.}.'.'.'.'.'.'.'.'.'.'.'.'.'.}.}.}.}.'.'.tXiXpXiXiXiXiXiXuXyX9X|.F.&.` a 1 1 8 d _ $.-.;.$.` d e w w r e u y 3 > & 1 h ;. XyXcXgX6XI.K.K.F.;.;.&.7 8 &.;.",
"'.'._.I.P.I.I.I.P.}.bXZXcX/.P.I.I.I.I.I.I.I.I.I.I.I.F.6.4.&.;.;.-.;.;.&.}.vXBXMXZXAXZXlX'.;.;.$.Y I a & # # # # # # # % # # # # # # # # # # # # # # # # # # J 0 # # # # # 2 1 # # # # # # # & * & * * %   # # # # # # # # # # #   0 g # # # y $.&.F. X}.I.P.P.I.I.I.I.I.I.I.I.I.I.I.I.I.I.I.I.I.I.I.I.I.I./.I.I.I.F.F.;.} >.$.%.{ ) ` ` ^ & # # # & ' F.'.'.'.'.'.'.'.'.'.'.'.'.}.}.'.'.'.'.'.'.'.'.'.'.'.'.}.8XiXiXiXiXiXiXiXuXuXuXiXiXtX6X_.S.*.) i > > y f ^ Y I u u e u u y 1 & 1 a -.|.uXMXCXlX6XI.F.I.P.F.;.*.&.' > a &.*.",
"'.'.'.'.I.I.I.I.I.P.9XZXZX9XP.I.I.I.I.I.I.I.I.I.F.F.;.;.;.-.:.;.;.-.-.;.;.F.|.tXuXtX|.F.;.-.$._ I I I 1 # # # # # # # # # # # # # # # # # # # # # # # # # # - * # # # # # t 0 % # # # # # % * * * * & # # # # # # # # # # # # #   # # # # # 7 ^ ' $.-.;.;.;.;.;.;.*.-.*.%.;.;.;.;.;.;.;.r.F.F.F.F.F.F.F.P.P.F.N.;.;.-.&.$.' ) 4.!.} ` ` h & # # # * $.F.'.}.'.'.'.'.'.'.'.'.'.'.}.}.'.'.'.'.'.'.'.'.'.'.|.8XtXuXiXiXiXiXiXiXiXiXiXuXuXuXuXuXyX9X*XG.&.' 8 % & > 3 8 y 8 3 1 * 1 d &.}.yXvXBXBXgX6XI.P.P.I.P.F.;.;.*.$.^ & h ;.;.",
"'.'.'.'.'.I.I.I.I.I.I.gXZXvX'.I.I.I.I.I.I.P.I.F.;.;.;.;.$.` _ ` o.$.&.;.;.;.&.;.N.;.;.;.&.' I I I I I p % # # # # # # # # & & * 1 1 1 7 8 p a a d h h h ^ ^ ` ` ( ` ' ' ' ' ' ` ` ` ^ Y h h F h f a p 8 7 1 1 1 * & % # # # # # # # # # # # # & 1 3 8 8 7 7 1 1 3 1 2 5 1 1 1 1 1 7 8 p a f f f f h Y ^ ` ' ` ` ` ` ` ` ( ` ` { 4.{ ` ` d % # # # 1 &.F.'.}.'.'.'.'.}.'.'.'.'.'.'.'.'.'.'.'.'.'.'. X6XwXuXiXuXuXuXuXtXtXwX9X9X9XrXtXyXuXiXiXuXuXyXwX'.;.&.y # # # # # # # 7 ` I.yXbXZXZXBXgX,XI.K.I.I.I.I.K.;.;.;.$.` h & ^ ;.N.",
"'.'.'.'.'.'._.I.I.I.I.{.bXZX9XI.I.I.I.I.I.P.P.;.;.;.-.' d u e e u u I _ @.&.;.;.N.;.;.' I I I I I I I d & # # # # # * - h ' $.;.F.I._.'.|.6X7X8X9XwXrXtXtXyXyXiXiXiXiXiXiXiXiXiXyXyXyXtXrXrXrX9X7X6X>X|.'.I.I.F.N.&. .^ a 7 & # # # # # # # # # # # # # # # # # = q H m $ # # # # # # # # # % & & * 1 8 y a y y y y y y p d ^ ` ` ` ` ` 7 # # # # 1 &.S._.'.'.'.'.}.}.}.'.'.'.'.'.'.'.'.'.'.|.6XrXyXyXtXwX8X,X|. X'.'.I.I.I.I.I.I.I.'. X6X9XtXyXuXiXuX7XF.$.1 # # # # # & ' F.tXZXZXZXMX8XI.K.I.I.I.I.I.P.F.;.;.&.` ` a % ) ;.;.",
"}.'.'.'.'.'.'./.P.I.I.P.9XZXbX'.P.I.I.I.I.I.F.;.;.&.Y u r r r w r r r e u I ' &.;.;.;.$._ I I I I I I I * # # # # # * ( S.|.tXgXvXMXMXBXZXZXZXCXBXBXBXBXMXMXMXMXMXMXMXMXMXMXMXMXMXMXMXMXMXMXbXbXbXbXbXbXvXcXcXxXlXiXyX9X6XI. .7 # # # # # # # 6 a a a a a p a g 0 | ;X>.2 - * & & % # # # # # # # & * > & & & > 1 3 8 8 8 8 y f ` ` ` h & # # # # * $.;.I.'.'.'.'.}.}.}.'.'.'.'.'.{.}.>X6X9XwX9X6X%X%XW.I.I.I.I.I.I.I.I.I.I.I.I.P.I.I.P.I.I.I.'.|.,X8X9X'.;.h % # # # # % ` F.yXBXbXMXCXgX|.I.P.I.I.I.I.F.;.;.&.' ` ` i * $.N.;.",
"}.'.'.'.'.'.'.'.I.I.I.I.I.iXZXtXP.P.I.I.P.P.F.;.&.I r w w w r u s s U U d U I ^ ` o.;.;.$.^ I I I I I d & # # # # # d ;.|.BXZXZXZXZXZXZXcXyX8X6X>X|.|.|.|. X}.{.{.{.'.'.'.'.'.'.'.'.'.}.}.'.'.'.'.'.'.'.'.'.'._./././.I.I.I.F.' & # # # # # 7 &.r.F.F.P.I.I.).].F.i.Y.q.4.$. . .` ( F h a p 8 7 1 1 1 1 # #   # # # # & * > 1 3 f ^ a 1 8 1 # # # % ` ;.F.'.'.'.'.'.}.[.'.'.'. X>X6X6X>X|.'.I.I.I.W.%XR.I.I.I.I.I.I.I.P.I.I.I.I.I.I.I.I.I.I.P.K.K.P.I.P.I.F.' 1 # # # # # a ;.tXgX'.|.9XlXvXyX{.K.P.I.F.;.;.;. .` `  .8 1 $.;.;.",
"'.'.'.'.'.'.'.'._.G.J.I.I.'.bXMX XP.I.I.I.I.F.;.` s e e u s U I I I I I _ _ _ Y I I ' ;.*._ I I I I I y # # # # # *  .F.iXZXZXZXCXMXuX>X_.I.I.I.P.P.I.I.I.I.I.I.I.I.I.I.I.I.I.I.P.I.I.I.I.I.I.I.I.I.I.I.I.I.I.I.I.I.I.I.I.P.F.-.6 # # # # # a F.I.9XiXxXcXcXxXxXiXeXeX9X7X|.'._.I.7.f.6.;.;.;.;.;.&.$. .^ h a 8 6 1 * & % # # % & & a  .&.$.7 # # # 7 &.;._.'.'.'.'.'.'.'.}. X{.'.I.I.K.F.F.F.S.;.F.F.F.F.F.F.I.I.I.I.I.I.I.I.I.I.I.I.I.I.I.I.I.I.I.I.I.I.F.&.a # # # # # 1 &.7XgXI.I.I.I.'.7XtX6X'.P.;.;.;.$.` ` `  .9 6 &.;.;.",
"'.'.'.'.'.'.'.'.R.%X].R.I.P.8XCXiXI.I.I.P.I.F.;.F.` I d I I I I I I I I _ Y _ I I f r.'.&._ I I I I d * # # # # # 8 ;.'.MXZXZXvXwX'.I.F.I.I.I.K.P.I.I.I.I.I.I.I.I.I.I.I.I.I.P.P.I.I.I.I.I.I.I.I.I.I.I.I.I.I.I.I.I.I.I.I.I.I.I.S.h # # # # # a F.{.BXZXZXZXZXZXZXCXZXZXZXZXZXBXbXcXiXqX9X6X|.'.'.I.I.F.F.S.S.;.;.;.&. .' Y a 8 1 & % h &.;.;.' * # # % h *.F.'.'.'.'.I.I.I.I.F.F.F.S.;.;.=.&.$.$.&.;.;.F.P.J.I.I.I.I.I.I.I.I.I.I.I.I.I.I.I.I.I.I.I.I.I.I.I.P.-.^ 1 # # # # & ' |.xXI.I.I.I.P.F.K.'.'.F.;.;.$.` ` ' @.' 1 1 $.;.;.",
"'.'.'.'.'._.I.I.^.-X*XY.I.P.I.iXCX,XK.I.I.I.;.&.{.yX6X/.t.$.o.o.o.o.=.;.D.P./././.|.xX|.$.^ I I I s > # # # # # # ` ;.9XZXvX9X'.I.P.P.K.F.F.;.r.F.I.I.I.I.I.I.I.I.L.G.I.I.I.I.I.I.I.I.I.I.I.I.I.I.I.I.I.I.I.P.I.I.I.I.I.I.I.I.F.' & # # # # 7 ;.I.iXZXZXZXZXZXZXCXZXZXZXZXZXZXZXZXZXZXZXCXBXMXbXxXiXrX8X|.'./.I.K.F.F.F.;.;.&.$.' a & 7 ' *.;.d # # # & ` ;.F.I.P.F.F.F.;.;.;.&.$.$.' ' o.$.&.;.F.F.I.I.I.I.I.I.I.I.I.I.I.I.I.I.I.I.I.I.I.I.I.I.I.I.I.P.P.F.&.` a # # # # # a /.cX'.I.I.I.I.I.P.K.F.;.;.&.` ( Y Y ' ` * 1 &.;.;.",
"I.I.I.I.I.P.P.I.I.Y.oXG.I.I.P.{.MXgXI.P.I.K.;.-.-.F.7XiXxXcXxXcXcXcXvXvXvXvXxXxXxXgX6X;._ I I I y & # # # # # # 1 $.S.9XrX_.K.P.F.F.N.;.;.;.r.F.I.I.I.I.I.I.I.I.G.OX#XR.I.I.I._.I.I.I.P.I.I.I.I.I.I.I.I.I.P.P.I.I.I.I.I.I.I.I.F.;.7 # # # # * @.F.>XMXZXZXZXBXtX8XwXtXuXgXlXcXbXMXMXBXCXZXZXZXZXZXZXZXZXZXMXbXgXyX9X6X|.'.I.F.F.;.;.^ * & h &.$.> # # # 1 ' &.;.;.&.$.@.' ' ` ` ` ' $.&.;.;.F.P.I.I.I.I.I.I.I.I.I.I.I.I.I.I.I.I.I.I.I.I.I.I.I.I.P.F.F.F.S.;.$.` ^ * # # # # 1 N.cX XK.I.I.I.I.I.F.;.;.-.' ^ f d d ^ ( % 1 &.;.;.",
"I.I.I.I.I.I.I.I.I.L.G.I.I.I.I.I.9XcXI.P.P.F.;.-.;.;.-.;.F.F.I.I.'.'._.I.F.F.S.;.;.&.' Y I I I 3 * & # # # # # % Y ;.F.I.F.F.S.;.;.;.;.;.F.F.P.I.I.I.I.I.I.I.I.I.G.*X:XE.I.I.I.I.I.I.I.I.I.I.I.I.P.I.I.I.I.I.I.I.I.I.I.I.I.I.I.F.;.h # # # # % Y ;.I.xXZXZXZXgXI.P.P.I.I.I.I.I.'.I._.wXrX9XtXiXgXxXbXMXBXZXZXZXZXZXZXCXMXMXcXiXtX6X/.;.' 1 # 7 ` d # # # # & p ^ ` ` ` ` ` ` ` ` ` ' $.&.;.;.F.P.I.I.I.I.I.P.I.I.I.I.I.I.I.I.I.I.I.I.I.I.I.I.P.F.;.;.&.&.$.' ` ` ^ * # # # # % ' iX6XF.I.I.I.P.K.;.;.-.' ( f d d d f Y & 1 @.$.&.",
"F.F.F.F.F.P.K.P.K.P.P.P.P.P.P.P.I.6XP.F.S.;.;.;.;.;.;.;.;.;.;.;.N.N.;.;.;.&.$.' _ I I I I y 1 a  .8 # # # # # 7 &.;.S.;.;.;.;.;.;.F.F.P.I.I.I.I.P.P.I.I.I.I.I.I.L.U.E.J.I.I.I.I.I.I.I.I.I.I.I.I.I.I.I.I.I.I.I.I.I.I.I.I.I.P.I.P.;.' & # # # # 9 &.S.9XZXZXVX8XI.I.I.I.I.P.I.I.|.wXuXgX}.I.I.I.I.I./.'.{.|.7X9XrXyXgXxXcXvXbXMXMXbXxX'.;.` 7 & & 1 # # # # # # & 1 p f Y ^ ` ` ` ` ` ` ` ' o.$.-.;.F.F.P.I.I.I.I.I.I.I.I.I.I.I.I.I.P.I.P.F.F.;.&.$. .'  .' ' ^ f 1 # # # # # # p 6XrXK.I.I.I.P.;.;.;.@.( f d d d d f h % > I I Y ",
";.;.;.;.;.;.;.;.;.;.;.;.;.;.;.;.;.$.o.&.&.-.;.;.;.;.-.-.;.;.;.C.N.;.&.o.` ^ I I I I I d 1 1 ^ ;.` & # # # # 1  .;.;.;.;.;.F.F.K.P.I.I.I.I.I.I.I.P.I.I.I.I.I.I.I.L.I.I.I.P.I.I.I.I.I.I.I.I.I.I.P.I.I.I.I.I.I.I.I.I.I.I.I.P.P.I.I.;.$.> # # # # & ' ;.'.MXZXMX|.P.I.I.I.S.=.=.r.K.'.{.I.P.I.I.I.I.I.P.L.L.K.F.P.P.I.I.I.I./.'.'.'.'.'.P.;. .` 8 % # # # # # # # # # # # & > 1 8 p a h ^ ^ ` ` ` ` ' ' o.$.-.;.S.F.F.P.I.I.I.I.I.I.I.P.F.F.;.&. .` ' @.@. .^ 8 > % # # # # # # # > N.8XI.I.P.P.F.;.-.@.` f d d d d d f d # > I I I ",
"*.;.;.;.;.;.;.;.;.;.;.;.;.;.;.;.=.o.o.D.'.F.;.;.;.*.;.-.*.&.$.$.o._ I I I I I I I d 8 1 a  .&.h & # # # % 8  .;.N.F.F.F.P.P.P.I.I.I.I.I.I.I.I.I.P.P.P.I.I.I.I.I.P.K.P.I.I.I.P.I.I.I.I.I.I.I.P.P.I.I.I.P.P.I.I.I.I.I.I.I.I.I.I.I.N.' 3 # # # # # d ;.F.tXZXvX'.P.I.P.;.` _ _ ` o.$.r.P.I.I.I.I.I.I.I.I.I.I.I.I.I.I.I.I.I.I.I.I.I.I.I.P.;.@. .` 7 # # # # # # # # # # # # # # # # # & & * 1 1 8 y a f Y ^ ^ ` ` '  .$.&.;.;.;.;.;.;.;.&.$.' ` ` ` ` ^ a 6 & # # # # # # # # # # % ' F.I.I.P.F.;.-.@.` Y d d d d d d ^ 9 # & d I I ",
"_ ' @.@.@.$.&.&.&.-.;.;.;.;.;.F.wXtXyXyXtX X;.;.;.&.$.o.` ^ I I I I I I I I I B y > 8 ' ;. .8 # # # # 1 Y ;.F.F.I.I.I.I.I.I.I.I.I.I.I.I.I.P.F.F.F.F.F.F.F.F.S.S.S.S.F.F.F.F.F.F.F.F.F.F.F.F.F.F.F.F.F.F.F.F.F.F.F.F.F.F.F.F.F.r.@.I p % # # # # 1 &.;. XBXxXI.P.P.I.D.#.o.o.@.#.#.r.|.I.I.I.I.I.I.I.I.I.I.I.I.I.I.I.I.I.I.I.I.I.I.I.F.&.' ' ` ( 7 # # # # & & # #   # # # # # # # # # # # # # # # # % & > 1 8 a h ^ ` ` ` ` ` ` ` ` ` ` ` ^ h p 9 * & # # # # # # # # & 7 p 8 * 1 ` ;.F.F.;.=.' ` ^ d d d d d f ` h # # # 3 d I ",
"I _ Y _ I I Y Y ^ _ ` ' ' @.$.&.;.;.;.;.=.$.o.' _ Y I I I I I I I I I I I f b l 8 ` &.&.^ 1 # # # * d &.F.I.I.I.I.I.I.I.I.I.P.P.F.F.F.;.=.$.o.' ` ` ` _ _ _ _ _ ^ ^ _ _ _ Y I I I I I I I I I I I I I I I I I I I I Y Y _ Y _ Y I I d & # # # # # ^ ;.I.lXyXP.I.P.I.7XrXyXyXyXyXyXuX7XI.I.I.I.I.I.I.I.I.I.I.I.I.I.I.I.I.I.I.I.I.I.P.N.$.' ` ` ` ^ 7 # # % h P.I.@.h i 2 1 * & & # # # # # # # # # # # # # # # # & * 7 p f h ^ ^ ^ Y f a 7 > * * * * # # # # # # # > h ' $.&.&. .f 1 7 ^ $.&.@.` ` ^ f d d f ^ ` h 1 3 7 1 * 1 y ",
"_ _ _ T I I I I I I I I I I I I Y ^ _ _ Y I I I I I I I I I I I I I I d y > 1 F &.;. .8 # # # * p @.S.P.I.I.I.I.I.I.P.F.F.S.;.$.' _ Y I s s u u u u u u e e e e e e e d I e w w w w r w w w w w w w w w w r r w w r e u u u e u d I U & # # # # # 9 &.F.6X7XF.I.I.I.F.I./.'._.I.I.I.P.P.I.I.I.I.I.I.I.I.I.I.I.I.I.I.I.I.I.I.I.I.I.F.;.' ` ` ` ` ` ^ 1 # # a 6XZXZXbXgXrX6X}.I.F.&. .^ d p 7 1 > & % # # # # # # # # # # # % & & * & # # # & * * % % # # # # # # # % 1 1 7 8 p a a > # # * 8 f h Y ^ ^ Y h h d 7 # p ;.&.&.$.' ^ ",
"Y ^ I I I I I I I I I I I I I I I I I I I I I I I I I I I I I I I d 8 & 1 h $.;.$.d * # # # 7 ' ;.F.I.I.I.I.I.F.;.=.o.' _ I d s y e e e e e e e e e e e e e e u u u u d I s u e r r r r r w w w w r w w w w r w r u u u u r r r e d I > # # # # # * $.S.I.I.P.I.I.I.I.I.I.I.I.P.I.I.I.I.I.I.I.I.I.I.I.I.I.I.I.I.I.I.I.I.I.I.I.I.F.;.&.` ` ` Y Y ` ` ^ > # * ;.gXZXZXZXZXZXcXwXwXtXuXyXyXrX8X,X'.P.-.' h 8 1 & # # # # # % # # # # # # # % * * * % # # # # * 7 i 8 9 7 1 1 1 * * & % # # # # # # & & & * & & # # # p ;.;.;.*.;.;.",
"d p s d d d d d I I I I I I I I I I I I I I I I I I I I I U d y 3 & * h $.&.$.h 1 # # # # 1 ' $.;.;.;.;.-.@.` Y I f d d d u y y y y y y y y y y y y y 8 8 8 3 3 8 8 8 y y y y y y y y y y u u u e e e e e e u e u s u e e r e e r e d > # # # # # & ` ;.P.I.I.I.I.I.I.I.P.P.I.P.P.P.I.I.I.I.I.I.I.I.P.P.P.P.P.P.P.P.K.K.P.F.F.N.N.;.' ` ' ^ I _ ;.;.@.f & # 8 _.vXZXZXZXcX'.P.I.I.I._.'.|.6X8XtXyXyXuXtXwX7X}.P.-.( d 8 1 * % # # # # & * * * * & * 7 a ` ;.I.'.|.,X>X}.'.I.F.F.;.&.$. .` ^ h f a 8 9 6 1 * & # # & f `  .$.$.&.",
"#     # % & & & & & & * > 1 3 3 3 3 1 1 3 7 y a Y ' $.y > & & # # # 8 h a 9 * # # # # # # # * * 1 1 6 7 1 * & & & & & & & & % % & % # # # # # # # # # # # # # # # # # # # # # # # # # # % & & & & & & > > 1 1 3 8 y y 8 3 w y y w y 8 & # # # # # # a ;.F.I.I.I.I.I.I.I.I.I.P.P.P.K.F.F.F.F.F.F.F.F.F.S.N.;.;.;.;.;.;.;.;.;.;.-.$.' ` ` '.wXrXrXwX,X-.` 8 # # h ,XBXZXZXwXI.I.I.I.I.I.P.F.F.F.F.I.I.I.'.'.|.6X7X9X9X9X8X,X'.F.` & & & * * * 6 a ^ $.F. XwXiXyX7X6X6X7X7X8X8X9X8X7X6X6X>X|. X'.I.I.P.F.;.@.` h 7 # # # & 1 p a f ",
"N.-. .Y p 1 & # # # 1 h $.;.;.S.F.I.'.}.<X9XtXgXxXcXuX' % # # # # # # # # # # # # # # # # # # # # * * > * # # # # # # # # # # # # # # # # # # # # # # # # # # # # # # # # # # # # # # # # # # # # # # # # # & * * * * # # # # % % % # # # # # # # # & ^ ;.N.F.F.F.F.S.;.;.;.;.;.;.;.;.;.;.-.-.&.&.&.&.&.&.&.$.$.$.$.$.' @.' ' ^ ^ h f Y ` @.$.@.' ` ` ` Y & # &  .wXCXMX>XI.I.I.I.I.I.I.I.P.P.P.P.P.F.K.P.K.K.K.P.I.I.I.I.I./.F.i 1 * 1 h &.I.,XwXiXxXlXwX|.I.I.I.I.I.I.P.I.I.I.I.I.I.I._.'.'._._.'.'.I.F.;.$.( 8 # # 1 @.&.&.&.",
"BXBXBXMXcXuX6XP.` 7 7 ( `.wXgXcXMXZXAXZXZXMXxXyX6X/.;._ & # # # % & > 1 1 1 1 1 1 1 1 1 > > * > 1 6 1 7 1 * * > > > > 1 1 1 1 1 1 7 7 8 8 8 y p a a a a a a a a a a y 8 3 3 1 1 1 * & % # # # # # # *  .N.N.N.B.&.$.` h a p 1 * & & % # # # # # # # # & a ` @.o.' ' ' ' ' ' ' ' ` ' ` ` ` ` ` ` ` ^ ^ ^ ^ ^ ^ Y Y f ^ ^ Y Y h d d d d d f f Y ^ ` ` ` ` ` 3 # # 1 ;.iXvX'.I.I.I.I.P.F.F.F.;.;.;.=.&.$.&.&.&.=.=.;.;.;.;.;.;.;.;.j > *  .|.tXxXCXBXgX6XI.F.K.I.I.I.I.I.F.F.I.I.I.I.I.I.P.K.P.F.P.P.P.P.P.P.F.&.' ^ 1 # & ^ -.;.;.",
"ZXZXZXZXZXZXZXZXMXiX'.' p 8 ` r.I.gXZXBX7XF.=.' ^ I a 1 & 1 i h ' $.;.;.;.;.;.;.;.;.;.;.;.;.;.N.N.N.;.N.;.;.;.;.;.;.;.;.;.;.;.N.S.F.F.F.F.F.F.F.F.F.F.F.F.F.F.F.F.F.;.=.$.' ` ^ Y I d s y 3 > % # # * I.lXiXyXlXcX,X'.I.I.P.' I d d p * # # # # # # # # # * 8 h ^ Y f f f f f f f f f d f f f f d d d d d d d d f Y Y Y Y f d d d d d d d d d d f Y ^ ` ` 7 # # # 7 -.'.F.F.;.&. .` h f a a a p p p p p a a a a a d d f f h h ^ p * & a S.I._.iXyXI.I.I.I.I.I.I.I.I.F.;.;.P.P.P.K.K.F.F.F.F.F.K.F.F.F.F.;.;.;.' ` f & # * ` ;.;.",
"rXrXtXtXyXyXyXgXMXZXZXcX}. .8 p  .6XAXgX' I I p 3 * 1 f  .;. X9XyXgXgXiXyXwX7X|.}.'./.I.I.I._.I.I.I.I.I.I.I.I.I.I.I.I.I.I.I.I.I.I.I.I.I.I.I.I.I.I.I.I.I.I.I.r.r.6XgX/.F.F.;.;.;.&.$.$.` I I I p 1 # & a S.I.F.>X7XF.F.F.;.' I I f p 1 % & > 1 7 8 7 1 * & # # % 1 8 a h f f f d d d d d d d d d d d d d d d d d f ^ Y Y f d d d d d d d d d d d d d f ^ h * # # # # & 1 7 7 1 & & # # % & & & * 1 1 1 1 1 1 1 7 1 1 1 1 > * & & * % # % ^ S.F.|.iXI.I.I.I.I.I.I.I.F.;.;.;.;.;.;.;.;.-.&.&.&.&.&.&.&.$.$.$.$.$.' ` ` p # # 1 $.;.",
";.;.;.;.;.;.;.;.I.wXMXZXMX7X-.h 8 P.CX>XI p 1 & 8 ` &.;.F.I.6X9XwXtXuXgXxXcXbXbXMXMXcXxXgXiXuXuXiXiXlXlXlXxXxXxXcXxXxXxXxXxXcXcXcXxXxXxXxXxXlXlXgXgXgXgXgXvXxXvXZXMXyXtXtXwX9X6X|.'.F.-.o.I I I I 3 * 6 Y $.;.P.;.@.` _ I I p 3 * * 8 ` F.|.8XrXtXwX8X}.F.` p 1 & # # & 1 7 a f h f f d d d d d d d d d d d d d d h Y f d d d d d d d d d d f Y Y Y f 8 * # # # # % * 1 1 7 8 a h ^ )  .$.&.-.;.r.F.F.F.P.I.I._.'._._.I.;. .' ` h 7 & # * ` ;.C.{.F.F.F.F.F.F.F.S.;.&.&.$.@.' ' ' ` ^ ^ Y Y Y h f f f f f f f f h ^ ( 1 # # a ;.",
";.;.;.;.;.;.;.;.;.;.|.bXZXMX'.*.h p F.Y > # 1 ^ *.;.F.P.P.P.P.P.P.P.I.I.I.I.'.7XxXZXBXBXbXcXlXuXtXrX9X9X8X7X7X7X8X8X8X9X9X9X9X9X9X9X9XwXwXwXwXwX9X8X8X9X9X9XwXwXwXwXwXwX9X9X7X6X,X XP.-.;.' I I I I 1 * 7 I ^ Y I I d y 3 * & 7  ._.rXcXMXZXZXZXZXZXZXZXBXxX9X_.-.Y 8 1 & # # & > 7 i a f h f f f d d d d d d d d d f d d d d f f f f h h f a 8 3 > & * 1 7 p f `  .;.N.F.I.I.'.{.|.>X6X8X9XrXyXgXlXxXcXbXMXMXMXBXCXZXBXxXI.*.;.;.&.` > # * h ' $.$.$.$.$.$.$.@.' ` ^ ^ h f h h h j d a a a a a d d d d d d f f f f ^ 8 # # * ' ",
";.;.;.;.;.;.;.;.;.;.;.'.vXZXyX;.;.a # # # 3  .;.F.P.I.I.I.I.I.I.K.K.I.'.6XtXgXxXiXwX6X}.'.'.I.K.P.P.P.P.F.F.F.F.F.F.F.P.K.K.K.K.K.K.F.F.F.P.I.F.@.` ` o.@.-.S.F.P.P.F.F.F.F.F.K.K.K.F.;.;.&.^ I I I u & & 3 p p 8 1 & # # 9 S.wXbXZXZXZXZXMXxXvXBXZXZXZXZXZXZXBXvXyX|.F. .h 8 1 % # # % & 1 3 8 y a a d d f f f f d d d d a a i 8 7 1 1 > 1 1 8 d ^  .;.F._.|.6XrXuXgXlXxXcXvXMXMXBXZXZXZXZXZXZXZXZXZXZXZXZXZXZXZXCXMXMXMX9X;.;.;.;.;.` * # & y ^ ( ^ ^ h d p 8 7 3 1 1 1 1 9 6 6 1 * * * * & & & * * > 1 1 1 1 3 1 1 % # # # a ",
";.;.;.;.;.;.;.;.;.;.;.;.{.MXbXK.;.$.1 # >  .F.F.I.I.I.I.I.P.I.I.{.6X8X9X7X>X'./.I.I.P.F.K.I.P.I.P.I.I.I.I.I.I.I.I.I.I.I.I.I.I.I.I.I.I.I.I.I.P.=._ ` ` ` ` ` ` o.=.F.F.F.F.F.F.F.F.F.;.;.;.;.' I I I e , # # # # # # # 6 N.yXMXZXZXZXMXlX8X'.I._.}.8XuXcXMXCXCXZXZXZXBXbXiX7XI.;.' f 7 * # # # # % % % & & & & & & & & & & & & & 1 7 a ` $.N.I.}.7XtXiXcXbXMXCXZXZXZXZXZXCXBXMXMXcXlXgXbXZXZXZXZXZXcX6X6X,X,X>X|.|.|.{.'.'.I.F.;.;.;.;.;.^ & # # * * & & > 7 p h ^ `  .$.&.N.F.F.F.F.F.F.S.N.;.&.$. .` Y d p 7 1 * & # # # # # 2 ",
";.-.;.;.;.;.;.;.;.;.;.;.;.6XCX'.;.;.h # h ;.F.P.I.I.I.I.I.I./.'.'.'.I.K.F.F.P.I.I.I.I.P.P.P.I.I.P.I.I.I.I.I.I.I.I.I.I.P.P.P.P.P.K.F.P.I.I.I.r._ Y Y Y I I Y T _ O.>XI.;.;.*.;.;.-.&.&.&.$.o._ I I d r > # # # # # % ( 9XCXZXZXZXMXuX|.I.K.L.I.I.I.I.I._.}.7XyXcXMXZXZXZXZXZXBXxXwX}.F. .h 8 * # # # # # # # # # # # & 1 7 d ` &.I. X8XyXlXvXBXZXAXAXZXZXZXMXMXvXxXgXtX9X6X|.'.'.I.I.I.'.wXMXZXZXZXcXI.F.F.F.F.F.L.L.I.I.I.I.I.F.;.;.;.;.*.h & # # # & h '.7XwXtXyXiXgXhXxXvXbXvXMXbXMXMXMXMXMXMXbXbXcXlXuXrX6X}.I.-.` p 1 # # 1 ",
";.;.;.;.;.;.;.;.;.;.;.;.;.F.xX6X;.;.' * ` -.;.S.F.F.F.F.F.F.F.F.F.F.F.F.F.F.F.F.F.F.F.F.F.S.F.F.S.S.F.F.F.S.S.S.S.r.r.;.;.;.;.;.;.;.;.F.;.N.'.,X{././.{.>X9XyXgXgXvX'.;.;.&.$.' _ ^ Y I I U d s s u w & # # # # 1 F.xXZXZXCXvXwX'.I.P.P.I.I.I.I.I.I.I.I.P.P.I./. X8XiXvXBXZXZXZXZXBXcXyX|.F.$.h 1 # # # # # # # * f &.I.>XwXgXcXMXCXZXZXBXMXvXxXgXtX9X7X|. X}.'._.I.I.I.P.P.P.P.P.P.I.P.I.'.uXBXZXBX8XI.I.I.I.I.I.I.I.I.I.I.I.P.F.;.;.;.&.&.a # # # * ;.xXZXZXZXZXgX6X6X6X6X8X8X8X9X9X9X9XwXwXrXtXtXtXyXyXuXuXuXuXtX9X|.;.9 # 6 ",
";.;.-.-.;.;.;.;.;.;.;.;.F.;.,X8X&.;.@.> d _ @.&.-.-.;.;.;.;.;.;.;.;.;.;.;.;.;.;.;.;.;.;.;.-.;.;.*.*.;.;.;.;.;.;.;.;.;.;.;.;.;.;.;.;.;.;.;.;.;.{.wXyXgXiXyXwX6X{./.F.$.o.` _ I U s s u e e r r w w 3 , # # # # 8 |.BXZXBXxX9X/.K.P.I.I.I.I.I.I.F.r.=.F.I.F.P.I.I.P.F.P._.>XtXxXMXZXZXZXZXZXMXyX|.F.h * # # # # * ' >XcXMXCXMXbXxXiXtX9X6X|.'.I.I.K.F.F.F.I.I.I.I.I.I.I.I.I.I.I.I.I.I.I.I.I.I.I.6XvXZXcX'.I.I.I.I.I.I.I.I.I.I.I.I.P.F.;.;.;.;.&.8 # # # h 9XZXZXZXiXI.I.I.I.I.P.P.F.F.F.F.F.F.F.F.P.P.F.F.F.K.K.K.K.P.F.F.;.8 # d ",
";.;.;.;.;.;.;.;.;.;.;.;.;.;.F.'.;.;.$.* 3 f I ^ _ ' o.o.' ' ' ' ' ' ' ' ' ' ' ' ' ' ' o.o.o.o.o.o.o.o.o.o.o.o.' ' o.o.o.o.o.o.o.@.$.$.$.o.o.' ` ' ' ' ` _ _ _ Y I I I I I d u e r w w r r r r w , & # # # & h 9XBXBXgX,XI.P.P.I.I.I.I.I.I.I.r.@.` o.;.'.|.{.I.I.I.I.I.P.P.I.I.'.6XuXvXCXZXZXZXCXvX6X .1 # # # 7 &.F. X|. X'./.I.I.I.P.P.P.P.P.I.I.I.I.I.I.I.I.I.P.I.I.I.I.I.I.I.I.I.I.I.I.I.I.P.'.iXZX8XF.I.I.I.I.I.I.I.I.I.I.I.I.P.F.;.;.;.&. .1 # # 1 I.MXZXcX'.I.I.I.I.I.I.I.I.I.I.I.I.I.I.I.I.I.P.F.F.F.F.;.;.;.;.;.` & 1 $.",
";.;.;.;.;.;.;.;.;.;.;.N.N.;.;.;.;.;. .* % > 8 y s d d d I I I I I I I I I I I I I I I I U U U d s s s s s s u u u u u u u u u s d s s s u u y u u u s s s s s s s d d s u r r r w w w w 3 , > % # # # # * ` rXbXuX|.I.P.I.I.I.I.I.I.I.I.I.'.8X8XwXyXlXvXcXtX/.I.I.I.I.I.I.I.I.I.P.I._.'.{.|.|.|. XI.;.` & # # 1 &.;.F.I.I.I.I.I.I.I.I.I.I.I.I.I.I.I.I.I.I.I.I.I.I.I.I.I.I.I.I.I.I.I.I.I.I.I.I.I.P.I.wXxX'.P.I.I.I.I.I.I.I.I.I.I.P.P.K.;.;.;.;.;.^ % # &  .iXBX>XI._.I.I.I.I.P.I.I.P.P.P.F.F.F.F.S.;.;.;.;.;.;.;.;.;.&.Y * 1 ' ;.",
";.;.;.;.;.;.;.;.;.;.N.;.;.;.-.;.;.;.' & # # # # % & & & > > > 1 1 1 3 3 3 3 1 1 > > > > > > , > > > > , , , , & & & & & & & & > 1 > & % % % % % % % & & & & & & & , , > > > > , , & & % % # # # # # # 1 ' 6X9X'.I.P.I.I.I.I.I.I.I.I.I.I.I._.8XrXwX8X6X{./.I.P.I.I.I.I.I.I.I.I.I.I.I.I.F.&.&.&.&.&.-.;.&.8 # # *  .;.F.I.I.I.I.I.I.I.I.I.I.I.I.I.I.I.I._.I.I.I.I.I.I.I.I.I.I.I.I.I.I.I.I.I.I.I.I.I.I.P.>X7XI.I.I.I.I.I.I.I.I.I.I.P.I.I.F.;.;.;.;.&.p # % h }.9XI.I.I.I.I.I.K.F.F.F.F.;.;.;.;.;.;.;.;.;.;.;.;.;.;.;.( 8 % 1  .;.;.",
"&.-.-.&.;.;.;.;.;.N.;.;.;.;.-.=.;.;.` % # # # # # # # # # # # # # # # # # # # # # # # # # # # # # # # # # # # # # # # # # # * & * * # # # # # # # # # # # # # # # # # # # # # # # # # # # # # # # # 1 ' F.I.P.P.P.P.P.P.P.P.P.P.P.P.P.I.I.I.I.I.I.K.P.P.P.P.P.P.P.P.P.P.P.P.P.P.P.I.P.P.;.;.;.;.;.;.;.*.' & # # ^ &.;.K.P.P.P.P.P.P.P.P.P.P.P.I.I.I.I.I.I.I.I.I.P.P.P.P.P.P.P.P.P.I.P.P.P.P.P.P.P.P.P.I.I.I.P.P.P.P.P.P.P.P.P.P.P.P.P.P.;.;.;.;.;.' * # h ;.F.F.C.N.;.;.;.;.;.;.;.;.;.;.;.;.;.;.;.;.;.;.;.;.*. .p & % & 1 a h Y ",
";.;.;.;.;.;.;.;.N.;.S.;.;.;.;.;.;.;.h # # # # # # # # # # # # # # # # # # # # # # # # # # # # # # # # # # # # # # # # # % * * * * * # # # # # & i `  .^ a 8 1 & % # # # # # # # # # # # # # # # # 1  .F.K.I.I.I.I.I.I.I.I.I.I.I.I.I.I.I.I.I.I.I.I.I.I.P.I.I.I.I.I.I.I.I.I.I.I.I.I.I.I.I.F.;.;.;.;.;.;.-.&.a # # 6 $.;.F.I.I.I.I.I.I.I.I.I.I.I.I.'./._.I.I.I.I.I.P.I.I.I.I.I.P.P.I.I.I.I.I.I.I.I.I.I.I.I.P.P.I.I.I.I.I.I.I.I.I.I.I.I.I.I.F.;.;.;.;.&.8 # f N.N.;.;.;.;.;.;.;.;.;.;.;.-.-.;.;.;.;.;.;.;.;.&.$.h 1 1 p ^  .&.;.F.I.",
";.;.;.;.&.*.;.N.;.;.N.;.;.;.;.;.;.&.a # # # # # # # # 1 8 a f h h h h Y Y h h h h h h h d a a p p 8 8 7 7 7 7 1 1 > 1 6 1 1 1 * & # # # # # # h >XMXMXbXxXuX8X'.S.' d 7 * & % # # # # # # # # # 6  .F.K.I.I.I.I.I.I.I.I.I.I.P.I.I.I.I.I.I.I.I.I.I.I.I.I.I.I.I.I.I.I.I.I.I.I.I.I.I.I.I.I.P.F.;.;.;.;.;.;.-.$.1 # # a *.;.F.I.I.I.I.I.I.I.I.I./.I.I.I.I.I.I.I.I.I.I.I.I.I.I.I.I.I.I.I.I.I.I.I.I.I.I.I.I.I.I.I.I.I.I.I.I.I.I.I.I.I.I.I.P.I.F.;.;.;.-.&.a # p $.-.;.;.;.;.;.;.;.;.;.;.;.;.-.;.;.;.;.-.&.$.' ` 7 & a ;.'.6XtXgXcXcXgX",
";.;.;.;.;.;.N.;.;.;.;.;.;.;.;.;.;.&.8 # # # # # # # 8 &.;.F.I.'.6X8XwXrXtXtXtXyXyXyXyXyXyXyXtXtXtXrXwXwX9X8X7X6X|.}.'.'.~.P.;.' h 7 % # # # # a 8XZXZXMXbXbXBXZXCXbXlXwX}.F.' h 8 1 # # # # # 1 @.r.P.I.I.P.I.I.I.I.I.I.I.I.P.I._.I.I.I.I.I.I.I.I.I.I.I.I.I.I.I.I.I.I.I.I.I.I.I.I.I.P.I.I.P.;.;.;.;.;.;.;.;.^ & # % h =.;.F.I.I.I.I.I.I.I.P.I.I.I.I.P.I.I.I.I.I.I.I.I.I.I.I.I.I.I.I.I.I.I.I.I.I.I.I.P.I.I.I.I.I.I.I.I.I.I.I.I.I.I.I.P.F.;.;.;.-.$.` 1 # a ` ' ' ' $.&.=.-.;.;.;.;.;.;.;.&.$.@.' ` ^ Y Y 7 & ^ P.lXCXZXZXcXwX'.;.",
";.;.;.;.N.N.N.;.;.;.;.;.;.;.;.;.-.&.1 # # # # # # # ` ;.F.'.uXMXZXZXZXZXZXZXZXZXZXZXZXZXZXZXZXZXZXZXZXZXZXZXZXZXZXZXZXZXBXMXxX9XF.$.7 # # # # & ;.lXtX'.S.;.F._.>X8XyXlXvXMXbXgXwXP.7 # # # 1  .;.F.I.I.I.I.I.I.I.I.I.I.I.P.P.I.I.I.I.I.I.I.I.I.I.I.I.I.I.I.I.I.I.I.I.I.I.I.I.I.I.I.I.P.I.I.F.;.;.;.;.;.;.;.&.p # # & h *.;.F.I.I.I.I.I.I.I.P.I.I.P.I.I.I.I.I.I.I.I.I.I.P.I.I.I.I.I.I.I.I.I.I.I.I.I.I.I.I.I.I.I.I.I.I.I.I.I.I.I.I.I.F.;.-.-.$.' ` 8 # & Y ` ` ` ` ` ` ` ' o.$.$.$.$.' ^ Y h f d d d h 7 * a ;.9XZXZXZXuXF.;.;.;.",
";.;.;.F.N.;.;.;.;.;.;.;.;.;.;.;.-.' * # # # # # # 1 $.F.'.cXZXZXZXZXZXZXZXZXMXvXcXxXgXgXgXgXgXgXgXxXxXcXcXcXcXvXbXMXMXMXMXMXMXbX{.;.F # # # # # 1 $.;.;.$.` ` ` ` ` ' $.;.P. XiXCX_.1 # # * ) ;.F.I.I.I.I.I.I.I.I.I.I.I.I.I.I.I.I.I.I.I.I.I.I.I.I.I.I.I.I.I.I.I.I.I.I.I.I.I.I.I.I.I.I.I.P.I.P.F.;.;.;.;.;.;.;.$.1 # # & h &.;.F.P.I.I.I.I.I.I.I.P.I.I.I.I.I.I.I.I.I.P.F.F.P.P.P.I.I.I.I.I.I.I.I.I.I.I.I.I.I.I.I.I.I.I.I.I.I.I.I.K.F.;.;.$.' ` ( 8 # # & a ^ ` ` ` ` ` ` ` ` ` ` ` ` Y d d d d d f h 7 & 6 $.I.vXZXZXCX}.;.;.;.;.",
";.;.;.N.;.;.-.&.$.' ` ' ;.;.;.;.$.^ & # # # # # # a ;.I.lXZXZXZXZXZXZXZXlX7X{._.I.I.I.I.I.I.I.I.I.I.I.I.I.I./._.'.'.{.}. X|.|.'.P.;.' & # # # # # 1 ' ;.&.' ` ` ` ` ' ' ` ` @.8XcX$.& # & h ;.F.I.P.I.I.P.F.F.F.F.P.I.I.I.I.I.I.I.I.I.I.I.I.I.I.I.I.I.I.I.P.I.I.I.I.I.I.I.P.I.I.I.I.I.I.P.I.I.I.F.;.;.;.;.;.;.;.y   # # % a &.;.F.P.I.I.I.I.I.I.I.I.I.I.I.I.I.I.P.F.;.;.;.;.;.r.F.F.F.F.I.I.I.I.I.I.P.I.I.I.I.I.I.I.I.I.I.I.K.F.;.;.&.@.` ` h 1 % # # # # * 1 8 a h ^ ` ` ` ` ` ` ` _ Y d d d h f 1 & * j ;.6XZXZXZXMXI.;.;.;.;.",
";.;.;.;.;.;.;.P./.r.-.D.I.r.;.&.' h % # # # # # & ` F.6XCXZXZXZXZXBXgX,XI.I.P.I.I.I.P.P.P.P.P.P.I.I.I.I.I.I.I.I.I.I.P.P.I.I.I.I.I.F.&.7 # # # # # # > ( &.&.` ` ' ' @.' ' ' I.bX8Xa # # 8 &.;.F.I.P.P.I.I.,X_.|.8XI.P.I.I.I.I.I.I.I.I.I.I.I.I.I.I.I.I.I.I.I.I.I.I.I.I.I.I.I.I._.I.I.I.I.I.I.I.I.P.F.;.;.*.;.;.&., .   # # # 8  .;.r.F.I.I.I.I.I.I.I.I.I.I.I.I.F.S.;.-.&.$.$.&.&.&.;.;.;.;.F.F.F.F.F.F.F.F.F.K.P.K.K.P.F.F.S.;.&.@.' ` ` Y 8 & % & * 1 1 1 1 * & & * * 1 1 7 y a h h ^ ^ h d a 7 & % * > ( F.lXZXZXZXvXF.;.;.;.;.",
";.;.;.;.;.;.;.I.9XtXyXyXwX'.;.' ` d # # # # # # * &.I.uXZXZXZXMXgX>XI.F.I.I.I.I.I.I.I.I.I.I.I.I.P.P.I.I.I.I.I.P.I.I.I.I.I.I.I.I.I.F.;. .1 # # # # # # & a $.$.'  . .@.' ' F.xXZX}.1 # &  .;.F.F.=.O.=.F.I.6XtXwX|.I.I.I.I.I.I.I.I.I.I.I.I.I.I.I.I.I.P.I.I.I.I.I.I.I.I.I.I.I.I.I.I.I.I.I.I.P.P.I.I.P.F.;.-.-.-.$.+ . .   # # # 1 ` ;.;.F.I.I.I.I.I.I.I.I.I.P.F.;.*.$.' ( ^ ^ ^ ^ ( ` ` ' $.$.$.$.$.$.&.=.;.;.;.;.;.;.;.&.$.' ' ` ^ h a 7 & % 7 ^  .;.S.F.P.F.F.;.&. .` h g p 8 2 1 1 1 1 > & # # # * & 1  .'.MXZXZXZXcXF.;.;.;.;.",
";.;.;.;.;.;.;.-.-.;.;.;.;.;.$.` ` a # # # # # # 7 C.'.xXZXMXuX|.I.P.P.I.P.P.I.I.I.I.I.I.I.I.I.I.I.I.I.I.I.I.I.I.I.I.I.P.I.I.I.I.P.F.;.;. .7 # # # # # # # 6 ` &.$.' ' ' ;.uXcXMX6X* # p &.&.&._ U U s Y $.F.I.P.P.I.I.I.I.I.I.I.I.I.P.I.I.P.I.I.I.I.I.I.P.I.I.I.I.I.I.I.I.I.I.I.I.I.I.I.I.I.I.I.P.P.P.K.r.;.-.o.+ . . + & # # # & a $.;.S.F.P.I.I.I.I.I.P.F.;.&.' ` Y d d d d d d d f Y Y ^ f h Y Y ^ ( ` ` ' ' ' ' ` ` Y d 8 7 p 8 & # 1 ^ F.8XiXcXvXbXbXMXMXbXcXgXyX8X>X'.I.;.-.$.' ` h p 6 * * * * *  .wXZXZXZXZXcXS.;.;.;.;.",
";.;.-.;.;.;.;.;.;.;.;.;.;.&.` ` ` y   # # # #   a F.I.9X9X'.P.I.I.I.I.I.I.I.I.I.I.I.I.I.I.I.I.I.I.I.I.I.I.I.I.I.I.I.I.I.I.I.P.F.F.;.;.;.;.$.p % # # # # # # > h &.&.@.S.uXtXF.9XtX1 # ^ ;.S.{.r.=.o.O._ _ o.P.I.I.I.I.I.I.I.I.I.I.I.P.I.I.P.I.I.I.I.I.I.P.P.I.I.I.I.I.I.I.I.I.I.I.I.I.I.P.I.P.I.P.I.P.F.r.o.U < . . u ` h * # # # # 7 ' -.;.F.K.I.I.I.P.F.;.&.' ^ f d d d d d d d f Y Y f d d d d d d d d Y ` ` ^ f 8 1 1 a  .I.'.$.& 7  .I.xXZXZXCXiX6X8XrXyXiXxXvXMXMXCXBXMXcXiXwX6X'.I.F.;.&.a 1 * & ;.cXZXZXZXZXcXF.F.S.S.;.",
";.;.;.;.;.;.;.;.;.;.;.;.*.' ` ` ` 7 # # # # # # ^ F.I.I.P.P.I.I.I.I.I.I.I.I.I.I.I.I.I.I.I.I.I.I.I.I.I.I.I.P.I.I.I.I.P.F.F.S.;.;.;.;.;.;.;.;.&.Y * # # # # % * * i ` &.9XwXS.&.;.9Xa % ^ ;.;.{.wXyXuXyXrXwXrX6XP.I.P.P.I.I.I.I.I.I.I.P.I.I.I.I.I.I.I.I.I.P.P.I.I.I.I.I.I.I.I.I.I.I.I.I.I.I.I.I.F.=._ u , + . . + u D._.=.' ^ 8 % # # # & a $.;.;.F.K.F.S.;.$.` Y d d d d d d d d f Y h Y f d d d d d f Y Y Y a 7 * & 7 @.}.,X}.P.$.7 7 $.I.cXZXZXMX9XI.P.P.P.I.I.I./.'.'.|.6X7XrXuXlXcXbXbXcXgX9XN.p * & I.CXZXZXZXZXBXcXcXxXxXxX",
"-.;.;.;.*.;.*.*.;.;.;.-.$.` ` ` ` 7 # # # # # * ` F.I.I.I.I.I.I.I.I.I.I.I.I.I.I.I.I.I.I.I.I.I.I.I.P.P.P.P.F.F.F.F.;.;.;.;.;.;.F.F.F.F.F.F.F.S.;. .7 % # & * > & # * a ;.;.&.$.' F.$.& p &.;.;.;.F.'.'.{.|.|.I.I.P.P.P.I.I.I.I.I.I.I.P.I.I.I.I.I.I.I.I.I.P.I.I.I.I.P.I.I.I.I.P.I.I.I.F.;.@.I r + . . + , U =.{.wXwX>X;.-.$.` ` d 1 # # # # 1 h $.&.;.;.;.$.^ f d d d d d d d d h Y Y Y Y f d f h Y Y h p 1 & # # # * h $.$.` ^ h 1 1  .P.xXZXZXvX,XI.I.I.I.I.I.I.I.I.I.I.I.I.I.P.I.I.I.'.6XxXBX8XF. .* # $.cXZXZXZXZXZXZXZXMXcXyX",
"-.-.;.;.;.;.;.;.;.;.;.&.` ` ` ` ` 1 # # # # * >  .F.P.I.I.I.I.I.I.I.I.I.I.I.I.I.I.P.P.F.F.F.F.F.F.S.;.;.;.;.;.;.;.S.F.F.F.P.P.I.I.I.I.I.I.I.I.K.F.&.h * * & > % # # # 1 ^ ' ` ` ' ;.8 % ` ;.;.;.;.F.P.P.P.P.I.I.I.I.I.I.I.I.I.I.I.I.I.I.I.I.I.I.I.I.I.I.I.I.P.P.I.I.I._._.I.F.=._ u + . . . + u #._.8XyXtX9X|.'.F.=.;.;.*.@.` ` ^ a > # # # # 1 a ( ' ' ` Y h h h h f f f Y h Y h h h h d f d p 7 > % # & 1 0 h ^ '  . . .h 1 # % ` r.iXZXZXxX{.P.I.I.I.I.I.I.I.I.I.I.I.I.I.I.I.I.I.I.I.I.tXtXI.;.;.p # h |.CXZXZXZXZXxX8X'.F.;.",
";.;.;.;.;.;.;.;.;.;.-.' ` ` ` ` ^ * # # # * & 1  .F.I.I.I.I.I.I.I.I.P.K.F.F.F.F.;.;.;.;.;.;.;.;.;.;.;.r.F.F.F.K.P.I.I.I.I.I.I.I.I.I.I.I.I.I.I.I.I.F.;. .p * * % # # # # * a ` ` ` ' ' > 1 $.;.;.-.;.P.I.I.I.I.I.I.I.I.I.I.I.I.I.I.I.I.I.I.I.I.I.I.I.I.P.P.I.I.I.I.K.S.@.T w + + + , u O.K.,XtXiXyX8X|._.I.I.I.I.P.F.;.;.;.-.@.` ` ` ^ y & # # # # & > 1 1 1 1 1 1 > > * * 6 6 1 1 & & & & & % # & 1 p ' N.'.6XtXtX|.P.F.r.&.8 # 8 &.6XCXZXgX'.P.I.I.I.I.I.I.I.I.I.I.I.I.I.I.I.I.I.I._.I./.}.I.F.;.;. .& 7 ;.uXZXZXZXcXP.;.*.;.;.",
";.;.;.;.;.;.-.-.;.;.$.` ` ` ` ` h & # % * * * 1 $.F.I.I.I.P.F.F.F.S.;.;.;.;.;.&.;.;.;.;.;.N.F.F.F.K.P.I.I.I.P.I.I.I.I.I.I.I.I.I.I.I.I.I.I.I.I.I.I.I.I.;.;.h 1 # # # # # # # 6 Y ` ` ` d & p &.;.;.;.F.I.I.I.I.I.I.I.I.I.P.I.I.I.I.I.I.I.I.I.I.I.I.I.I.I.F.S.-.@.I u w < u T t._.<XrXyXuXwX6X{.I.K.F.F.P.I.I.I.I.P.I.F.;.;.;.;.$.' ` ` ` h 1 # # # # # & & > 1 6 7 7 9 p a a a a 8 y p a h ( @.S.}.9XgXbXMXvXgX9X{.F.r.;.;. .* # ^ ;.iXZXyXI.P.I.I.I.I.I.I.I.I.I.I.I.I.I.I.I.I.I.I.I.I.I.I.P.I.F.;.;.*.f & ' I.bXZXZXvXF.;.;.;.;.",
";.;.;.;.;.;.;.;.;.&.` ` ` ` ` ` a & & * & > & 7 &.P.I.P.F.;.;.;.;.;.;.;.;.;.;.F.F.F.F.F.K.P.I.I.I.I.I.I.I.I.I.I.I.I.I.I.I.I.I.I.I.I.I.I.I.I.I.I./.I.I.F.;.$.Y 7 % # # # # # # & p ^ ` ` 8 $ ` ;.;.;.;.P.I.I.I.I.I.I.I.I.I.I.I.I.I.I.I.I.I.I.I.I.P.P.D.=.#.#.=.K.'.>X7X8X7X6X>X}.'./.I.P.K.P.P.P.I.I.I.I.I.I.I.I.I.I.I.P.F.;.;.;.&.' ` ` ` Y > # & 7 h ' &.;.F.F.P.I.I.'. X|.6X8XwXyXgXcXvXMXMXBXMXbXiXwX>X_.K.F.;.;.;.;.;. .& # 8 &. XMX|.K.I.I.I.I.I.I.I.I.I.I.I.I.I.I.I.I.I.I.I.I.I.I.I.I.I.F.;.;.;.$.1 8 &.6XZXZXMXI.;.;.;.;.",
";.;.;.;.-.;.;.;.&.' ` ` ` ` ` ` 8 * 1 > * & # p ;.P.P.F.*.;.;.;.;.F.F.F.P.P.I.I.I.I.P.P.I.I.I.I.I.I.I.I.I.I.I.I.I.I.I.I.I.I.I.I.I.I.I.I.I.I.I.I.I.I.I.I.S.;.@.` a > # # # # # # # 1 f ` ^ & 1 &.;.;.;.F.I.I.I.I.I.I.I.I.I.I.I.I.I.I.I.I.I.I.I.P.'.|.|.|.6X9X7X6X'.I.P.F.F.F.F.P.I.I.I.I.I.I.I.I.I.I.I.I.I.I.I.I.I.I.I.I.I.P.F.;.;.&.` ` ` ` 6 & h ;.|.iXxXvXMXMXMXBXBXCXZXZXAXZXZXZXCXMXvXlXyX7X XI.F.F.F.;.;.;.F.F.P.I.F.;.8 # # h ;.yXgXI.P.I.I.I.I.I.I.I.I.I.I.I.I.I.I.I.I.I.I.I.I.I.I.I.I.I.F.;.;.;.F & ` N.iXZXMX'.;.;.;.;.",
";.;.;.;.;.;.&.$.' ` ` ` ` ` ` ` i * * * & # & ' F.P.K.;.;.;.;.F.P.I.I.I.I.I.I.I.I.I.I.I.I.I.I.I.I.I.I.I.P.P.P.P.P.I.I.I.I.I.I.I.I.I.I.I.I.I.I.I.I.I.I.I.K.;.&.' ` ^ y & # # # # # # & 7 h 8 # h ;.;.;.;.I.I.I.I.I.I.I.I.I.I.I.I.I.I.I.I.I.I.I.P.I.I.I.I.I.P.I.P.K.P.I.I.I.I.I.I.I.I.I.I.I.I.I.I.I.I.I.I.I.P.I.I.I.I.I.I.I.I.I.F.;.;.' ` ` h & 6 ;.F.gXZXZXZXZXZXZXZXZXZXMXvXlXyXtX9X>X}.'.I.F.F.F.r.;.;.S.F.F.P.I.I.I.I.P.;.$.1 # & h F.lX9XI.I.I.I.I.I.I.I.I.I.I.I.I.I.I.I.I.I.I.I.I.I.I.I.I.I.I.F.;.;.&.y >  .I.bXBX'.;.;.;.;.",
"$.' ` ` ` ' ` ` ` ` ` ` ` ` ` ^ 6 * * % # # 8 ;.F.P.F.;.;.;.F.P.I.I.I.I.I.I.I.I.P.P.K.F.F.F.F.F.F.N.;.;.;.;.;.;.;.;.;.F.P.I.I.I.I.I.I.I.I.I.I.I.I.I.I.I.P.F.;.&.` ` ` h 7 & # # # # # # & & # 1 &.;.;.;.F.I.I.I.I.I.I.I.I.I.I.I.I.I.I.I.I.I.I.I.I.I.I.I.I.I.I.I.I.I.I.I.I.I.I.I.I.I.I.I.I.I.I.I.I.I.I.I.I.I.I.I.I.I.I.I.I.I.I.I.F.;.@.` ^ 1 # h ;._.MXZXZXZXZXZXMXxXtX6X'.I.I.P.K.F.F.F.F.r.N.F.F.F.F.P.P.I.I.I.I.I.I.I.I.F.;.^ & # & F _.xX XP.I.I.I.I.I.I.I.I.I.I.I.I.I.I.I.I.I.I.I.I.I.I.I.I.I.I.K.F.;. .1 1  .}.9XF.;.;.;.;.",
"d w , , 3 s ^ ` ` ` ` ` ` ` ` d % * % # # % ` F.P.F.;.;.;.F.I.I.I.I.I.I.I.P.F.F.F.S.F.;.;.;.;.&.&.$.$.@. .@.@.$.&.;.;.;.F.I.I.I.I.I.I.I.I.I.I.P.I.I.I.I.I.I.F.;.$.` ` ` ` f 1 # # # # # # # & & ^ ;.;.;.F.I.I.I.I.I.I.I.I.I.I.I.I.I.I.I.I.I.I.I.I.I.I.I.I.I.I.I.I.I.I.I.I.I.I.I.I.I.I.I.I.I.I.I.I.I.I.I.I.I.I.I.I.I.I.I.I.I.I.P.;.;.@.` 7 # & ' ;.6XZXZXZXCXxX9X'.I.P.P.P.F.F.F.F.F.F.F.F.K.I.I.I.I.I.I.I.I.I.I.I.I.I.I.I.I.;.&.h & # & ^ |.uXI.I.I.I.I.I.I.I.I.I.I.I.I.I.I.I.I.P.I.I.F.F.F.P.I.I.P.I.I.F.;.' 1 * ` $.@.@.@.@.$.",
", , , , 3 < 3 d ^ ` ` ` ` ` ` 7 # # # # # p ;.F.F.;.;.;.F.P.I.I.P.F.F.F.S.;.;.;.;.;.*.-.$.' ' ` ` ^ ^ Y Y Y Y ^ ` $.;.;.F.I.I.I.I.I.I.I.I.I.I.I.I.I.I.I.I.I.P.;.&.' ` ` ` ` ( d 1 # # # # * * * 9 &.;.*.;.P.I.I.I.I.I.I.I.I.I.I.I.I.I.I.I.I.I.I.I.I.I.I.I.I.I.I.I.I.I.I.I.I.I.I.I.I.I.I.I.I.I.I.I.I.I.I./.I.I.I.I.I.I.I.I.K.F.;.;.-.' d & # 6 &.F.iXZXZXcX6XI.I.P.I.I.I.P.K.F.P.I.I.I.I.I.I.I.I.I.I.I.I.I.I.I.I.I.I.I.I.I.I.F.;.&.h & # & Y '.'.I.I.I.I.I.I.I.I.I.I.I.I.I.I.I.I.F.F.;.;.;.;.;.F.F.P.I.I.I.P.N.' 6 * a ` ` ` `  .",
"w 3 w e u e e e p ^ ` ` ` ` Y & # # # # *  .F.K.;.;.;.;.F.F.F.F.;.;.;.-.-.&.&.-.$.@. .` ^ Y f f f d d d d d d d f ` &.;.;.P.I.I.I.I.I.I.I.I.I.I.I.I.I.I.I.I.P.F.;.&.` ` ` ` ` ` ^ 7 # # & * * & % h ;.;.;.F.I.I.I.I.I.I.I.I.I.I.I.I.I.I.I.I.I.I.I.I.I.I.I.I.I.I.I.I.I.I.I.I.I.I.I.I.I.I.I.I.I.I.I.I.I.I.I.I.I.I.I.I.I.F.F.;.;.;.&.@.^ 1 # # d ;.I.vXZXZX6XF.I.I.I.I.I.I.I.I.I.I.I.I.I.I.I.I.P.P.I.I.I.I.I.I.I.I.I.I.I.I.I.I.I.F.;.;.h & # & h ;.K.I.I.I.I.I.I.I.I.I.I.I.I.I.F.F.;.&.$.' ' $.-.-.;.;.P.I.I.I.P.F.$.p & 7 Y ' @. .",
"F.=.O.T I I U s U @.` ` ` ^ 7 # # # # # a ;.F.S.;.;.;.;.;.;.;.&.&.$.$.' ' ' ` ' ^ Y f d d d d d d d d d d d d d d h ' -.;.F.I.I.I.I.I.I.I.I.I.I.I.I.I.I.P.K.I.F.;.&.` ` ` ` ` ` ` 8 # # & * & & # 1 &.*.;.F.P.I.I.I.I.I.I.I.I.I.I.I.I.I.I.I.I.I.I.I.I.I.I.I.I.I.I.I.I.I.I.I.I.I.I.I.I.I.I.I.I.I.I.I.I.I.I.I.I.I.P.F.S.;.;.&.$.@.' ` 8 # # & ` ;.|.MXZXbX'.P.I.I.I.I.I.I.I.I.I.I.I.I.I.I.I.I.I.I.I.I.I.I.I.I.I.I.I.I.I.I.I.I.I.P.S.;.-.h & # & h ;.F.I.I.I.I.I.I.I.I.I.F.F.;.;.$.' ( Y ^ ` ` &.;.;.r.P.I.I.I.I.P.F.;.^ > * a ^  .",
"r.I.{.{.|.|.|.{.{.;.( ^ f 7 # # # # # > $.F.F.;.;.;.&.&.&.$.@.' ' ` ` ^ Y Y Y Y Y f f f d d d d d d d d d d d d d d ^ $.;.F.P.I.I.I.I.I.I.I.I.I.I.I.I.I.I.P.F.F.;.$.` ` ` ` ` ` ` 1 # * * * & # # & ( ;.;.;.F.I.I.I.I.I.I.I.I.I.I.I.I.I.I.I.I.I.I.I.I.P.I.I.I.I.I.I.I.I.I.I.I.I.I.I.I.I.I.I.I.I.I.I.I.I.I.P.F.F.;.;.&.$.' ` ` ` ` h & # # * $.F.wXZXZXwXI.I.I.I.I.I.I.I.I.I.I.I.I.I.I.I.I.I.I.I.I.I.I.I.I.I.I.I._.I.I.I.I.I.I.I.P.;.;.;.^ * # & h ;.K.I.I.I.I.P.P.F.F.;.&.@.` ^ f d d d ^ `  .;.;.F.I.I.I.I.I.I.I.F.;. .8 * > 9 ",
"1 1 7 7 8 8 8 p 8 1 > & % # # # # # # 7 $.-.$.$.$. .' ` ` Y h f d a i 8 8 p p p 7 7 8 y p a d f h h f d d d d d d d f ' ;.;.F.I.P.I.I.I.I.I.I.I.P.P.P.F.F.F.;.;.$.` ` ` ` ` ` ` ` 1 * * & % # # & # p $.;.;.;.F.P.I.I.I.P.I.I.I.I.I.I.I.I.I.I.I.I.I.I.I.I.I.I.I.I.I.I.I.I.I.I.I.I.I.I.I.I.I.I.I.I.I.I.F.F.;.-.$.' ' ` ` ` ` ` ` ^ 1 # # # 7 -.P.lXZXlXI.I.I.I.I.I.P.K.K.P.P.I.I.I.I.I.I.I.I.I.I.I.I.I.I.I.I.I.I.I.I.I.I.I.I.I.I.P.F.;.;.;.' 1 # & h ;.F.I.K.F.F.;.&.o.' ` ^ Y f d d d d f ^ ' &.;.I.I.I.I.I.I.I.I.I.I.F.$.p * & ",
"# # # # # # # # # # # # # # # # # # # * p a p 8 7 1 1 * * & % % # # # % * * % % # # # # # # & & > 1 8 d f h f f d d f ( $.;.;.F.F.F.F.F.F.F.F.F.N.;.;.;.&.&.$.' ^ f f f f f f h ^ 7 * > * # # 8  .a 1 ` ' =.;.;.S.F.I.I.P.I.I.I.I.I.I.I.I.I.I.I.I.I.I.I.I.I.I.I.I.I.I.I.I.I.I.I.I.I.I.I.I.I.I.I.I.F.S.&.@.' ` ` ` ` ` ` ` ` ` ` a # # # # a ;.'.MXBX,XK.I.I.F.F.F.F.F.K.P.I.I.I.I.I.I.I.I.I.I.I.I.I.I.I.I.I./.I.I.I.I.I.I.I.I.I.I.P.F.;.;.;. .3 # & h $.;.;.&.$.' ` ` ( Y d d f d d d d d f ( ' -.F.F.F.F.F.F.F.F.I.P.F.;.` 7 # ",
"8 1 * % # # # # # # # # # # # # # # # # # # # # # # # # # # # # # # # & & * # # # # # # # # # # # # # # & 1 p h ^ Y f ^ ` ' $.$.&.&.&.&.$.$.$.' ' ` ( ^ Y h f d d d d d d d d d h 1 * * & # # h ;.' * Y ` ' $.;.;.;.F.I.I.I.I.I.I.I.I.I.I.I.I.I.I.I.I.I.I.I.I.I.I.I.I.I.I.I.I.I.I.I.I.P.F.F.S.;.&.$. .` -.;.p 8 8 y f F._.@.` ^ * # # # # ^ ;.6XZXgXI.I.P.F.;.F.F.P.I.I.I.I.I.I.I.I.I.I.I.I.I.I.P.P.I.I.I.I.I.I.I.P.K.F.F.F.F.F.S.;.;.;.;.;.;.^ # # # * 1 7 7 8 8 y p p y y y p a a d d d f Y ` `  .&.;.;.;.&.;.&.;.&.$.' ' f # ",
";.$.` h a 9 1 & # # # # # # # # # # # # # # # # # # # # # & * 1 7 i h Y (  .' ' ' ` h p 7 * & # # # # # # # # & 7 h ` ` ` ` ` ` ` ` ^ Y Y f f f f d d d d d d d d d d d d f h h 6 > * * % # % ' ;. .* 8 ` ` ` @.&.;.;.F.P.I.I.I.I.I.I.I.I.I.I.I.I.I.I.I.I.I.I.I.I.I.I.I.P.P.P.F.F.F.;.&.;.$.@. .' ` ` ` |.vXwX{._.,XiXMXxX;.` 8 & 6 p * & ' F.tXCX,XP.I.P.F.;.F.I.I.I.I.I.I.I.I.I.I.I.I.I.I.I.I.I.P.F.F.F.F.;.;.;.;.;.;.;.;.;.;.;.;.-.&.&.$.^ 8 6 8 p p p 8 8 8 9 7 6 1 1 1 * * * & & & & & * > 1 1 8 a h ^ ( ' @. .' ` ^ f 1 # ",
"K.F.F.&.` ` ( h y * # # # # # # # # # # # # # & 1 7 p h `  .&.;.F.I.I.I.I.I.I.I.I.P.I.F.F.;. .h 7 * # # # # # # # & p ` ` ` ` ` ` Y d d d d d d d d d d d d d d d d f f f h a 6 & * # # # # 1 $.;.&.h * Y ` ` ` ' &.;.;.F.I.I.I.I.I.I.I.I.I.I.I.I.I.I.I.I.I.I.I.P.P.F.F.F.r.;.&.$.'  .` ` ` ' ' ` ` ` ` $.8XMXAXAXZXbXrXF.` h & p &.;.h * $.P.xXgXI.I.I.K.;.;.I.I.I.I.I.I.I.I.I.I.I.I.I.I.I.I.P.F.F.N.;.;.;.;.;.;.;.&.&.$. .' ( ' ' ' '  . . .&.F._.'.{.'.'./.I.P.F.F.;.&.$.$. .' ` ^ h h a i 7 1 > & % # & 1 7 a a p 7 - # # # ",
"I.I.P.-.` ` ` ` ` a % # # # # # # # % 1 8 h ` $.;.F.F.K.K.I.I.'.'.'.'.'.{.}. X X X}.'.'.'._.I.P.F.-.` y * # # # # # # p ` ` ` ` ^ f d d d d d d d d f f f f d a p 8 7 7 1 * * * & # # # # & ` ;.;.;.&.a 1 ^ ` ` ` ' &.;.;.F.I.I.I.I.I.I.I.I.I.I.P.F.F.F.F.S.r.;.;.;.-.&.@.' ` ` ` ^ Y i 8 3 3 y Y ` ` ` ` ' ;._.'.I.;.' ` ` 7 1 $.;.;.' 1 &._.cX>XP.I.I.F.;.;.I.I.I.I.I.I.I.I.I.I.I.I.I.I.I.I.I.N.;.N.;.;.;.$.^ a 8 1 1 7 p h '  .&.;.F.I.|.9XgXvXMXMXbXbXvXvXvXcXcXxXxXgXyXtXwX9X6X|.}.'.I.P.F.;.&. .` h 8 * # # # # # # # # * ",
"I.F.;.` ` ` ` ` ( 1 # # # # # # # 1 ^ $.;.F.F.P.I._.{.>X8XrXuXxXcXvXvXcXcXlXiXyXwX8X6X|. X}.'._.I.I.I.P.-.h 1 # # # # % d ` ` ( f d d d d d d d d p 8 1 > & % # # # # % 1 > * & # # # # # # a  .&.;.;.&.p 6 ^ ` ` ` ' ;.;.;.F.I.I.I.I.I.I.P.F.F.;.;.;.;.-.&.&.$.@.' ` ` ` ` ` ^ a ,       . . .   8 Y ` ` ` ` ^ ( ` ` ` ` h * ^ ;.*.;.$.p ;.'.9XP.I.I.I.F.;.F.I.I.I.I.I.I.I.I.I.I.I.I.I.I.I.I.P.F.;.;.;. .a > # % 1 a ` $.;.S.F.I.|.9XgXbXMXbXxXuX9X8X6X,X,X,X6X6X8X9X9XwXtXyXuXiXiXgXgXgXgXiXyXrX9X6X}.F.;. .1 # # # # # # 8 $.",
"F.;.' ` ` ` ` ` a # # # # # # & a $.;.F.K.P. XrXlXbXMXMXMXvXlXuXwX7X,X|. X}.'.'.'.'.'.'.'.'.'.'.'.'.I.P.P.K.;.^ 1 # # # & h ` Y f f d a 8 3 1 * & # # # # # # # # # # # & * % # # # # # # # # * 7 g (  .' * 1 Y ` ` ` @.;.;.N.F.I.I.I.I.F.;.;.;.;.;.-.$.@.' ` ` ` ` ` ` ` ` f > . . . . . . . . . .   8 Y ` ` ` ` ` ` ` ` 8 1 $.*.;.;.;.j ;.I.I.I.I.P.I.r.;.F.I.I.I.I.I.I.I.I.I.I.I.I.I.I.I.P.K.S.;.$.f * # & p ` &.;.F.I.|.9XgXvXMXMXlXtX6X|.}.}. X}.}.}.'.'.'.'.'.'.'.'.'.'.'.'.'.'.'.'.'.}.}.}.{.'._.P.;.;.' * # # # % h '.gX",
";.@.` ` ` ` ` Y * # # # # # & h -.;.F.I./.rXMXbXlXtX9X6X|.}. X}.'.'.'.'.'.'.'.}.'.'.'.'.'.'.'.'.'.'.'._.I.I.P.I.-.7 # # # & 7 7 3 1 * & # # # # # # # # # # # # # # # # # % # # # # # # # # # # # # # & & # # * a ` ` ` $.;.;.r.F.P.F.F.;.;.;.&.&.@.' ` ` ` ` ` ` ` ` ` ` h 1   .       % , > , , > &   1 p ^ ` ` ` ` ` Y & 8 &.*.;.N.N.( ( ;.F.P.I.P.F.;.;.F.I.I.I.I.I.I.I.I.I.I.I.I.I.I.P.F.;.;.' 7 # # 8 ' ;.F./.6XyXcXMXZXCXgX9X|.'.'.'.'.}.|.}.}.}.'.'.'.'.'.'.'.'.'.'.'.'.'.'.'.'.'.'.'.'.'.'.'.'.'.F.;.;.h & # # p tXBXZX",
"$.' ` ` ` ` ` 7 # # # # # & h ;.;.F.I.6XxXCXMX7X'.'.'.'.'.'.'.}.'.'.'.'.'.'.}.}.'.'.'.'.'.'.'.'.'.'.I.I.I.I.I.I.I. .& # # # # # # # # # # # # # # # # # # # # # # # # # # & 1 1 1 * #   # # # # # # # # # # # # & 8 (  . .&.;.;.;.N.;.;.;.=.$.' ` ` ` ` ` ` ` ` ` ` ` `  ./.s > , 1 3 3 3 3 3 3 3 3 3 3 1 3 8 Y ` ` ` ` a # h ;.;.N.;.;.$.* 7 ^ -.F.F.S.;.;.F.I.I.I.I.I.I.I.I.I.I.I.I.P.F.;.;.;.' 1 # # p &.I.9XgXMXCXZXMXMXZXZXgX}.'.'.'.'.'.}.}.}.'.'.'.'.'.'.'.'.'.'.'.'.'.'.'.'.'.'.'.'.'.'.'.'.'.'.'.'.F.;.&.p # # 7 iXZXZX",
"@.' ' ` ` ` d % # # # # % h &.;.F.{.iXMXZXCXCXvX8X}.'.'.'.'.'.'.}.'.'.'.'.'.}.'.'.'.'.'.'.'.I.I.I.I.I.I.I.I.I.I.I.;.1 # # # # # # # # # # # # # # # # # # # # # % * 7 a ` -.P.'.'.&.` h p 6 1 * & # # # # # # # # % 7 ` ' @.$.-.;.;.;.&.$.` ` ` ` ` ` ` ` ` ` ` ` ` ` ` ' ,XtXP.^ y 3 3 3 3 3 3 3 3 3 3 3 3 1 d ` ` ` ` 7 *  .;.;.;.;.;.h % # % 1 f  .&.;.;.F.P.P.I.I.I.I.I.I.I.P.F.F.;.;.;.;.' > # # p &.I.cXZXZXZXMXyX|.|.8XuXcXlX6X'.'.'.}. X X}.'.'.'.'.'.'.'.'.'.'.'.'._._._.I.I.I.I._.'.'.'.'.'.'.'.'.I.F.;. .1 # # N.MXZX",
"@.' ' ` ` h * # # # # # p -.;.F.8XMXMXgXwX6X8XuXvXlX8X}.'.'.'.'.'.'.'.'.'.'.'.'.'._.I.I.I.I.P.P.I.I.I.I._.I.I.I.K.$.* # # # # # # # # # # # # # # # # # & 1 8 h  .F.'.6XwXyXiXyX6XF.F.;.;.;.&. .' h p 1 % # # # # & * 6 ( ` ` @.&.&.@.` ` ` ` ` ` ` ` ` ` ` ` ` ` ` ` ` ` ' _.uXxXuX7X{.K.;.$.o.` Y f s y y ` {.' ` ` h & a ;.;.N.;.( 8 # # # # # # & 7 h $.;.F.F.F.P.P.P.I.P.F.F.;.;.;.;.;.' > # # 8 &.;.uXZXZXMXyX,X'.'.'.'.'.}.6XrX7X}. X X}.'.'.'._._.I.I.I.I.I.I.I.P.I.P.P.P.P.P.P.P.P.I.I.'.'.'.'.'.'.'.I.;.-.` * # 1 9XZX",
"( h a 8 1 & # # # # # >  .;.;.I.yXtX XI.I.I.I.I.'.8XiXiX8X}.'.'.'.'.'.'._.I.I.I.I.I.I.I.I.I.I.I.I.I.I.I.I.I.F.P.F.^ # # # # # # # # # % & & & * 1 i Y $.F.'.6XwXyXuXgXgXuXwX,X'.I.I.P.K.F.F.F.F.F.;.;.$.^ 1 # # % * > * 1 Y ` ` ` ` ` ` ` ` ` ` ` ` ` ` ` ` ` ` ` ` ` ` ` ` ` ' ;./.,XwXyXgXlXlXgXgXiXiXuXyXiX_.` ` ^ 1 & `  .( p 6 & & 1 p h ^ ^ h p 7 1 1 8 ^ $.;.;.;.;.;.;.;.;.;.;.;.;. .1 # # 7 $.;.|.MXMXyX,X{.'.'.'.'.'.'.'.'.'.|.}.'.'.I.I.I.I.P.I.I.I.I.I.I.I.I.I.I.I.I.I.I.I.I.I.I.I.I.I.I.'.'.'.'.'.I.F.;.&.d % #  .xX",
"* & & * & % # # # # # 7 &.;.;.F.P.F.P.I.I.I.I.I.I.F.I. XwXtX7X{.I.I.I.I.I.P.P.I.I.I.I.I.I.I.I.I.P.P.I.P.F.;.F.F.;.7 # # # # # # > 8 h `  .;.P.'.6XwXyXiXgXgXgXgXgXuXtX7X|.'.'.I.I.I.I.I.I.I.I.I.I.P.F.S.;.$.a & * * & & # 1 ^ ` ` ` ` ` ` ` ` ` ` ` ( Y d d ^ ` ` ` ` ` ` ` ` ` ` ^ ( ` ` ' @.$.$.-.;.P.'.'.-.` ` f 1 # # * * * * 1 a ' ;.I.'.'.I.F.S.;.$.( p 1 1 p ^  .&.;.;.;.-.;.;.;. .1 # # * ' ;.P.gXuX,X'.'.'.}.I.F.I.9X8X'.}.{.'.I.I./.I.I.I.I.I.I.I.I.I.I.I.I.I.I.I.I.I.I.I.I.I.I.I.I.I.I.P.I._.'.'.'.I.P.N.&.' 7 # 3 _.",
" .@.&.&.$.' f 1 & # # & h &.;.;.F.P.I.I.I.I.I.P.I.I.I.K.L.I.'.{.I.P.P.I.I.I.I.I.I.I.I.I.I.I.I.P.F.S.S.-.;.S.P.;.p # # # # # * h &.;.F.F.P.'.|.6X8X9XrXtXtXtXtXrX8X|.}.'.'._.I.P.I.I.I.I.I.I.I.I.I.I.I.P.F.;.*.( 6 * # # # # 7 ( ` ` ` ` ` ` ` ` ` ' F.' Y Y -.@.` ` ` ` ` ` ` ` ` ` ` ` ` ` ` ` _ ` ` ` ` ( Y a 1 & # # & * 1 h ( $.N.'.9XyXuXyXtXrX8X'.F.;.;.&.' h 7 1 7 h ` $.;.;.;.' 1 # # % Y ;.;.'.6X'.'.'.'.'.9XgXgXcXMX8X'.}.}._.I.I.I.P.I.I.I.I.I.I.I.I.I.I.I.I.I.I.I.I.I.I.I.I.I.I.I.I.I.I.P.I.I.'./.I.P.F.;.&.^ * & ^ ",
"9XwXtXrX9X XI.;.' p * # % 7 ` &.;.;.F.F.P.I.I.P.I.I.I.I.I.I.I.P.I.I.I.I.I.I.I.I.I.I.I.P.F.F.S.;.;.;.;.;.;.F.;.h & # # # # 1  .F.P.I.'.}.|.|.}.'.'._.I.I.I./._._._.I.I.I.F.F.K.I.P.I.I.I.I.I.I.I.I.I.I.I.I.P.F.;. .7 # # # # # 8 ` ` ` ` ` ` ` ` ` @.|.9XrXrXrX X' ` ` ` ` ` ` ` ` ` ` ( ` ( ^ ^ Y h d p 8 1 & # # # # * i ^ $.F.P. XrXuXuXiXiXuXyXwX6X'.I.F.;.;.;.;.&.' a 1 & 1 7 8 8 & # # # 7 &.;.F.'.'._.I./.'.'.}.6XwX9X>X{.|.}.'.I.I.I.I.I.I.I.I.I.I.I.I.I.I.I.I.I.I.I.I.I.I.I.I.I.I.I.I.I.I.I.I.I.I.I.I.I.P.P.;.;.' p % 1 ",
"ZXZXZXZXZXMXcXrX{.;. .h 1 # % 1 h  .;.;.;.F.I.I.I.I.I.I.I.I.I.I.I.I.I.I.I.I.I.I.I.P.F.r.;.&.&.&.;.;.;.N.F.;.h & # # # # & ' F.F.S.S.F.F.P._.|.7XrXyXiXiXyX9X6X|.'.K.r.t.#.u w =.I.P.K.P.I.I.I.I.I.I.I.I.I.I.I.F.N. .> # # # # % y ` ` ` ` ` ` ` ` ` ` ` '  .' ` ^ h h a p y 8 7 3 1 1 1 1 1 * * & % # #     # # & i h $.;._.|.9XyXiXiXiXuXtX8X|.'.I.P.P.I.P.F.;.;.;.;.;.;.&.) a > # # # # # # ^ ;.F.'.'.I.=.#.#.=.S.K._.'.'.'.}.}.'.I.I.I.I.I.I.I.I.I.I.I.I.I.I.I.I.I.I.I.I.I.I.I.I.I.I.I.I.I.I.I.I.I.I.I.I.I.I.I.P.F.;.$.` 1 # ",
"CXBXMXMXMXBXCXCXMXgX6XF.$.h 1 # # * p ( &.;.;.F.P.I.I.I.I.I.I.I.I.I.I.I.P.K.F.F.;.;.&.&.$.$.-.;.;.;.S.F.-.f & # # # # # p ;.I.S.S.S.S.S.S.S.D.S.F.I.'.,XwXgXvXMXMXcXiXrX8X>XU + u -.K.P.P.I.I.I.I.I.I.I.I.I.I.I.F.;.` * # # # # % 8 ^ ` ` ` ( ^ Y h d p 8 7 1 1 1 7 9 8 8 8 8 9 7 1 1 * * & & & * * > 1 7 p h ' ;.I. X6XrXyXuXuXuXyX9X6X{.I.I.P.P.P.I.I.P.K.F.;.;.;.;.;.;.;.;.&. .h 1 # # # > $.;.I.'.F.#.@.o.o.o.@.#.=.r.I.|. X'.I.I.I.I.I.I.I.I.I.I.I.I.I.I.I.I.I.I.I.I.I.I.I.I.I.I.I.I.I.I.I.I.I.I.I.I.I.I.I.I.I.F.;.&.' p # ",
"wX7X6X6X6X8X9XtXuXxXvXcXwX'.;.h 1 # # & 8 ` $.=.;.F.F.P.I.I.I.I.I.I.I.P.S.;.-.&.$.$.&.$.;.-.;.-.;.;.F.$.a % # # # # # & ` P.I.S.S.S.S.S.S.S.S.S.S.S.S.S.S.P.}.rXvXZXZXCXvXuX9X-.+ + U r.P.P.I.I.I.I.I._.I.I.I.P.P.N.;.` & # # # # # 1 7 7 1 1 * & # # & 1 a ^ ' $.&.;.;.;.;.;.;.;.;.&.$.$. . . .$.&.;.F./.|.6X9XyXiXiXiXuXtXwX6X X_.I.F.F.I.I.I.I.P.F.F.F.;.;.;.;.;.;.;.;.&.$.' ` ` ^ 1 # # 7 &.P.'.'.r.@.o.o.o.o.o.o.@.@.D.,X'.I.I.P.I.I.I.I.I.I.I.I.I.I.I.I.I.I.I.I.I.I.I.I.I.I.I.P.I.I.I.I.I.I.I.I.I.I.I.I.I.I.I.F.;.-.' h & ",
"'.'.'.'.'.'.'.'.'.I.'.|.6X9X8X'.;.h 1 # # * p ( ' $.-.;.F.F.P.P.P.I.I.I.F.S.;.>.>.-.-.-.;.F.F.F.S.;.' 8 % # # # # # # i ;./.P.S.S.S.S.S.S.S.S.S.S.S.S.S.S.S.F._.|.yXBXZXZXZXcX|.F.U . + _ F.I.P.I.I._._.I.I.P.I.I.P.S.;.^ & # # # # # # # # # # # * f @.;.F.F.F.P.I.I.I.I.I.I.I.I.I.I._.'. X|.6X8XwXtXyXyXuXuXuXiXyX9X6X}.'.I.I.P.I.I.I.P.F.F.F.N.;.;.;.;.;.;.;.;.-.&.@.' ` ` ` ` ` Y * # # 8 ;.I.'.|.yXyX8X6X,X7X8XwXyXyXxXyXI.I.I.I.I.I.I.I.I.I.I.I.I.I.I.I.I.I.I.I.I.I.I.I.I.I.I.I.I.I.I.I.I.I.I.I.I.I.I.I.I.I.I.F.;.;.' ^ * ",
"'.'.'.'.'.'.'.'.'.I.I.I.I._.'.}.'.I.-.a * # # * a ^ ` ' $.&.;.;.F.F.F.F.F.K.F.7.y.F.F.P.P.F.N.;.$.^ 1 # # # # # # # 1  .F.'.I.F.F.F.F.S.S.S.S.S.S.S.S.S.S.S.D.K.'.>XvXZXZXcX8XI.;.U . . . e r.I.I.I.I.I.I.P.I.I.I.I.F.;.;.h % # # # # # # # # # 8 $.F.I. X7XwXwXtXtXrXwXwXwXwXtXtXtXyXyXuXiXiXiXiXiXuXuXuXuXwX>X'._.I.P.K.K.I.K.F.F.F.S.;.;.;.;.;.;.;.;.;.;.-.&.@.@.' ` ` ` ` ` ^ a * # # # 7 &.I.'.'. X9XuXgXlXlXgXyXtXwX8X'.I.P.I.I.I.I.I.I.I.I.I.I.I.I.I.I.I.I.I.I.I.I.I.I.I.I.I.I.I.I.I.I.I.I.I.I.I.I.I.I.I.I.P.F.;.;.' ( 1 ",
"'.'.'.'.'.'.'.}.I.P.I.I.P.I.I.'.'.'.'.I.;.d * # # 1 a ^ ` ` '  .$.&.;.;.;.;.;.;.;.;.;.;.;.&.@.' a * # # # # # # # > ' S.'.'.'.'.'.'._._.I.I.I.I.I.I.I.K.K.P.I.|.uXMXMXyX=.s r < + . . , u + + u o.F.I.I.P.P.P.P.I.P.I.K.@.e   # # # # # # # # 8 &.F.I.'.tXiXiXiXiXiXiXiXiXiXiXiXiXiXiXiXiXiXiXiXiXuXiXuXuX7XI.I.I.I.P.F.F.F.;.;.;.;.;.*.;.;.;.;.;.;.;.;.$.@.' ' '  .' ' ` ` ` a 1 # # # # # *  .N.'.'.'.'.'.'.'.'.I.P.K.L.P.P.I.I.I.I.I.I.I.I.I.I.I.I.I.I.I.I.I.I.I.I.I.I./.I.I.I.I.I.I.I.I.I.I.I.I.I.P.P.I.I.I.I.I.F.;.&.` ` 1 ",
"_._._.'.'.'.'.'.I.P.I.I.P.I.I.I.I.I.'.'.'.I.;.f > # # > a ^ ` ` ` ' ' $.&.&.&.&.&.$.' ' ' ` Y 7 % # # # # # # # 1 ` ;._.'.'.'.'.}.[.}.}.}.}.'.'.'.'.'.'.'.|.tXvXxX9XF.I T r.t.O.U U D.wXwX{.K.@.U u s T @.;.F.F.F.;.` r . . .   # # # # # # % ^ ;.P.I.I. X7X9XwXwXwXwX9X9X9X9X9X9X9X8X7X7X7X6X6X9XyXuXiXtXI.F.F.F.;.;.;.-.;.;.;.;.;.*.;.;.;.;.;.;.;.$.' ` ` ' @.' @.' ` ` f 1 # # # # # # # # h ;.I.'.'.'.'.'.'.I.P.P.P.I.I.I.I.I.I.I.I.I.I.I.I.I.I.I.I.I.I.I.I.I.I.I.I.I.I.I.I.I.I.I.I.I.I.I.I.I.I.I.F.S.F.P.I.I.I.F.;.$.` ( 1 ",
"I.I.I.I.'.'.'.'.I.P.I.P.P.I.I.I.I.P.I.I.'.'.'./.;.h 1 # # * 8 h ` ` ` ` ` ` ` ` ` ` ` ` ^ 8 & # # # # # # # # 1 ' ;._.'.'.'.'.'.}.}.}.}.|.}.}.'.'.'.'.{.9XlXyX>XP.;.u.). X X|.6X,X{.{.I.L.L.I.I./.P.r.` d , , w , < w w u s w + # # # # # # # ^ F.I.I.I.I.I.I.I.I.I.I.I.I.I.I.I.I.I.I.I.I.L.L.L.I.|.yXuXtXI.;.;.;.;.;.;.-.-.-.$.@.o.' ' ' ' $.;.;.$.` ` ` ` ' @.' ` ` ` p & # # # * 1 & # # # * ' ;.'.'.'.'.'.I.P.P.P.P.I.I.I.I.I.I.I.I.I.I.I.I.I.I.I.I.I.I.I.I.I.I.I.I.I.I.I.I.P.I.I.I.I.I.I.I.I.F.;.o._ ` F.F.F.F.F.=.' ` ^ 1 ",
"I.I.I.I.'.'.'.'.I.L.I.I.I.I.I.I.I.I.I.I.I.I._.'.'.I.;.^ 7 & # & 1 p h ^ ` ` ` ` ( ^ f 7 & # # # # # # # # # 7 @.F._.'.'.'.'.'.}.'.}.|. X X}.'.'.'.'.>XtX9X'.I.P.K.W.&X&XR.P.P.P.I.P.P.I.I.I.P.P.I.I.I.F.` + + T {.,X>X{.'.I.;.@.8 # # # # # # 8 ;.F.I.I.I.I.I.I.I.I.I.I.I.I.I.I.I.I.I.I.I.I.I.I.P.P.{.tXyX_.;.;.;.;.-.;.;.&.' _ ^ ^ ^ ^ ^ ^ $.F.$.` ` ` ` ' @.' ' ` ` a % # # & g  .&.@.p % # # 7 $.F.'.'.'._.I.I.I.I.I.I.I.I.I.I.I.I.I.I.I.I.I.I.I.I.I.I.I.I.I.I.P.I.I.I.I.I.I.I.I.I.I.I.I.I.I.I._.F.D.F./.6XwX8X'.;.@.` ` ^ * ",
"I.I.I.I._.'.'.'.I.R.E.Q.W.I.I.I.I.I.I.I.P.P.P.I.I.'.'._.F. .a 1 # # & * 3 7 8 7 1 * # # # # # # # # # # % a &.F.'.'.'.'.'.'.}.'.}.}. X}.}.'.[.'.'.8XiX'.K.P.I.I.I.R.%X%XR.I.I.I.I.I.P.I.I.I.I.I.I.I.F.U . , '.tX'.P.F.F.F.K.F.-.^ & # # # # & *  .S.I.P.I.I.I.I.I.I.I.I.I.I.I.I.I.I.I.I.I.I.I.I.I.I.P.{.tX6X;.;.-.;.-.-.;.$.^ _ ^ ^ ^ ^ ^ $.F.;.` ` ` ` ' ' ' ' ` ` f & # # & ^ ;.;././.&.y % # # h ;.I.'.'.I.P.I.I.I.I.I.I.I.P.I.I.I.I.I.I.I.I.I.I.I.I.I.I.I.I.P.I.I.I.I.I.I.I.I.I.I.I.I.I.I.I.I.rXcXcXvXcXxXiXwX'.$.` ` ` Y & ",
"I.I.I.P._.'.'.'.I.oXsX*XR.I.I.I.I.I.I.I.I.P.I.I.I.I.I._.'.I.F.&.^ 1 # # # # # % & & & & # # # # # # # * ^ ;.I.'.'.'.'.'.'.'.}.'.}. X}.}.}.'.'.'.,XgX{.P.I.I.I.I.I.L.R.R.I.I.I.I.I.I.P.P.I.I.I.I.I.F.u . < 7X6XI.K.I.I.I.I.I.F.$.^ 1 # # # % * & h ;.F.I.I.I.I.I.I.I.I.I.I.I.I.I.I.I.I.I.I.I.I.I.I.I.I.I.|.tXI.;.-.;.;.;.;.;.' ^ ^ ^ ^ o.r.F.;.$.` ` ` o.@. .` ` ` ^ > # # & h ;.;.|.cXiXF.' 1 # # 1 $.S.'._.I.I.I.I.I.I.I.I.I.I.I.I.I.I.I.I.P.I.I.I.I.I.I.I.I.I.I.I.I./.I.I.I.I.I.I.I.I.I.I.I.I.I.I.I.'._.I.I.I.P.;.` ` ` ` h & ",
"I.I.I.P._.'.'._.I.E.&X#XW.I.P.I.I.I.I.I.I.I.I.I.I.I.I.P.I.I.I.F.;.$.7 * a h h ` ' '  .' ^ 1 # # # # 6  .F._.'.'.'.'.'.'.'.'.'.}.}. X}.'.'.'.'.}.yX6XK.I.I.I.I.I.I.I.I.I.I.I.I.I.I.I.I.I.I.I.I.P.I.I . + >X>XK.P.I.I.I.P.P.F.=.' f y # # & * > % 7 *.F.I.I.I.I.I.I.G.I.I.I.I.I.I.I.I.G.G.I.I.I.I.I.I.I.I.I.6X7X;.;.;.;.;.;.;.&.' o.=.S.F.;.*.-.' ` ` ' ' @. .` ` ` 8 # # # p ;.;.}.bXtX6XF.$.h & # # h ;.F.I.I.I.I.I.I.I.I.I.I.I.I.I.I.I.I.I.P.I.I.I.I.I.I.P.P.I.I.I.I.I.I.I.I.I.I.I.I.I.I.I.I.I.I.I.I.I.I.I.I.I.S.' ` ` ` ` y * ",
"I.P.I.P._.'.'._.I.W.R.R.I.I.I.I.I.I.I.I.I.I.I.I.I.I.I.I.P.P.P.F.;.-.@.8 $.;.;.;.;.;.;.;.;.8 # # # 1 $.P.'.'.'.'.'.}.'.[.'.'.}. X}.'.'.'.'.'.'.6XtXI.I.I.I.I.I.I.I.I.I.I.I.I.I.I.I.I.I.I.I.I.I.P.K.+ . , tXI.P.I.I.I.P.K.;.&. .^ f d > # * & 1 & *  .F.I.I.I.I.I.I.J.R.G.L.I.I.I.I.I.q.f.G.I.I.I.I.I.I.I.I.I.9X'.;.;.;.;.;.;.;.;.r.r.;.;.;.;.$.` ` ' @. .@.o.` ` h & # # 1 @.;./.cXiXI.I.F.$.` 8 # # 8 %.;.F.I.I.I.I.I.I.I.I.I.I.I.I.I.I.I.I.I.P.I.I.I.I.I.I.I.I.I.I.I.I.I.I.I.I.I.I.I.I.I.I.I.I.I.P.P.P.P.I.P.;.' ` ` ` ` ` 2 7 ",
"I.I.I.P._.'.'.'.I.I.I.I.P.P.P.I.I.I.I.I.I.I.I.I.I.I.I.I.I.I.I.I.F.;.;./ h ;.;.;.;.;.-.;.` & # # >  .F.'.'.'.'.'._.'.}.}.'.}.}.|.}.'.'.'.'.'.'.tX{.P.I.I.I.I.I.I.I.I.I.I.I.I.I.I.I.I.I.I.I.I.I.P.I.u . + wX{.I.I.I.I.F.;.$.$.` ^ Y d y * * * * & % ( ;.F.I.I.I.].].L.E.E.R.^.I.I.I.I.G.y.L.I.I.I.I.I.I.I.I.P./.7XF.-.;.;.;.;.;.;.;.;.;.-.;.:.@.' ' ' @.' ' ` ` ` 1 # # % Y ;.F.yXMX|.I.I.F.&.` ^ * # g U.6.;.F.I.I.I.I.I.I.I.I.I.I.I.P.P.P.F.F.F.F.F.F.F.S.F.F.F.F.;.;.;.S.F.F.K.I.I.I.I.I.I.I.I.I.P.K.F.F.F.-.' ` ` ` ` ` h & a ",
"I.I.I.I._.'.'.'.I._.I.I.I.I.I.I.I.I.I.I.I.I.I.I.I.I.I.I.I.I.I.I.P.;.*.&.8  .;.;.;.;.;.$.1 # # & ^ F.'.'.'.'.D._ T F.}.}. X X X}.}.'.'.'.'.'.8X7XK.I.I.I.I.I.I.I.I.I.P.I.I.I.I.I.I.I.I.I.I.I.I.I.P.=.+ . (.8XK.I.I.P.;.&.$.@.^ ^ ` h h > * & & # # a ;.F.I.I.I.I.J.G.#XsX%XI.I.I.I.I.I.I.I.I.I.I.I.I.I.I.I.I.P.{. X;.-.-.;.;.;.;.;.;.;.;.-.&.' ' ' ' ' ` ` ` ` f % # # 7 &.F.>XMXgXI.P.I.F.-.' ` 8 & 0 <.;.;.;.F.I.I.I.I.P.K.F.F.F.F.S.;.;.;.;.*.&.=.&.-.;.-.&.$.' ' ' ' ' $.&.;.;.;.F.F.F.F.F.F.F.r.;.;.;.$.` ` ` ` ` ` ` 7 # h ",
"I.I.I.I._.}. X'.I.I.I.I.I.I.I.I.I.I.I.I.I.I.I.I.I.I.I.I.I.I.I.I.F.;.;.;.h 8 &.;.;.;.;.p # # # p ;.I.'.'._.@.u U o.'.|. X}. X}.}.}.'.'.'.'.}.wX'.P.I.I.I.I.I.I.I.I.I.I.I.I.I.I.I.I.I.I.I.I.I.I.I.P.P._ . w wXI.I.I.I.;.$.$. .^ _ ' ( Y 7 & # # # # 8 &.F.P.I.I.I.J.R.#X0XW.L.I.I.I.I.I.I.I.I.I.I.I.I.I.I.I.I.I.I.|.P.&.-.-.;.;.;.;.;.;.;.;.=.^ I d d f _ ` ` ^ 1 # # # ( ;./.xXMX|.P.I.I.S.-.' ` Y & $ 3 ' $.&.;.F.F.S.;.;.;.&.&.$.$.@.' ' ' ` ` ( ^ ^ ^ ` ^ Y f f f f f f f Y ^ ^ _ ` ' ' ' ' ' o.o.' ' ' ` ` ` ` ` ` ` d & & ` ",
"I.I.I.I.'. X}._.I.I.I.I.I.I.I.I.I.I.P.I.I.I.I.I.I.I.I.I.I.I.P.K.;.;.;.;.( * ' ;.;.;.` & # # > $.F.'.'.'.o.u _ S.'.|.|. X X}.'.'.'.'.'.'.'.6X|.I.I.I.I.I.I.I.I.I.I.I.I.I.I.I.I.I.I.I.I.I.I.I.I.I.P.K.K.U . #.|.F.P.P.F.-.$.$.' ' ' ( Y 8 # # # # # 1 &.;.P.I.I.I.G.J.J.J.U.I.I.I.I.I.I.I.I.I.I.I.I.I.I.I.I.I.I.I.I.}.;.;.;.;.;.;.8.7.;.;.-.@.' I s s s ' ` ` d # # # 7 ;.F.tXCX8XI.I.I.I.r.;.@.` ` 7 # & d ` ` ' ' ' ' ' ` ' ` ` ^ ^ ^ Y Y Y f f f f f f h Y f d f f f f d d d d f f f f h Y Y ^ ( ` ` ` ` ' ' ' ` ` ` d & # *  .",
"I.I.P./.'.}.}.I.P.I.I.I.I.I.I.I.I.I.P.I.I.I.I.I.I.I.I.I.I.P.F.;.;.;.&.$.` & d ;.;.&.y # # # h ;./.'.'.r.` D.'.|.|.}.|.}.}.'.'.'.'.'.'.'.|.8XI.I.I.I.I.I.I.I.I.I.I.I.I.I.I.L.a.G.I.I.I.I.I.I.I.I.P.P.P.F.U + I F.P.P.P.F.&.$.@.o.' ` f a & # # # # * $.;.P.I.I.I.I.I.I.I.J.J.I.I.I.I.I.I.I.I.I.I.I.I.I.I.I.I.I.I.P._.I.;.;.;.;.;.U.#X6.*.$.`  .` d s I @.` ` 1 # # & ( F.>XMXyXI.I.I.I.I.;.;.&.' ` f # # & 1 1 1 1 1 1 3 3 7 7 7 8 8 7 7 8 8 8 8 p <.g y y y y y y y y y 8 y y p y y y y p p p a a d h Y h ^ h h d a 7 % # # 1 $.",
"I.I.I.I.'.}.'.I.I.I.I.I.I.I.I.I.I.I.I.I.I.I.I.I.I.I.I.P.L.u.;.-.&. .` ` ^ & 3 -.;. .* # # > $.F.'.'.'.'.|.|.}.'.|. X}.}.}.}.'.'.'.'.'.'.7X}.I.I.I.I.I.I.I.I.J.@XI.P.I.I.I.L.s.y.I.P.I.I.I.I.I.I.I.I.I.P.F.s . T K.P.P.P.;.&.$. .` ^ ) / > # # # # & ' ;.F.I.I.I.I.I.I.I.I.I.I.I.I.I.I.I.I.I.I.I.I.I.I.I.I.I.I.I.I.I._.;.;.%.%.;.8.7.;.&.' ` ` ` o._ @.' ` f % # # 7 ;./.xXlXI.P.I.I.I.P.;.;.;.' ' ^ 1 # # 1 h ( ` ` ( ( ^ ^ ^ h h h f a a p 8 8 7 G 2 * & # # # # # 1 9 a h ^ ` ` '  . .@. . . . . .&.&.*.&.&. .' ` Y 8 & # 7 -.",
"I.I.I.I.'.'.'.I.I.I.I.I.I.P.P.I.I.I.I.I.P.P.I.I.I.I.P.F.s.1.$.' ` ` ` ` ^ > & ` &.8 # # # 8 ;.I.'.'.'.{.'.'.'.'.'.}.{.'.'.[.'.'.'.'.'.|.,XI.I.I.I.I.I.I.I.I.J.J.I.I.I.I.I.I.L.I.I.I.I.I.I.I.I.I.I.I.I.P.P.F.U + -.P.P.P.F.;.&.$.` ^ ` ^ 1 # # # # - ` ;.F.I.I.I.I.I.I.I.I.I.I.I.I.I.I.I.I.I.I.I.I.I.I.I.I.I.I.I.G.G.I.F.&.Q ! ;.;.;.;.&.` ` ` ` ` ' @.` ( 1 # # % ' ^.wXvX{.I.I.I.I.I.I.F.;.;.$.` I 8 # # a '.cXvXcXxXhXcXcXxXxXxXlXlXgXgXgXuXyXyXtXrX9X>X$.> # # & ' I.yXgXxXcXcXcXcXcXcXcXcXcXcXxXxXlXgXiXyXtXwX6X/.' a # p ;.",
"I.P.I.I.'.'.'.I.I.I.I.I.I.P.P.I.P.P.I.I.P.P.I.I.P.F.;.;.$.' ` ` ` ` ` ` ^ * & 1 1 # # # # ` F.'.'.'.'.'.'.'.'.'.'.'.I.I.'.'.'.'.'.'.'.6X'.I.I.I.I.I.I.I.I.I.I.I.I.I.I.I.P.I.I.I.I.I.G.I.L.I.I.I.I.I.I.I.I.G.F.u U I.P.I.I.F.-.&.@._ Y d 7 # # # * H F ;.F.I.I.I.I.I.I.I.I.I.I.I.I.I.I.I.I.I.I.I.I.I.I.I.I.I.I.I.j.3.I.P.;.%.%.;.;.;.;.$.` ` ` ` ` ` ` ` h & # # 7 N.%XxX|.P.I.I.I.I.I.I.F.;.;.' ^ f d & # a 6XZXMXvXcXpXcXcXcXcXcXcXcXxXxXxXcXxXxXlXgXuXrX}. .1 # &  .6XZXCXcXtX7X6X6X6X,X,X>X|.|.|.|. X}.'.'.'.'.I.&.Y h % f ;.",
"I.I.I.I.'.'.'.I.I.I.I.I.I.I.I.I.I.I.L.U.G.I.P.F.;.;.$.$.' ' ` ` ` ` ` ` ^ > ^ $.a # # # 1 -.I.'.'.'.'.'.'.'.'.'.'.#.U T @.P.'.'.'.'.|.|.I.I.I.I.I.I.I.I.I.P.I.I.I.I.I.I.I.I.I.I.I.I.R.@XJ.I.I.I.I.I.I.I.I.L.G.F.I ;.I.I.I.P.F.&.$.o.Y d y $ # # # * a ;.F.I.I.I.I.I.I.I.I.I.I.I.I.P.P.I.I.I.I.I.I.I.I.I.I.I.I.I.y.G.F.S.;.;.;.-.-.;.*.$.` ` ` ` ` ` ` ` 8 # # % ' I.uX6XP.I.I.I.I.P.I.W.F.;.&.` f d f 1 # 8 |.CX6X_._.I.I.I.I.I.I.I.I.I.I.I.I.I.I.I.I.P.F.P.F.' * # ` |.BXxX|.'.'.'.'.'.'.'.'.'.}.'.'.I.'.'.'._.P.;.` d h & ^ ;.",
"I.I.I.I.'.'._.I.I.I.I.I.I.I.I.I.I.I.G.l.u.F.;.&.$.@.@.@. .` ` ` ` ` ` ` ^ 6 $.;.h # # % ^ F.'.'.'.'.'.'.'.}.}.'.'._ T =.=.D.}.'.'.'.,X_.I.I.I.I.I.I.I.I.G.G.I./.I.I.I.I.P.I.I.I.'.0X@X&XR.G.I.I.I.I.I.I.I.I.E.@Xy.:.I.I.I.I.I.S.&.$._ R p # # # # # 7 &.;.I.I.I.I.I.I.I.I.I.I.I.P.I.I.I.I.I.I.I.I.I.I.I.I.I.I.P.F.F.;.;.;.&.' ' ' $.;.=.' ` ` ` ` ` ` ^ * # # 7 ;.I. XI.I.I.I.I.I.I.I.].G.&.` ^ d d f 8 # 1 F.6XI.I.I.I.I.I.I.I.I.I.P.I.I.I.I.I.I.P.P.I.I.I.P.;.p 8 *._.MXyX'.'.'.'.'.'.'.'.'.'.'.I.I.I.'._.I.F.;.' f f d & ' ;.",
"I.I.I.I.'.'.I.I.I.I.I.I.I.I.I.I.P.F.F.6.*.$.' '  .@.' ' ` ` ` ` ` ` ` ` Y 8 &.;.p # # 1 &.I.'.'.'.'.'.'.}.}.}.'.'.P.r.-.=._.}.'.'.}.'.P.I.I.I.I.I.I.I.I.y.f.J.I.I.I.I.I.P.I.I.I.I.I.R.R.J.I.I.I.I.I.I.I.I.L.OX;XQ.K.I.I.I.I.I.P.;.&.+.~ t % # # # # 1 $.;.P.I.I.I.I.P.I.I.I.I.P.I.I.I.I.I.I.I.I.I.I.I.I.P.I.P.F.;.;.;.;.&.` ` ` ` ` ' $.&.$.` ` ` ` ` p # # & ` F.P.F.P.I.I.I.P.P.F.C.;.$.` ^ f d d d d # &  .F.P.I.I.I.I.I.I.I.I.I.I.I.I.L.G.I.I.I.I.I.K.F.;.@.` F  .F.gX8X'.'.'.'.'.'.'.'._.I.I.I.I.'.I.P.F.;.$.Y d ^ 7 &  .;.",
"I.I.I.I.'.'.I.P.I.I.I.P.I.K.F.F.;.;.&. .` ` ` '  .' ' ` ` ` ` ` ` ` ` ` h a &.&.7 # # h N._.'.'.'.'.'.'.}.}.'.'.'.'.{.'./.|.'.'.'.'.I.P.I.I.I.I.I.I.I.I.G.U.I.I.I.I.P.P.I.I.I.I.I.I.L.I.L.I.I.I.I.I.I.I.I.G.R.R.R.I.I.I.I.I.I.I.P.;. .Z M % # # # # * $.;.P.P.I.[.I.I.I.I.I.I.P.I.I.I.I.I.I.I.I.I.I.I.P.P.F.;.;.;.;.*.$.` ` ` ` ` ` ` ` ` F.F.` ` ` ( 1 # # 1 &.F.I.I.P.P.F.F.N.N.;.&.' ^ Y d d d d d Y 4 $ / F.P.I.I.I.I.I.I.I.I.I.I.I.I.I.G.G.K.F.F.;.;.;.;.;.u.R 1 $. X X'.'.'.'.'.'.'._.I.I.I.W.Q.I.F.N.;.@.Y d Y h & 1 $.-.",
"I.I.I.I.'.'.I.P.K.F.F.F.;.;.;.&.$.' ` ( ` ` ' @.@.' ` ` ` ` ` ` ` ` ` ` f h ;.$.1 # 1 $.F.'.'.'.'.'.'.'.}.'.'.'.'.'.'.}.|.}.'.'.'._.I.I.I.I.I.I.I.I.I.I.I.I.I.I.I.I.I.P.I.I.I.I.I.I.I.I.I.I.I.I.I.I.I.I.I.I.I.I.G.I.I.I.I.I.I.I.I.F.$./ f % #   # # & ' ;.F.P._.aX'.I.I.I.I.I.P.I.I.I.I.I.I.I.I.I.I.I.F.F.;.;.;.;.&.' ` ` ` ` ` ` ` ` ` ` -.wX$.` ` h % # # 1 &.F.F.S.;.;.&.$.$.$. .` Y d d f f f f h g Z 5 f ;.F.P.I.I.I.I.I.I.I.P.K.F.F.F.y.6.r.;.N.F.F.P.I.P.I.^ & ` I.'.'.'.'.'.'.'.I.I.I.I.I.J.J.F.;.&.' Y d f ` 7 # 7 &.;.",
"I.I.I.I.I._.F.;.;.;.;.&.$.@.' ` ^ Y h f f Y ^ ^ ^ ` ` ` ` ` ` ` ` ` ` ` a ` ;.' & # f ;.I.'.'.'.'.}.'.'.}.'.'.'.'.'.'.}.'.'.'.'.'.I.I.I.I.I.I.I.I.I.I.I.I.I.I.P.I.I.I.I.I.I.I.I.I.I.I.I.I.I.I.I.I.I.I.I.I.I.I.I.I.I.I.I.I.I.I.I.P.P.;.` h # $ l = # # ( ;.F.I.I._.I.I.I.I.P.P.P.I.I.I.I.I.I.I.I.P.F.F.;.;.;.;.&.' ` ` ` ` ` ` ` ` ` ` _ ` '.tX;.` ` 7 # # # % 7 a a d f h h ( ^ ( ^ Y d d a p y 7 1 * $ C 5 p ` ' $.=.;.N.F.F.F.F.F.F.F.F.F.U.U.P.P.I.I.a.i.I.I.K.' & p N.'.'.'.'.'._._.I.I.I.I.I.P.F.&.@.` Y d f ^ a % # i ;.;.",
"I.P.K.F.;.;.;.-.&.$.' ` ` ^ h f d d d d f Y Y h d f >.} ( ` ` ` ` ` ` ` a  .;.^ $ & ' F.'.'.'.'.}.}.'.'.'.'.'.'.}.'.'.}.'.'.'.'.I.P.I.I.I.I.I.I.I.I.I.I.I.I.I.I.I.I.I.I.I.I.I.I.I.I.I.I.I.I.I.I.I.I.I.I.I.I.I.I.I.I.I.I.I.I.I.I.I.K.-.` i # # = & # # h ;.F.I.I.I./.I.I.I.P.P.P.I.I.I.I.P.P.K.F.F.;.;.;.&.$.' ` ` ` ` ` ` ` ` ` ' $.r./.6X9XP.&.` h & # # # # # # # # % 1 > > * * % % % # # # # # # # # $ # 1 f f d f ` &.F.F.F.F.L.L.I.I.I.Y.Y.I.I.G.R.b.).I.P.F.' * 1 *.I.'.'.I.I.I.I.I.I.I.I.F.;.$.` ^ f d f ^ f & # # h ;.;.",
"F.S.;.;.;.&.$.' ` ` / N g d d d d d d h Y Y Y h d f 9.1.d f f Y ^ ` ` ` p $.;.g ; 1 &.F.'.'.'.'.}.'.'.'.'.'.'.'.'.'.'.'.'.'.'._.P.I.I.I.I.I.P.I.I.I.I.I.I.I.I.I.I.I.I.I.I.I.I.I.I.I.I.I.I.I.I.I.I.I.I.I.I.I.I.I.I.I.I.I.I.I.I.I.P.S.' ^ 1 # # # # & = g %.C.F.F.I.I.F.F.F.F.F.F.F.F.S.S.r.;.;.;.;.=.$.' ] A E ` ( ^ `  .;.P.'.|.>X|.{./.F.;.&.' ( 1 # # # # # # # # & % & * * % % % % & & & * * * * & & # # # 1 d f d Y @.r.I.P.L.G.R.R.J.L.E.oXJ.U.Y.G..X.XP.F.-.` - * 6.F.I.P.I.I.I.I.I.I.K.S.$.` Y d y y d Y h * # # # ^ ;.;.",
";.;.;.&.$.' ` ` ^ f d N g d d d d d h h Y h Y f d f B f d d d d f ^ Y 7 1 &.$.2 & 9 ;.I.'.'.'.'.}.'.'.'.'.}.'.'.'.'.'.'.].OX_.I.L.I.I.I.I.P.P._.I.I.I.I.I.I.I.I.I.I.I.I.I.I.I.I.I.I.I.I.I.I.I.I.I.I.I.I.I.I.I.I.I.I.I.I.I.I.I.P.F.$.` 8 # # # # $ ; 5 V 8.Z.!.N.;.;.;.;.;.;.;.;.;.;.-.;.;.;.;.;.;.$.` ` V A { =.F.'.|.,X|.'.I.F.;.-.&.$.' ' ` ^ 8 # # # # # # & * 1 a h h h Y ^ ` '  . .$.-.;.S.F.F.N.&.` y & # & 8 f Y _ ' ;.F.I.J.G.Y.oXOX%X&X*XOXR.F.F.S.&.' ^ ^ * # 8 &.F.F.P.I.I.K.F.S.$.` f y 8 8 8 p Y a & # # # & ' ;.;.",
";.&. .' ` ( ^ f d d d d d d d d h Y Y h Y f d d d d f f f h h f d 8 * # & ^ h # # 7 ;.F.I.'.}.'.'.'.'.'.}.'.'.'.'.'.'.'.].c.J.L.J.I.I.I.I.I.I././.I.I.K.I.I.I.I.I.I.I.I.I.I.I.I.I.I.I.I.I.I.I.I.I.I.I.I.I.I.I.I.I.I.I.I.I.I.F.;.;.' y # # # # # = m w.oX9.8.7.&.&.-.;.;.;.;.;.;.;.;.;.;.;.;.;.;.;.;.$.;.I.].>X6X|.I.F.-.$.@. . .' ' ` ` ` ` ^ 7 # # # # & 6 a ^ $.F.K.'. X,X6X9XtXyXgXgXxXvXbXMXMXMXMXxXyX}.' > # # & 8 Y ` ` $.;.F.I.I.R.#XfXkX&Xy.;.$.` Y f d d d & # % 6 ` @.$.$.&.$.' ^ d y 8 y y y d f 7 % # # # # * $.;.;.",
"' ` ` ( Y f d d d d d d d d f f Y Y Y h f d d f f d d a y 3 1 & % # # # # & & # # & ^ ;.F.I./.'.'.'.'.'.'.}.}.'.'.'.'.'.'.I.L.W.].W.R.G.P.I.'._.I.I.a.s.L.I.I.I.I.I.I.I.I.I.I.I.I.I.I.I.I.I.I.I.I.I.I.I.I.I.I.I.I.I.I.K.F.r.;.$.( 7 # # # # # $ ; V ;XsX>.[ ` ` ` ' ' ' $.$.&.&.&.-.;.;.;.;.;.;.;.;.;.S.F.F.;.&.$.' ' ' ` ` ` ` ` ` ` ` ^ p * # # # # 7 ' &.{.tXgXcXbXMXBXZXZXZXZXZXZXCXBXMXMXMXbXbXbXMXBXMXiXP.p & % % > 1 p h ` @.=.;.6.Y.;XdX@XG./ f d d d d a 1 # # # # & 1 7 y p p a p p y p y y y 6 & # # # # # 1 / &.;.;.",
"` ^ Y f d d d d d d d d d d f ^ Y Y f d a y 8 1 1 & # # # * 1 p h ^ h p 1 % # # # # & 8 ` &.;.F.I.I.I._.'.'.'.'.'.}.'.'.I.K.F.I.%X@Xy.F.F.F.).W.F.F.y.y.F.P.I.I.I.I.I.I.P.I.I.I.I.I.I.P.P.F.F.I.F.F.F.F.F.F.G.q.>.u.;.=.$.' h 8 & # # # # # # # = m >.>.b ; 2 a h ^ ( ` ` ` ` ' ' ' ' @.$.$.&.&.&.$.@.@.' @.' ' ` ` ` ` ` ` ` ` ^ Y a 7 * # # # # # # ^ ;.I.MXZXZXZXZXMXMXcXxXgXpXqX9X8X6X,X|.|.|.|.|.|.6XtXcXvX,X .i 1 > * % # * 7 a B >.1.} Y.' { [ B g 8 7 > % # # # # # # # # # # % % & & * > 1 1 1 1 1 & # # # # 1 F ;.;.;.",
"f d d d f f f d d d d d d d d h Y p 1 * & % # # # * 9 h  .F.|.wXiXgXiXwX}.-.h 1 & & # # % * 3 8 a Y ' $.;.F.F.K.F.F.S.;.$.@.$.$.4.%.{ ` >.{ o.@.' ' @.$.-.;.F.P.I.I.P.P.F.F.F.F.F.;.;.;.;.-.&.&.$. .' ' ' ] | ,.N h f p 7 * % # # # # # # # # # $ = 5 5 ; & # # % & > 1 8 y a f h h Y Y ^ ^ ^ ` ( ^ ` ` ' ` ` ( Y h h f a y 7 1 * & # # # # # # # # # p ;.|.CXZXZXZXiX6X|.}.}.'.'.^.'.'.'.'.'.'.'.'.'.'.'.'.}.,X8X}.;.( 7 # # # # % 2 5 2 k b X.2 * = ; = $ # # # # % & > 1 7 y a h h ^ ( ' '  . .$.$.1.:.&. .^ 8 & # # 8 ;.;.;.",
"d d d d f } ] d d d d d f f d 8 > % # # # % 1 p ' F. XtXxXMXMXMXcXgXlXiXlXxXgXrX|.S.` 8 1 ; n $ # # # & * 1 8 d h f f d d f f f R I Y Y E / Y Y Y Y Y Y Y ^ ( ' &.;.&.$.$.' ` ` ^ h a y i 8 9 7 6 * & & $ l ; & & # # # # # # # # # # # # # # 1 a F ) ) ) ` ^ h f a p 8 1 1 1 * & * & * * * * * * > 1 9 1 1 * & & & & & & * 1 1 8 p a h y 1 # # # # # 7 *.6XZXZXZXuX}.'.'.'.'.'.'.'.'.'.'.'.'.}.}.'.'.'.'.'.'.'.'.'.I.;.$.f * # # 2 ~.2 # o : q = & ; o 1 8 p a h `  .$.;.;.F.F.I.I.I.'.{.|.,X6X8X9XeX2XpXgXtX X;.( 7 # 7 &.;.N.",
"d d d d g 4.| d f Y h f y 1 & # # # # * p $._.9XlXMXZXMXgXwX>X'.I.I..X'.I.'.|.9XyXgXxXiX9X'.6.h 6 &   # # # # # & & * 1 1 1 7 7 8 8 8 8 8 y y y y y y y y 8 p 8 8 8 7 1 1 * * & & # $ & * * * * # # # # # X $ # # # # # # # # # # # # # # # 8 &.;.F.'.6X6X6X|.{.'.I.I.F.F.;.&.$. .' ` ^ h h a a p a f h h a h h ^ `  .$.-.;.F.P.I.I.F.;.' I 3 # # # # 7 &.8XZXZXiX}.'.'.'.'.'.'.}.'.'.'.'.'.'.'.}.'.'.'.'.'.'.}. X X_.F.r.;.' 2 # & 6 % * * 8 [ / ' } ! G.'.|.6X9XtXiXiXgXxXcXbXMXMXBXCXZXZXZXZXAXAXAXZXZXZXBXuXI.N.&.a * $.;.;.",
"d f f f h F ^ f a 7 1 & % # # * 7 h N.,XuXvXMXbXlXrX,X'.I.I.I.I.I.I.I.P.I.I./.I.I.I._.}.6XwXyXuXrX,XP. .a 1 % # # # # # # # # # # # # $ # % % % # % % % % # G 0 # # # # # # # # # # k : * * & % # % & & & * * * * * * & & % # # # # # # #   a ;.;./.9XMXBXBXMXMXbXbXvXcXxXgXiXyXtXrX9X9X8X8X8X8X8X9X9XrXrXtXtXtXyXtXtXtXwX8X X'.'.'.F.;.@.I y # # # # 7 -.9XZXcX|.{.'.'.'.'.'.'.}.}.}.'.'.'.'.'.'.'.'.'.'.'.}.|.}.}.'.I.P.F.;.$.7 # # # h %.&.R.0XyXxXbXMXBXBXCXZXCXCXBXMXMXvXcXlXgXgXuXyXtXqXqX9XwXwX9X9X8X,X}.'.I.;.&.h a &.;.",
"Y h f d y 7 1 & # # # * 7 a  ._.rXcXZXBXcXyX6X'.I.F.F.P.I.I.I.I.I.I.I.I.I.I.I.I.I.I.I.P.F.F.F.I.'.6XwXtXwX X .1 # # # # # # # # # # ; b # # # # # # # # # # 1 & # # # # # % & * 1 1 q g h h h h ^ ` ' '  .$.$.&.&.&.$. .' ^ a 7 & # # # # # 1  .;.F.{.9XDXtXwXwX9X8X8X8X9XrXyXgXcXMXZXZXAXZXZXZXZXAXAXBXcXuXrX9X6X|. X{.'./.I.I.I.I.F.;.$.R z $ # # # 7 ;.9XMX6X'.'.'.'.'.'.'.'.'.'.}.}.'.'.'.'.'.].'.'.'.}. X|.}.'.'.'.I.I.F.;.S o # # 8 *.|.nXmXZXZXZXMXxXgXuXtXwX8X6X,X|. X}.'.'.'.'.'.'.'.].'.'.'.'.'.'.'.'.}.'.I.N.;.a i ` ",
"1 1 & % # # # # # & a $.'.tXcXbXxXtX6X{.I.I.P.P.P.I.I.I.I.I.I.I.I.I.I.I.I.I.I.I.I.I.I.I.I.I.I.P.P.P.P.I.I.I.F.` % # # # # # # # # # & ; # # # # # # # % & * 1 1 8 p f h ^ '  . .$.&.;.;.;.;.;.;.7.F.F.F.F.K.P.I.I.I.G.G.F.S.;.&.' p & # # # # 6  .;.F.'.].].'.'.'.'.'.'.'.'.'.}.}.|.6XwXuXvXCXZXZXMXyX>X'.I.I.I.P.I.I.P.P.L.Q.|.I.I.I.F.&.R b & # # # 8 ;.7XrX'.}.}.'.'.'.'.}.}.}.|.'.'.'.'.'.'.E.j.'.].'. X}.|.}.'._.I.P.K.F.;.E ; # # ^ I.vXfX5XMXlX8X|.}.}.'.'.'.'.'.'.'.'.'.'.'.'.'.'.'.'.'.'.'.'.'.'.'.'.'.}.}.}.I.F.-.8 & ",
"&.;.&.h * # # # # 8 ;.'.tXwX>X'.I.F.K.P.I.I.I.I.I.I.I.I.I.I.J.P.I.I.I.I.I.I.I.I.I.I.I.I.I.I.I.I.I.I.I.P.F.;.' 6 # # # # # # # # # # % & * 1 1 8 p d ^ ` ' $.&.&.;.;.;.;.;.;.;.;.;.N.N.;.;.;.;.F.j.G.I.I.I.I.I.I.I.L.c.G.I.I.F.;.;.*.( > # # # # 1  .;.F.I.'.I.I.I.I.U.Y._.'.'.'.'.'.'.'.'. XgXZXvX6XI.I.I.I.I.I.I.I.I.I.I.L.-X@XG.P.I.F.&.Y 8 # # # # a ;.}. X'.W.E.'.'.'.'.}.}.8XaX'.'.'.'.'.'.].E.'.OX#X}.'.'.I.I.P.I.K.F.;.$.f & # * $.%XmXNXnXrX}.'.'.'.'.'.'.'.'.'.'.'.'.'.'.'.'.'.'.'.'.'.'.'.'.'.'.'.'.'.|.}.}.I.F.;.` % ",
"MXMXMXrX` & # # # p ;.u.i.P.P.P.P.I.I.I.I.I.I.I.I.I.I.I.I.W.oXF.I.I.I./.I.I.L.2.y.I.I.I.I.I.G.G.P.F.;.$.^ 9 & # # # # # # # # 1 p F ` ' $.&.;.;.;.S.8.,.F.F.F.;.;.'.;.;.;.;.;.;.;.;.N.;.F.F.P.I.G.I.I.I.I.I.I.I.I.I.J.I.P.I.I.P.F.;.;.' > # # # # 1 ' ;.;.F.P.K.P.F.5.w.I.I.I.I.I.I.'.'.'.}.|.9X|.I.I.I.I.I.I.I.I.I.I.I.I.I.J.G.I.I.K.F.' I 3 # # # # h S.I.'.'.Y.j.'.'.'.'.'.'.}.}.'.'.'.'._._.I.'.'.W.I.R.f.G.P.P.I.F.;.&.$.^ d & # 8 -.v.fXcX6X'.'.'.'.'.'.'.}.'.'.'. X].'.'.'.'.}.}.'.'.'.'.'.'.'.'.'.'.}.'.|.|.}.I.P.N.&.8 ",
"ZXZXbX7X;.1 # # # 7 &.s.a.I.I.I.I.I.I.I.P.P.I.I.I.I.I.G.I.I.J.P.I.I.I.I.I.I.L.j.j.G.I.I.P.F.! 1.@._ d 1 % # # # $ # # # & 8 ` -.F.c.y.F.F.P.P.P.I.K.9.L y.I.P.F.;.9XF.u.W.;.;.N.N.F.F.J.@XJ.I.I.I.I.I.I.I.I.I.I.I.I.I.I.I.I.I.I.G.G.;.;.` * # # # # * ( -.;.F.P.I.I.I.I.I.I.I.I.I.P.I._.'.}.}.}.I.I.I.I.I.I.I.I.I.I.I.I.I.I.I.P.F.F.;.' Y I 3 # # # # ^ F.I.'.'.'._.I.I.I.I.I.I.I.I.I.I.I.I.I.I.I.I./.I.I.E.2.G.P.K.F.&.@.` Y I y % # f ;.9XxX,X'.'.'.}.'.'.'.'.}.}.'.'.Q.OX'.'.'.'.'.}.'.'.'.'.'.'.'.'.'.'.|.|.|.}.'.I.I.F.;.` ",
"ZXiX'.P.F.p # # % ..H.;.P.P.P.I.I.I.I.I.P.P.I.P.I.G.L.R.J.G.P.I.I.I.I.I.I.I.I.I.U.I.P.F.&.' R I d 1 % # # # # $ = # & a $.F.F.P.I.J.L.I.I.I.I.I.I.F.;.G.L.P.I.I.;.wX X;.G.;.;.;.F.P.I.I.J.I.I.I.I.I.I.I.I.I.I.I.I.I.I.P.I.I.I.I.G.R.R.G.-.^ & # # # # & h ;.;.F.P.I.I.I.I.I.I.I.I.I.I.I.I.'.}.'.I.I.I.I.I.I.I.I.I.I.I.I.I.K.F.;.$.` I s s I 3 # # # # / F.I.'.'.I.P.P.P.P.P.P.I.I.I.I.I.I.I.I.I.'.I.I.I.I.I.I.P.F.;.' ^ I I I I 8 # % ^ ;. X X'.'.'.'.'.}.}.'.'.}.}.'.'.'.'.'.'.'.'.'.'.'.'.'.'.'.}.'.'.'.'.}. X}.'.I.I.I.P.F.&.",
"yXI.P.W.W.a # # # 6 $.;.F.P.P.I.J.!.I.I.P.P.I.P.I.L.R.&XQ.J.I.I.I.I.I.I.I.I.I.J.F.-.' ^ I I I y & # # # & = # = 2 p  .F.P.P.I.I.I.I.I.I.I.I.I.I.I.F.@.F.G.G.I.I.;.wXwX;.N.N.F.I.I.I.I.I.I.I.I.I.I.I.I..XI.I.I.P.K.F.F.F.I.P.I.I.G.Y.W.W.;.*.h % # # # # & h &.;.S.P.P.I.I.I.I.I.y.U.I./.I.'.'.I.I.I.I.I.I.I.I.I.I.P.F.F.;.@.` I s u e r 5 n 7 # # # & | p.I._.I.I.I.I.I.I.I.I.I.I.I.I.I.I.I.I.P.I.I.I.K.F.G.Z.;.;.%.! %.o.Y I I > # & ' ;.P.I.'.'.'.'.'.}.'.'.'.'.'.'.'.'.'.'.'.'.'.'.'.'.'.'.oXQ.}.'.}.'.'.'.'.'.I.P.I.I.I.F.;.",
"6XI.I.W.J.h # # # # B ;.F.I.I.I.J.Q.I.I.I.I.P.F.F.F.U.%XU.6.7.F.F.F.F.F.F._.;.o._ Y _ _ Y I 8 % # # # # # ; 5 B } 6.G.G.I.I.I.I.I.I.I.I.I.I.I.I.P.F.o.r.p.i.I.I.C.9XgXF.6.8.J.P.2.,.G.I.I.I.I.I.I.I.I.}.I.I.K.;.o.O.` D./.I.I.I.G.Y.U.I.F.:.&.a # # # # # % a &.;.F.P.I.I.I.I.I.2.2.I.I.I.'.'.I.I.I.I.I.I.I.P.F.F.;.@.^ I s u e w w r e r M 8 # # # % ) 6.P.P.P.I.I.I.I.I.I.I.I.I.I.I.I.P.P.F.F.J.F.r.;.;.F.U.F.K.J.9.G.F.o.I s % # &  .;.P.I.'.'.%X%X}.'.'.'.'.'.'.'.'.'.'.'.'.'.'.'.'.'.'.'.w.U.'.'.'.'.'.'.'.I.P.I.I.I.I.F.;.",
">XI.I.P.F.^ % # #   l ^ ' =.;.r.S.S.r.;.=.$.$.o.' ` ] { ' { >._ _ _ _ ] ,.^._ o.@.@._ I I 8 # # # # # # # 1 5.qX%XY.G.I.I.I.I.I.I.G.J.I.I.I.I.I.P.K.} 3.L.L.I.I.Z.qXcXF.8.f.G.I.j.j.L.J.I.P.I.I.I.I.I.I.P.F.@.` _ ` @.9X].J.L.I.I.Y.oXI.G.6.:.>.a # # # # # # y $.;.F.P.I.I.I.I.G.G.I.I.I.'.I.I.I.I.I.I.P.F.;.&.' Y d y e r w w r r e u u U 8 # # # # ^ ;.F.I.P.I.I.I.I.I.I.I.I.P.F.F.S.;.;.;.u.Q.I.F.K.K.I.I.I.'.'.I.P.F.@.I 8 # # 1 &.F.I.I.}.}.|. X}.'.'.'.'.'.'.'.'.'.'.'.'.'.'.}.'.'.'.'.'.'.'.'.'.'.'.'.I.I.I.I.I.I.I.P.F.",
"{.P.I.P.;.` & # # #   & 3 y p d d f I I I I I I U s r w u U U s u u u u t s o.F.&.&.' I y # X l # # # # 0 *.Y.qX%XG.I.I.I.I.I.I.I.!.^.I.I.I.I.I.I.F.%.1.L.L.I.I.C.6XMXF.F.G.I.I.G.G.I.%XW.I.I.I.I.I.P.I.F.@._ _ ` r.wXrXI.I.J.G.L.oXOXU.Y.L.8.! %.a & # # # # # 7 $.;.F.P.I.I.I.I.I.2.q.I._.I.I.I.I.P.F.S.=.' Y s u r w r r r r e u u u s I 1 # # # # h ;.F.I.I.I.I.I.I.I.I.I.I.F.F.F.F.F.K.P.I.J.Y.I.I.I.'.'.'.'.'.I.P.F.` I > # # 7 ;.F.I.I.'.'.}.}.'.'.'.'.'.'.'.'.'.'.'.'.'.'.'.}.'.'.'.'.'.%X%X'.'.'.I.L.L.U.G.I.I.I.I.I.F.",
"'.I.I.F.-._ 1 # # # & % # # # # # % & * 1 3 8 , + . , I _ _ o.$.$.$.&.&.-.;.;.-.-.{ Y y % # $ X # # & g %.F.W.Q.R.U.L.I.I.I.I.I.I.I.I.I.I.I.I.F.;.@.&.F.L.G.L.I.;.7XBXI.G.L.I.I.I.I.I.I.I.I.I.I.I.P.P.F.o._ O.F.wXiX6XI.I.I.I.Y.Y.OX&XOXR.J.@Xq.:.%.B = $ # # # # 3  .;.F.I.I.I.I.I.7.y.'.I.I.I.I.P.F.;.o.^ U u r r r r r r w r s u u u d y % # # # # 7 $.F.I.I.I.I.I.I.I.I.I.G.G.I.I.I.P.P.P.P.G.R._.'.'.'.'.'.'.I.I.F.$.I y % # # g ;.P.I.I.I.I.I._.'.'.p.2.'.}.}.}.'.'.'.'.'.'.'.}.'.'.'.'.).Q.W.I.I.I.G.G.G.l.y.I.I.I.I.I.F.",
"_.I.F.;.$.Y 7 # # h 8X8X|.'.I.F.;.&. .h 8 * # #   % 3 y s d Y ' $.=.;.;.;.;.;.&./ x g * # # # # # # d ;.F.I.W. X!.G.G.I.I.I.I.I.I.I.I.I.P.F.r.=.;.J.!.!.G.R.R.L.6.1XNXQ.G.I.I.I.I.I.I.I.I.I.I.I.I.I.I.D.r.{.eXpX6X_.I.I.I.I.I.G.oX&XkX:X#XOX+XoX7.6.,.Z & # # # # # 1 ' ;.u.G.I.I.I.P.I.I.I.I.P.F.;.$._ I s e w r w w w w w r u s s u y 3 % # # # # # > ^ S.J.@XI.I.I.P.P.I.L.h.3.K.F.F.F.K.I.I._.'.'.'.'.'.'.'.I.P.F.$.I I 1 # # & / 6.I.I.i.2.I.I.I.I.I.G.i.'.'.'.'.'.'.W.h.).'.'.'._.I.J.I.Y.Y.I.I.I.I.G.G.I.G.I.I.I.P.P.P.P.",
"I.I.;.*._ I 8 # & P.xXyXwX9X6X6X6X,X|.'.P.$.a 1 & # # # % & > 3 y f ^ ' o.o.' ^ I M 1 # # # # # # 7 &.F.I.I.J.W.~.I.L.K.I.I.I.I.I.I.I.F.r.;.F.K.I.%XJ.J.I.L.U.oX7.&XjXOXF.I.I.I.I.I.I.I.I.I.I.J.@XI.I.0X&XqXv.0.I.I.I.I.I.U.i.oX*XfXSXdX*XOXY.R.G.;.%.%.f % # # # # # 1 ) ! 9.I.I.I.I.I.I.I.F.N.*.' Y U u r w w w r e u u u s d s 8 * # & i ` a % # # % g $.I.!.I.I.I.P.F.F.F.8.6.;.F.F.I._.R.].'.'.'.).].Q.E.I.P.F.@.I I y % # # * %.6.I.I.i.k.Y.I.I.I.P.P.K.I.I.I.I.].I.J.9.I.I.I.P.P.L.G.G.oXY.I.I.I.G.U.G.I.I.I.I.I.I.I.I.P.",
"I.K.;.o.I I 8 # * ;._.F.F.F.F.r.;.-.$.{ E ( I d 8 & # # # # # # # & & > 1 8 y y y 3 # # # # # # & ` S.I.I.I.I.I.I.I.I.I.I.I.I.I.K.F.r.r.F.P.P.I.I.P.I.I.I.I.W.&X&XfXfX#X6.G.I.I.I.I.I.I.I.I.I.I.I.I.I.G.,.R.Y.y.I.I.W.W.].E.i.9.9.OX;XsXOX*XW.I.P.F.;.;.&.y # # # # # # 1 / ;.F.P.P.I.I.F.S.;.$.( I d y e u u s s p y 8 3 1 6 1 9 a ( P.6XtXyXF.a # # # N R .XP.;.&.$.o.@.;.;.S.F.K.I.I.'.'.j.p.'.'.].b.R.U.E.L.r.` I I y & # # # 3 G.W.I.I.J.c.Y.L.I.I.P.P.7.y.I.G.Y.%XI.G.L.I.I.I.I.I.I.L.U.OXY.I.I.I.U.U.I.I.I.I.I.I.I.I.P.I.",
"K.S.o.R I d > # & d V E _ _ Y I f s y 0 z 1 > > 1 6 8 a h h h f p 1 * # # # # # # # # # # # # # * &.I.I.I.I.P.I.I.I.I.I.I.I.I.I.;.=.F.I.%XW.I.I.I.I.I.I.I.L.R.#X;XSXjX%X;.G.L.I.I.P.I.I.I.I.I.I.I.I.I.I.G.I.G.j.U.I.W.L.I.'.7X7X&X1XqX2XY.Y.R.I.P.P.F.;.;.` 8 # # # # # # > ` ;.F.F.F.;.&.' _ I I I d d s y 8 1 * & # 6 h $.I.[.6X9X9X7X>X{.I.F.@.> # # = 8 Y I R Q R I _ o.-.;.F.F.6.G.I.I.J.I.I.I.W.i.I.F.;.6.6.I I 8 & ; k 2 2 a q.%X'.R.Y.U.G.I.I.I.q.i.p.i.I.G.l.J.G.l.G.I.P.I.I.I.I.I.G.OXE.I.I.R.oXU.I.I.I.I.I.I.I.I.P.I.",
";.' I d y > # # # * 5 5 1 > > & & * 1 7 p h ` ' $.&.;.;.F.P.I.'.'.'.S.' f 6 = * # # # # # # 2 * * N.I.I.I.L.I.I.I.I.I.I.I.I.I.P.@.;.I.I.W.J.L.I.I.I.I.I.I.I.G.Y.*XsXjX%X:.F.I.I.I.I.I.I.I.I.I.I.I.I.I.I.I.I.I.g.p.I.I.F.r.r.F.W.].|.%XOXG.G.G.a.i.P.K.;.;.@.I 3 # # # # # # > f _ ` ] ,.R I d s y 3 > & % # # # # # %  .9XcXvXtX6X>X X'.'.I.F.;.;.a # # $ $ * > 1 0 y y p d f I ^ _ D >.%.@.$.$.$.$.} >.$.' _ Y I y > # # ; k V H | OX&X%X@XY.G.I.I.I.I.U.U.I.I.I.I.I.].%XoXG.I.I.I.G.G.I.I.I.Y.oXU.L.Y.OXG.I.I.I.I.I.I.I.I.I.I.",
"y 1 * & # & & * 1 1 1 3 7 8 a Y ` $.;.F.F.I.'. X6X9XpXxXbXMXMXnX=XdXxX'.;.&.4.H & # # # # # m 2 1 $.I.I.I.I.I.I.I.I.I.I.I.I.I.F.o.;.Y.U.I.7.h.G.I.I.I.I.I.I.J.p.7.qXmX&X8.u.I.I.I.I.I.T.W.I.I.I.I.I.oXJ.I.I.I.i.W.I.F.o.' ' O.u.y.L.U.oX9.! G.a.a.I.I.F.;.&.Y d * # # # # # # & 3 8 8 5 3 B 1 # # # # # # # # # # # % * 7 ^ *.;.;.;.;.;.;.;.;.&.&.a # # o O X   # # # # # & & * 1 1 4 B | y s s s d d d d s y 3 & # # # # # * 5 C oXsXkXsX%XJ.J.I.I.I.I.I.I.I.I.I.I.I.J.J.I.q.U.I.I.E.R.I.P.P.G.oXOXE.*XOXL.I.I.I.I.I.I.I.I.P.I.",
"1 7 p h ( ' @.$.&.&.;.;.S.F.I.}.6XwXiXlXcXvXvXxX4X=XqX9X6X#X].'.R._./.I.F.;.;.*.' 7 # # # # * ) - h F.P.I.I.I.I.I.I.I.I.Q.^.I.F.O.;.q.q.P.G.q.I.I.I.I.I.I.I.R.G.6.fX=X1X6.6.J.I.I.I.I.T.^.I.I.I.I.I.R.J.p.E.I.I.I.I.F.@.} +._ +.G.'.G.Y.U.7.L.I.Y.oXI.F.;.&._ I y % # # # # # # # # # # & m - # # # # # & & & * 1 1 7 1 7 > * & & * * 1 7 8 G 9 1 % # #     k o # # # # # # # # # # @ 5 : # % % & & * & & & # # #   X # # # 2 H q c.dXAXfXOXW.I.I.I.I.I.I.I.I.I.I.I.I.I.I.P.Y.R.I.I.I.P.F.F.F.F.U.&X:XsXoX^.W.oXY.R.R.G.G.G.G.I.",
";.;.N.F.F.F.K.I.'.|.6XwXyXgXlXlXgXyX9X6X|.'.'.I.9.9.a.s.G.h.q.I.I.I.I.I.6.3.F.;.;.$.a & # % 1 F 1 1  .F.I.I.I.I.G.2.9.I.0.h.G.F.O.=.G.I.I.I.I.I.oXY.I.I.I.G.J..X`.fX5XwX;.;.0.l.I.I.I.I.I.I.I.I.I.I.I.I.U.R.I.I.I.E.U.'.=.` _ _ /.|.G.E.Q.I.I.I.R.R.I.F.=.' I I d & # # # # * & # 1 ] & * 1 7 p f h ^ ` '  . .$.;.;.;.*.&.@. .' ` h p 1 & * H * # # # # # % * 1 1 1 1 1 1 > & % # $ b 5 b # # # % % % # # # # # & : n `  .j 6 m q c.:XfX&XOXoX^.I.I.I.I.I.I.I.I.I.I.I.I.I.P.I.I.P.F.F.F.F.G.R.E.#X&XSXSXqX@XoXc.oXR.G.G.G.f.3.I.",
"I.'.|.7XwXuXlXvXMXBXcXwX6X|.'.I.I.P.K.F.F.P.P.P.I.I.G.G.I.L.I.I.[.6XR.I.y.2.G.;.;.;.;.h & * & * & & 9 ;.K.I.I.I.I.q.i.P.G.y.I.F.` =.P.I.I.I.I.I.J.J.I.I.J.R.L.F.}.NXNXcXF.;.6.R.I.I.I.I.I.).J.P.P.I.'.I.I.I.I.I.I.J.G.I.{.F.` O.9X'.I.!.*XJ.I.R.oXF.S.$._ I d s 3 % # # # # J q 1 a ' ' $.&.;.!.y.F.F.W.I.I._.'.}.|.|. X'.'.I.F.F.F.6.,./ 2 $ # # # # # p / ' &.;.;.S.S.;.-.$.( h 0 b $ $ # # # # $ n 2 7 p Y -.'.9XyXtX X%.2 2 V 9.c.+XoXR.U.R.W.I.I.I.I.I.I.I.I.I.I.I.I.G.c.l.q.F.G.U.Y.OXoXoX*X&XSXkX*XoXR.J.L.I.I.I.I.y.G.K.",
"vXMXBXZXZXZXZXZXZXcX].J.P.I.I.I.I.I.I.I.I.I.I.I.I.I.L.I.I.I.I.I._. X@XJ.I.I.I.S.:.l.;.;.h 1 * & # # & ` F.J.Q.I.I.U.oXI.I.I.I.F.O.$.P.I.I.I.I.I.I.I.R.R.Y.c.G.;.wXZXZXZXiXF.;.K.I.I.I.I.I.].J.I.I.[.aXI.I.P.I.I.I.I.I.P.I.%X%X7XwXY.I.J.W.G.F.6.6.o.^ d 8 1 & % # & 0 & % 1 g ) *.;.;.F.F.I. XqX0X9XwXpXtXyXuXiXiXiXuXuXuXyXtX7XI.I.G.q.%.h % # # # # a 1.3.'.6XwXrXtXtXrXwX9X6X|.'.F.$.j 1 % # % f >.6.'.9XlXbXxX9X'.%XG.<.m 2 5 $.6.oXY.I.I.L.L.I.I.I.I.I.I.I.I.I.I.P.F.6.0.p.i.G.G.G.E.oX0.h.G.#XpX%X*XE.J.I.I.I.I.I.I.I.F.r.",
"lXgXiXxXCXZXZXZXZXyXoXR.I.I.I.I.I.I.I.I.I.I.I.P.I.I.I.I.I.I.I.I.I.I.I.I.I.I.F.;.;.6.;.;.*.8 # # # # # 7 *.J.!.I.I.G.J.I.I.G.G.F.o.@.G.2.G.I.I.G.I.I.U.Y.L.G.F.F.cXZXZXZXZXgXI.r.P.I.I.I.I.I.I.I.I.'.'.I.I.I.I.I.I.I.i.U.R.!.].>XW.0.F.F.F.;.+.Z R p 1 & X k   # # * J 8 Y $.;.6.oXI.|.7XrXyXiXpXiXiXiXiXuXuXuXuXiXuXuXuXuXuXiXiX XR.I.F.&.f # # # # =  .;.).wXwX9X7X6X6X,X,X,X6X7X8X2XeX7X_. .8 & 8 ` I.rXyXrX8X_.F.I.J.;.I 1 $ *  .6.Y.OXQ.I.I.I.I.J.R.I.I.I.P.P.F.F.;.;.F.U.OXI.I.I.I.I.I.G.G.J.-X XR.OXoXG.J.F.K.I.I.G.F.$.Y ",
"I.I.I._.yXZXZXZXZXxXI.I.L.G.I.I.I.I.I.I.I.I.I.P.I.I.I.I.I.I.I.I.G.G.I.I.I.F.`.~.;.;.N.6.q.' & # # # # % ( F.I.I.I.I.I.I.I.q.f.6.' $.F.3.G.I.F.f.G.I.I.P.I.K.K.tXZXZXBXZXZXZXvX>XS.F.J.Q.I.I.I.I.I.I.I.J.oXJ.I.I.I.I.q.p.oXI.K.K.K.F.;.=.o._ R b 1 & * $   X # # & 8 ` &.;.;.I.|.9XyXuXuXuXiXuXuXpXpXiXuXuXiXiX3XeXiXiXiXiXiXiXuX X@XG.F.' 8 # # # $ l } F.0.l.}.}.}.%X].'.'.'.'.'.'.#X6XwXuXyX7XP.^ 7 1 a ` @.-.;.;.F.F.;.' p & # ^ ;.G.Q.c.y.L.I.G.0.c.I.P.F.F.;.;.;.F.I.I.I.I.I.P.J.!.I.I.I.P.^.@XOXJ.R.oXU.9.3.F.u.$.A B 8 p ",
"I.I.I.I.'.cXZXZXZXCX|.P.y.f.G.I.I.I.I.I.I.P.2.9.G.G.G.I.u.5.G.I.G.l.I.I.F.;.I.~.;.;.;.8.2.Q.a # # # # # 7 &.F.P.G.L.I.P.F.c.1.=.9.G.P.I.I.I.F.0.G.I.I.F.I.|.gXcXtX>X{.9XxXBXZXZXtXP.6.!.J.G.I.I.I.P.I.I.U.I.I.I.I.I.I.G.G.0.i.F.;.&.o.^ I d 3 & & & o k $ # & 8 ' ;.;.F.'.8XyXiXiXuXyXwXwXrXtXtXv.2XuXuXiXiXiXqXeXuXuXuXuXuXuXwXI.J.E.8.` 1 # # # # q %.I.].].|.|. X}.'.'.'.'.}.'.'.'.'.'.|.9XyXiXyX>X;.j 2 l 8 p I _ o.;.-._ y # 8 ;.6.G.a.y.I.I.p.0.G.F.S.;.;.;.7.G.I.Q.Q.I.I.P.I.J.!.J.I.P.I.R.Y.!.F.F.7.7.>.Q _ d 3 X   a ;.",
"I.I.I.I.P.>XMXZXZXZXrXK.G.i.L.I.J.'.I.I.I.I.9.q.l.l.Y.I.7.,.G.I.I.G.P.i.9.;.%.%.;.;.;.;.;.;.' * # # # # % h ;.F.l.Y.F.S.;.u.F.P.G.a.J.I.I.I.F.E.J.P.K.}.tXtX'.-.' >.{ $.N.'.tXbXZXvX>X;.G.T.I.I.I.I.I.I.I.I.I.I.I.I.J.J.G.g.1.;.$._ I I s > % > * > ; ; & 8 X.C.;.K.|.wXuXiXiXuXtX,X_.I.I.I.I.I.Y.@X|.,X7X9XwXtXyXiXiXiXiXiXtX'.I.I.R.%.^ & # # # # a ;.'.}.|.}.}.}.'.'.p.2.'.'.'.'.'.'.}.'.'.|.7X2X2XuXwX X5.f 1 > 3 y I _ ' I 3 $ F *.6.K.F.^.J.F.F.;.>.%.;.F.W.v.Z.Q.R.R.I.P.I.I.P.F.F.F.F.6.7.6.;.' _ ^ R B 8 5 o # # # / ;.",
"I.I.I.I.I.I.eXZXZXZXxXI.I.I.I.I.J.^.I.I.I.I.G.i.U.G.I.I.I.G.I.I.I.P.F.8.3.;.,.,.>.Y.Z.&.;.*.&.d % # # = & 1 $.S.G.G.P.K.I.q.z.G.J.c.@XI.I.I.I.I.I.'.6X8XI.o.I s s V g s Y ' *.J.6XgXvX$Xq.;.;.F.P.I.I.I.I.I.I.I.I.R.!.!.F.5.d.' Y I I y & # & > * & & 1 ^ =.C.^.|.tXuXuXiXyXwX|.I.I.P.y.x.L.I.I.G.J.L.L.I.I.I.J.j.E.|.,X6X>X_.P.I.I.F.o.h & # # # # f F.'. X}.}.'.'.'.Q.c.p.%X%X'.'.'.'.}.}.'.'.'.c.OXtXuXuXyX9X'.&.d 1 * 1 8 p y k k ' ;.F.F.!.C.=.$.$.Q 8.P.G.i.R.Q.Q.I.I.I.F.F.N.;.&.$.F.6.] R ] ,.M s y 1 ; X ; b 8 & # X.!.",
"I.I.I.I.I.W.%XxXZXZXBX|.I.I..X[.P.F.I.I.I.I.2.2.2.2.I.I.I.I.I.I.F.;.;.;.;.;.%.%.! c.6.;.;.;.*.' 1 # $ N @ # a &.F.I.I.P.I.G.5.I.I.'.W.I.I.I.K.J.'. XF.' I u e w t r w e N s I o.:.6.'.#XeX%X;.;.;.F.I.I.I.I.I.I.J.@XJ.F.;.o._ I I I s & # % * * * & f $.8.G.|.rXuXiXiXyX9X{.I.P.P.I.I.L.U.I.I.I.I.I.I.I.I.I.I.F.1.y.P.P.P.P.G.7.I.P.;.` f & # # # # h P.}. X}.'.'.'.'.OXQ.'.}.'.'.'.'.'.'.}.'.'.'.'.'.}.,XwXuXiXyXtX8X'.&.d 1 & # o o ; N ' $.$.` ` $.F.F.P.I.J.U.I.I.I.F.T.F.;.$.` Y U s s t t s y 5 4 & # & 0 A 4.;.&.7 &  .;.",
"I.I.I.I.I.I.U.%XMXZXCXtXI.I.[.`.I.I.I.I.I.I.U.U.Q.U.I.I.I.I.K.F.;.;.6.Z.9.8.;.;.%.;.&.;.;.;.8.%.f * = S = # % p _ o.=.:.Z.F.;.F.].J.r.;.;.=.$.$.%.Y s e e e e e x z e t Q g u d _ ' o.$.F.&X$._ ` o.$.;.S.F.F.a.3.;.=.' _ I I I I d > # % * * * 6 ` ;.F.j.%XpXpXuXtX6X'.I.W.G.P.I.I.I.I.I.I.I.I.I.I.I.I.I.I.I.I.P.I.I.I.I.I.5.,.G.F.$.` Y & # $ X k / I.}.'.'.'. X].'.'.'.'.'.'.'.'.'.'.'.'.'.'.'.'.'.'.'.}.>XqXqXqXyXeXeX6XI.$.h b D o k 2 d I Y $.;.F.P.I.I.I.I.I.I.F.*.8.` d u u t e e e p p 3 & & - a @.'.6X).L.;.;.p 1 &.;.",
"I.P.P.I.I.I.G.i.9XZXNXfX'.I.I.I.I.I.I.I.P.I.E.U.).J.G.L.L.F.r.;.-.;.;.8.L Q $.$. .' ;.%X'.;.5.5._ y & = # # # % y N N N V ^ ^ o.E.{ I I f d s p p y w 3 3 3 3 3 b q 7 M M 3 3 8 8 8 8 y s *.+.s d d I I E ] _ ~ W ^ I I I I I I y > # # * > % 9  .;.R.%XeXeX=XqX%X^.P.P.I.9.G.P.I.I.I.K.I.I.i.G.I.I.I.I.I.I.I.I.I.I.I.I.I.I.G.G.F.;.' ` ^ & - G $ : | Y. Xb.].'.#XQ.'.'.]. X X}.'.'.'.'.'.'.'.'.'.'.'.'.}.].].l.+XqX4X=XeXiXuXwX,XI.%.F 8 * = V g Z { ;.F.F.K.G.G.F.;.' d u r w r t E u y 3 * m m p $.p.+XpX7XI.F.;.;.%.W 8 &.;.",
"_.I.P.I.I.q.G.I.'.xXCXmX7XF.I.I.I.I.I.I.L.G.I.I.I.L.l.2.6.;.8.;.;.8.8.q.OX].t.`._.{.iXmXpX6.;.;._ I 1 # # # # # & 5 t M p a a y 3 1 > * & & = ; % # # # % # # # & J - $ m 2 # # # # # # # 3 8 & & & > p S m 8 y y g g d ' p 8 > % X k = * 5 3 ' 6.9.+XeXpX6X@X^.T.^.I.I.L.a.G.I.'.6XI.9.9.I.s.y.P.I.I.I.I.I.I.I.I.I.P.P.F.F.;.;.:.>.] ` ^ & $ - * ) 8.OX X).].'.'.'.'.].+X+X0X-X%X'.'. X%X'.'.'.'.'.'.|.aX@X).'.rXgXeXeXeXpXiXiXuXyX9X XF.$. .B 1 ; 8 f ' $.;.,.! @.Y y r w w t z p 3 1 & 1 a *. XyXdXpX%XI.L.9.,.;.;.&.5 b %.;.",
"'.'._.I.P.h.q.I.I. XMXCXxXI.I.I.I.I.I.I.y.x.L.I.I.I.q.,.%.&.q.6.6.oX&Xq.%XbXMXMXZXAXZXxXb.1.;.3.R I p % # # # # # # # % & * * * # # # & 2 = ; b $ X q * # # # # # * $ # 2 - $ # # # X X # # X   # # # F H m # & % 5 m * g 0 / ; ; $ o - * } | &.8.k.c. X@XQ.!.R.I.I.I.I.J.a.G.R.^.[.I.5.7.I.L.L.P.P.I.I.I.I.I.P.F.F.F.;.;.%.} $.' S / ` ^ & # & * m } I.'.'.}.}.'.'.'.'. X X X*Xn.&XOX*X*X'.}.'.'.'.'.}..X'. X7XiXiXiXuX2X$X2XiXiXuXuXpXeX-X-XN.&.` 0 1 8 d ^ ] / I u u e u u y 5 * ; n $.'.tXbXCXxX0XI.G.x.a.y.1.;.7. .; n %.;.",
"'.'.'.'.I.G.I.I.I.I.9XmXjX0XL.I.I.I.I.I.G.G.I.I. XF.;.;.;.;.;.4.s.oX&X7.;.F.>XtXiXtX|.F.;.;.G.} I I I 4 5 $ # # # # # & * * > * # # # * S l o l l O A 0 # # # # # # # # # ; V & # # o o # # l k # # # # # # # F 0 % $ # # & 1 5 : * * * * 6 a ` ' &.;.;.Q.h.6.6.6.8.>.;.;.;.;.9.8.;.6.5.6.F.F.u.F.F.F.F.F.F.F.;.;.;.;.&.$.| A / ` ` ` ` h * 1 * - b 1.G.'.'.].*X'.'.'.'.'.'.'.].Y.Q.c.#X+Xi.W.W.W.'.'.'.].%XtXuXeX2XeX4XpX2X4XiXuXuXuXqXeXpXyX9X'.6.h.D q * 1 1 3 y y 8 3 1 & > p $.].=XxXNXCXgX6X@X!.P.a.x.G.6.j.5.+XZ.* h ;.;.",
"'.'.'.0.).%X XI.I.I.I.iXkXdX'.P.I.I.I.I.I.I.G.Q.!.;.;.-.$.' ` { 1.%.8.:.;.;.:.;.6.;.;.;.&.' { ^ ' %._ g b & # # # # * J 6 > 1 8 W 5 0 H <.g q m m V V F Y ^ ^ ( | >.` ` ` ~ >.' 8./ ^ F h f B V a p 8 0 7 1 1 0 1 & & # # # # 1 * * & & # # m m 1 7 8 8 F | g ( h 5 5 b 5 1 1 1 7 8 0 z g h B Z f Y Y ^ ^ ( ` ` ) { } ) ` ] / ` ` ` } 5.h & > 2 - g %XW.'.'.'. X'.'.'.'.'.'.'.'.'.E.j.].#Xz.oXOXQ. X6X9XqX$XyXuX$Xn.2X%X9XqX0X$XeXyXyXyXyXiXuXuXuX9XOX2.*.n o # & ] 2 # # 0  .I.rXcXNXmXMXxX6XI.L.J.I.I.L.G.;.;.4.%.5.w.- ^ :.4.",
"'.'.'.l.].|. XI.I.I.I.{.nXmX8XI.I.I.I.I.I.I.J.W.Z.6.F.$.d u e e u s I ` $.R.G.%.2.:.;.o.^ I I I ] u.y.Z = # # # & 1 1 H ( )  .G.E.L.^.%X|.>X6X6X8XqX0X9XtXtXyXyXpXeXiXiXyX4XeXyXpXeXtXwXwX9X7X6X6X,X|.%X'.I.F.S.;.} ] h p 7 & * > * = k $ ; = *         0 8.H  XB.q 2 o X # # # # # #   # # $ : = 1 j h 7 8 y y +.Y.Z.B g d ^ ` ` ` N.-XV.6 1 m 5 7 ;.S._.'.'.'.}.'.'.'.'.'.'.'.'.'.'. X%X%X%X6XwXyXyXdXeX&X+X|.].).I.I.J.l.y.,.J./.'.|.6X9XtXuXiXiXeX&XF.>.5 # % B C $ & A. XtXZXZXZXMX8XI.K.I.F.i.G.P.I.F.;.} } ' ` B k ] 4.d.",
"'.'.|. X X}.}._.I.I.I.I.&XjXhX'.P.I.I.I.I.I.F.;.;.&.F.o.r r w t t r e s g { o.5.0.;.;.$.4.1.R I I I ^ B * # # & 2 C q  .S.|.tXgXcXMXMXMXCXZXBXMXnXjXmXSXBXBXMXMXMXBXBXMXMXdXbXMXjX5XMXMXMXMXMXbXnXbXbXhXdXcXxXxXqXn.2X$XoX_.$.p & %   o $ n $ 1 0 N b a h .XT.-XoX{ H 5 1 * * & % # # # # # & n ; # i i % & & > B q.&XV y 8 y f ` `  .*.j 3 b * & > $.;.I.'.'.'.'.'.'.'.'.'.'.'.'.'.}.|.6X9XrX9X6X|.'.'.I.i.f.G.I.I.I.I.I.W.).G.T.I.I.I.I.I.W.Q.|.6X8X9X'.;.f % # m A X % ) F.yXBXMXBXCXgX XI.P.F.0.R.I.I.6.;.>.S _ ` 0 o { 1.4.",
"}.'. Xl.l.'.'.'.I.I.J.I.I.iXCXtXI.I.I.I.P.P.J.G.&.I u e u e r z M s I <.A t s [ } 1.4.;.c.g.A I R W I f & # % 1 X.B F ;.|.MXZXZXZXZXZXCXvXiX0X+Xz.j.%X,X>X|.|.|.|.|.aX|.{.{. X|. X).{.{.{.'.'.].v.). X1X'.R.].'.3.0.W.h.,.G.G. .& # # # # $ 6 $.;.F.F.I.J.'.-X&X+XOXC.%.$. . . .` F f m q 8 7 2 1 & & % # # #   # ; q ; > 1 0 8 f ^ a 7 7 2 5 # # & / ! G.'.'. X|.0.l.'.'.'.{.}.|.,X6X1X|.}.'.I.K.K.P.I.U.p.0.I.I.I.I.I.I.J.].R.R.I.I.I.I.I.9.h.F.F.P.I.I.F.' > # 5 V 9 # a ;.eXlX'.,XtXxXvXeX].P.I.I.I.u.d.:.o.] ` ` 7 H %.j.3.",
"}.#Xb.h.c.'.'.'.'.J.%XJ.I.{.bXbX XI.I.I.I.I.T.8.' s e e 6.I U I I I I R R I I I } m.! 6.U.E W W R ~ I p % # # & 1 1  .F.iXZXZXZXZXMXiX6X'.I.U.l.XXW.L.W.I.P.P.P.I.W.$XY.I.P.W.%XI.P.I.@XJ.P.P.P.G.L.I.L.y.f.y.I.F.F.P.y.q.l.l.;.G * # # # $ B F.I.8XuXlXxXdXjXfXkXsXqX9X6X X'.'.G.,.6.>.5.;.;.6.;. .' ` ^ f a 8 1 ; ; $ # # B q & * a ' &. .1 # # # 0 ,.;.'.E.$X%XE.E.'.'.}.}.{.'./.I.OXU.I.F.F.6.;.r.Q.x.0.q.G.G.I.P.P.I.I.I.I.I.I.I.I.I.I.G.G.I.I.I.G.i.F.$.p # # 0 9 # 8 >.OXiXI.P.I.I.{.v.&X6X'.I.F.6.,.+.` ` ` ` 1 2 $.8.6.",
"'.].#X).W.U.'.'.I.I.J.I.I.I.9XCXuXI.G.G.W.^.F.;.r.O._ I ] I I I I I I I I I I I | k.c./.&._ R W I I d = # # $ 5 $ i ;._.MXZXZXbXeXQ.G.G.I.I.I.G.oXU.I.@XJ.I.I.I.I.I.2.oX.XI.I.J.I.I.I.T.I.I.G.G.I.I.P.7.! y.G.I.I.I.I.I.I.G.U.6.<.- # # # ; V F.{.BXZXZXNXmXjXjXSXjXjXNXZXZXBXMXhX=XwX8X6X}.'.].).F.F.F.F.;.;.;.*.S Q  .} p 5 l & & h &.;.;.' * # # # h *.F.].].'._.q.l.R.I.F.F.F.F.S.F.;.4.} &.Z.8.;.u.u.F.F.i.c.L.I.J.].I.I.I.I.I.P.I.I.I.L.I.I.G.G.G.E.G.;.^ > # # # # 5 ! g.4XI.I.U.G.G.6.y.Y. XI.;.;.1.{ ` ( ` ^ * > $.;.;.",
"'.'.'.'.Y.j.I.I.I.I.I.5.q.I.I.gXCX>Xy.v.].U.;.&. XiXyX/.=.o.O.` ` O.o.@.=.r.F.K.J. XxX|.$.%._ I I g l X % # $ n = V %.8XZXbXwX].XXf.! i.F.F.C.6.! C.I.I.I.I.I.I.W.J.I.I.I.I.I.U.Q.I.I.i.y.I.q.f.G.I.P.G.9.G.I.I.I.I.I.I.J.i.L.F.,.2 # # # # 7 ;.I.iXZXZXZXZXmXfXjXjXNXZXZXZXZXZXZXZXZXZXZXMXdXdXiXyXwX6X|.'.I.G.F.F.F.F.C.;.%.} ) a 5 g  .-.;.a # # # & ( ;.F.I.I.G.! 3.6.;.>.1.$.$.$.$.$.Q ! ;.G.G.F.P.P.I.I.W.E.p.G.G.W.I.I.I.I.I.P.Y.G.I.0.U.I.l.j.I.G.9.%.` a # # # # X Z x.4X_.J.^.,.8.I.J.h.7.Z.Z.&.E V R f ^ Y & 1 $.G.R.",
"I.I.I.I.I.G.I.I.I.I.G.f.9.I.I.}.MXeX0.W.I.F.;.;.6.OX0X=XfXgXdXgXlXlXxXcXxXxXxXiXqXiX8X;.+.a._ I p * X   = $ = = 2 ! 8.9XtX'.I.G.G.6.1.%.;.;.q.7.G.G.a.L.I.J.W.T.*Xv.J.I.I.I.I.p.=X).G.,.1.I.W.Y.I.I.L.G.G.I.I.I.I.L.y.G.U.0.G.F.4.8 # # # # * +.u.|.dXNXZXZXmX4X=XqXeXiXlXxXnXhXMXMXBXZXZXZXjXmXfXfXZXmXbXMXnXsXtX8X>X}.'.I.K.F.;.;.} 5 * F G.$.2 $ # # 1 ' &.;.;.&.$.$.' ' S V E } &.;.} 6.F.P.I.I.I.I.I.I.I.).p.h.G.I.P.I.P.I.I.I.L.c.U.I.y.G.I.-XoXF.6.D { ` ^ 1 # $ $ X b 6.hX|.J.G.T.^.I.W.G.F.6.:.1.V V V d Q R & 1 &.;.6.",
"I.I.P.P.I.I.I.I.I.I.G.9.G.@XW.I.9XdXOXY.I.F.;.;.C.6.;.L +XI.I.I./.I.I.I.F.F.T.U.;.=.' ^ [ ! I 3 * & = = D S b = h ;.G.I.F.F.F.F._.;.;.;.F.F.G.G.I.U.b.G.I.a.g.G.w.f.I.I.I.G.P.J.!.G.I.F.F.P.J.W.I.a.x.f.q.I.I.I.I.y.x.c.Y.I.I.F.;.h   # # # & Q y.I.sXkXZXNXfXW.R.G.R.I._._.Q. X/._.wXrX2X4XpXlXhXnXMXxXMXZXZXCXCXfXmXMXbXxX2X1X|.J.;.) 1 * |  .<.- # # # * p ^ ' ` ` ` $.$.` ` S >.&.*.! 8.F.I.Y.E.I.G.2.G.I.F.G.y.L.I.I.I.I.I.I.I.I.%XI.I.P.F.F.F.;.$.@.' ` ` ^ { 1 o O # & ' iX6X@Xl.l.<X^.v.a. X`.+.~ B d d d E R % 1 @.$.=.",
"F.F.F.I.J.G.G.P.P.P.I.F.I.R.G.G.I.6XU.l.8.;.;.;.N.;.;.5.Y.;.;.>.1.;.;.:.5.%.%.>.2.%.I I I s 1 B 4.B l n h.l.w.g 1.I.P.;.;.;.4.+X%XI.F.F.L.I.L.I.I.I.R.G.i.R.k.U.G.G.I.@X!.Q.P.I.I.I.I.I.K.K.I.I.F.G.a.q.G.I.I.I.I.I.L.I.I.I.I.P.;.[ l ; & # # 8 %.F.0XmXZXmX&XI.J.I.I.J.I.I.P. XwXyXgX}.s.j.G.J.f.c.OX X1X8XwXtXuXpXhXdX4XfX=XfXhX4X#X7.( 1 $ k 5 # # # # # # & 3 g >.] %.%.`  .Z.1.} ` )  .$.;.6.G.R.p.h.y.Y.E.%XG.P.I.I.I.@XT.I.L.I.J.E.).;.-.$.' ` `  .' ( f 1 3 & X X # # p 6XwXG.G.G.I.I.T.j.a.6.E Q M g d d f ( 1 1 I Y Y ",
";.;.;.;.!.l.7.;.6.9.;.6.;.;.! 4.;.&.@.Q D >.;.N.;.;.;.;.6.;.;.Q >.-.&.%.>._ I V ! ] I d 3 1 h 4.5.e.; ; >.-X;X8.3.].P.6.;.;.q.0.J.aX~.P.I.I.I.I.I._.I.0.j.J.v.OX).I.I.W.J.I.I.P.P.P.I.I.T.G.I.I.3.9.5.9.J.oXG.P.I.I.I.I.P.I.G.F.;.$.5 8.A.5 # & ' :.'.MXZXMX XG.T.I.I.F.-.-.8.y.'.|.'.P.L.G.I.I.y.U.OXJ.P.P.F.F.F.I.I.W.E.j.E.{.'.).Q.-X&.^ 1 o   # # # # X $ # $ = m 5 1 7 a e.>.>.e.^ ` ` ` ` ' u.l.,.;.;.u.G.Y.0.F.I.I.I.!.Q.R.U.i.g.g.4.@.' ` ` ` ( C.) 1 #   # # X $ # X 3 F.&XU.I.I.I.F.N.;.o.Z Z g n B d d f { / 1 I I I ",
";.;.;.;.;.;.;.;.8.2.8.j.6.;.1.:.$.' ` r.i.2.3.q.;.;.;.;.;.-.&.o.' _ R Q ] I I B R d 8 1 p  .&.h 1 2 $ $ 2 >.q.9.9.6.G.oXL.K.I.I.I.I.I.I.G.L.I.I..XaXaXI.I.I.G.Q.#XJ.#Xp.I.G.p.R.I.I.I.I.!.J.I.I.9.7.f.h..X$Xs.L.y.G.L.I.K.G.z.7.;.5.B 8 ..2 $ ; Z ! F.yXZXbX_.J.@XU.y.@._ _ S ! =.P.aXI.I.I.I.I.I.G.G.I.G.Q.J.I.I.P.P.I.K.L.F.G.G.I.%X6.E ] [ 8 # # # # $ l n = $ m w.q = * ; n m 3 2 * 2 0 8 p B [ / / ` ` ' ' o.$.=.;.;.6.U.&XoX2.3.Q [ ` { w.{ h y 6 2 % # X l 2 q l l X k B ~.9.f.q.I.P.;.;.%.$.B B A N d d f ^ 8 & = N D I ",
"` ' ' $.$.$.&.=.;.;.7.0.;.;.;.K.rXyXyXiXuX%Xh.5.:.&.$.@.` _ I I I | 3.R _ I [ A B p 7 ) ;. .p % % # & 2 V 8.6.q.l.G.L.J.L.I.I.I.I.I.I.G.f.0.F.F.P.I.I.F.P.F.F.F.6.F.Y.l.Y.F.9.y.F.F.F.!.q.6.9.F.F.F.9.9.I.G.u.u.! 4.u.F.F.u.9.6.o.{ g # # $ z 5 b } ;.|.BXvXI.a.R.oX,.1.6.o.o.1.$.r.,XI.I.W.T.G.P.,.2.I.G.c.W.I.I.I.I.I.G.9.,.2.p.I.-X*.D [ XXJ.7 # # $ & = n Z l B OXG - * j ..% % # # 5 m * 6 Z k 4 M 1 7 y d E | / S ]  .8.;X0.} | ) ` ` 2.Q 1 % # q 4.* # $ X j w.n k 0 8 2 i | ! U.U.;.&.' 4.6.d f V B d f ( B $ # l c N I ",
"I ` ' $.I I Y ^ D.H.` ' o.@.;.;.;.F.S.F.;.;.$.' +.} I I I I I I I 7.5.>.Y.' F q ] 6.&.&.^ 1 # & F 2 B.q.f.G.G.T.XXF.P.I.I.I.'..XG.y.F.;.,.,.C.$.@.@.@.@.o._ _ _ S e.` ] ] Y / ^ Y I ^ ,.A Q ! R ~ E I Q R R R E R I ~ R I I I Y I [ R 2 # # @ n : ^ ;.J.iXeX2.g.a.I.OX=XqXyXtX2XeXuX8Xq.G.l.z.q.I.7.7.I.I.q.0.I.I.I.J.oXR.l.2.7.G.P.[.&.`  .-XA.( 7 # q m h G.l.| F B B 7 2 V 9 # # # # o k 0 C.S k = @ X   # & B q 8 n / `.} } } ^ V V g 1 4 = # # ; b g q 1 & # * h ' &.;.&.$.^ 9 a ' ,.%. .` ` ^ f d d f ^ | S l 2 2 k ; 1 y ",
"^ `.6.X.I R Z I _ _ V S I I D.-.Y _ o.%.] ] ^ N 2.i.I B Z V I I I _ ^ R V 2 g  .*.;. .a & # # & ] { j.k.9.U.J.R.!.F.2.9.G.F.F.~.>.L ! R B f { _ >.s s u u t V e M M s I I R ,.t r u +.s t ] R B b.U e N g V M W t e R B t r z t f [ { b # # $ b ; 9 %.F.$X&X2.2.I.G.w.Q.Q.&X].j.U.I.G.f.y.G.i.G.I.I.I.I.I.G.U.I.I.I.I.T.I.I.G.q.G.;.&.} 5.' 8.<.<.^ 1 $ n V 6XCXMXxXuX0Xv.c.k.6.$.( ^ ~.| b 3 8 0 l $ b l X # $ B 1 # # * 0 : : 1 * $ ; V * # & & # = b H 5 B.j # & 1 6 7 8 g f j 7 & & 1 0 f Y ^ ^ ^ Y h Y f q : Z 1.2.%. .{ ^ ",
"I ` R I ] R V / R I B R I I Y _ _ _ ] 5.B D R g.,._ I R D ! _ I I d 8 & 1 F w.#X*.h * & 1 ; q ] *.6.f.s.L.l.OXl.8.=.1.Q Q I U s t x e.>.! t s d R s e e t t R t s u [ [ R I R e e e I _ R _ V Z R e t M B R r r r r f V z r 5 r e U I 1 # # # # # * $.F.W.).J.J.I.R.+X^.I.+XR.L.I.I.I.G.L.R.).I.I.I.I.I.I.I.I.I.I.i.G.I.I.I.L.l.9.;.%.| ,. .{ ] ,.Q Y 1 b C 5.fXjXZXZXNX5X3XsX4XyXuXuXcXsX&X|.'.P.C.) E m = & 6 # # # % X l k x $ # # * = * j X.q # # # 2 * h a 7 7 1 1 1 * b z % & %       # # & & * * & & ; V o A ! 1.;.%.w.;.",
"y g S B i.8.f <.[ 1.I I I I I ^ _ E ~ V N B I 1.5.I I I I R f d 3 k k a  .&.$.*.9 % # i B.D ,.,.;.6.8.:.$.{ [ R N N %.] I s s s n M <.[ E n B a p y y B x V l.A >.p y M Q &.y y p p B w.^.-X>.z B I e e y u u u e r b n t t N B ' s M o # # # # # & ' G.c.W.W.2X).I.'.0XI.G.I.I.G.h.i.G.I.K.I.I.6.F.P.P.I.I.I.I.J.+XoXI.J.J.F.5.5.!.G.` ' N.N._ L f.>.! C 5 f.+XsXZXZXZXxX].W.W.-XQ. X X|.0XqXtXeXyXyXtX9X6X'.aXB.^ a p k l = ~ q # $ H - 6 B.0 ; = b W } 9.F.'. X%X|.'.I.F.F.6.6.$.@.' ` ^ h a h a B V 1 B 2 2 $ o n ] $.$.%.;.",
"# # $ 5 >.g * 1 3 0 1 > 1 7 a i i p t 4 5 y B 4.>.` @.y 1 > & J q X q / f i 1 ..6 1 & & ; b 2 1 1 5 l 2 S z l : 5 z = 2  .2 z 5 o X @ z o k = X o o = J 5 $ 5 o S q # % 7 j # % 1 & = q @X.XG B g B > > 1 4 S V 3 3 5 M D x t p d y 4 X # # # # # # >.qXOX@XJ.W.I.I.I.I.I.G.G.P.F.9.2.p.F.F.F.i.U.F.F.F.G.W.C.6.G.*XC.6.0.;.&.$.%.Z.C.*.@X+X2XwX0X%X6.>.V # 6 ^ 6XbXZXZXwXI.I.I.l.j.%Xl.y.G.@XJ.].I.I.'.].#X7X9XtXtXrX8Xc.Y.;.' 1 # # - $ ..G 8.8.>.g.a.1XeXyX9X8XqXqX0X9X9XqXqX&X6X X]. X'.'.I.].W.f.k.Q [ h 3 - k o & 1 p m V ",
"-.@.` V } C 2 # F 9 1 h  .&.N.N.F.P.~.'.|.8XeXdXdXxXsX} & b 5 ; n X X l * 2 2 * & V.j # # # # # & * $ - L c = $ @ @ o C 1 & X l   # 3 %.x c = k k o $ $ # # # $ k = # 6 7 % # * B.6 $ 5 V H g G = & X o # $ 5 2 = q = $ =   % % & & % 2 - $ k 2 2 5 k !.*XT.F.F.F.F.6.;.;.7.6.;.>.! L 1.4.%.&.&.-.&.;.;.#X#XZ.6.%.G.&.:.) ( ^ Y ^ C.w.$XZ.L >.R.@.' +.| A 0 i 2 Z.;XCXMX|. X0XI.G.G.J.U.G.@XW.).W.Y.F.F.a.a.K.I.I.R.W.k.g.R.'.F.0 $ # & i { 3.%XqXqXn.5X&X XW.G.9.L.Y.l.F.W.*X].J.I.h.l._.v.oX'.R.Y.OXl.P 4.@.) H = o 5  .&.1.! ",
"MXnXfXhXxXsX1XS.' 8 7 [ c.$XuXvXMXZXAXZXZXMXxXyX%XW.6.[ m L 5 $ D b = 2 8 H <.0 6 9 5 M - 1 * * V...* * : : * 5 l o 1 b : > C b 2 1 W k.L V g b n 0 a m B p p p ) / 8 *.( 1 1 1 i j q q 1 B 1 & * $ ; E @.$.6. .>.c.S m b g 1 5 b & # C q o k } 5 5 # - G {  .$.+.d.f.} { 5.} { S A [ ` A E `  .X.`  .' %.' / R ~ Y ( %.f B g d ^ X.R l./ B R { ` ] ~ ] Z G %.! H ;.iXxXU.*X].I.G.OXG.F.F.U.G.6.:.2.8.%.3.7.;.:.8.3.8.h.! %.C.*.n o # ` 6XyXuX=XmXgX%Xj.9.F.Q.7.,.G.L.2.l.!.I.I.I.I.y.G.J.l.U.I.q.j.&XW.#XR.;.` ) 2 v b ^ ;.;.;.",
"ZXfX=XdXZXZXZXZXnXuX`.[ n m ' F.I.iXZXBX8XF.;.C.S V d N Q } 4.h >.>.1.%.%.;.#XF.;.6.Q 1.N.^.*.%.[.[.&.%.&.;.~.Y.3.4.8.g.,.;.OXU.;.G.+Xv.sX*Xp.s.0.F.F.9.2.F.F.F.W.].;.G.;.@.` ] $. Xf.| f y.f * m ; * _.xXpXpXgXdX+X0.i.Q.W.S. XE g M Z k >.* & # # 8 / l : 0 h S f.j.[ 3.*X0.} R f f f B B  .X.4.( Y B.` B Z Z N d g d f ,.,./ >.<.| L V d ~ >./ ^ ( ` 1.0 n Z $ 7 ;.p.h.R.y.-.$.<.Z B f 8.{ a g D Z n x n h Z V h f f C N L / 5   # h -Xc.W.2XlX XOXk.i.I.G.G.L.I.G.,.f.q.I.F.P.G.9.9.F.F.P.0X].5.G.F.;.R.U.{ 3.| C 1 8  .;.;.",
"tXeXrXyXyXyXyXpX=XnXBXlX'.5.B a  .6XAXgXo.I I Z.H 1 B B i.G. X0XqXpXqX+Xv.+X8X,X XE.f.i.q.@X%Xg.j.J.G.f.y.G.}.'.J.I.I.R.J.I.I.9.i.J.OX*XkXdX#Xp.R.a.x.M.g.s.r.r.8XcX_.F..X^.J.*Xc.2.! { V [ ^ p 8 = : B ;.R.p.1X0XG.F.F.9.1.d.4.E N x ! ; i h 7 0 0 H B k k # $ 5 B oX} oXkX&X} f B d f f V ~.( oX,.V N.$.E B B d E ~ / f 5.Z.F E F B f.Z B f / ) ( f ^ | 1 k 2 g 2 ; 8 q b V 2 1 H : 2 2 B 2 > 1 2 m n b q p G g 7 8 j m : : * # # # & ) 3.,.v.xX].Q.&XI.I.T.!.p.9.j.j.Q 4.1.! ;.4.f.! &.&.&.;.! g.} &.&.C.;.' } [ a g F i $.1.",
";.;.;.J.C.,.4.;.i.eXAXCXMX7X%.f 8 I.ZX%XZ g 1 q B ) 5.6.G.'.qXsX:XeXeXqXsXdXMXvXeXhX=XsXqX:XqXqX=XdXdXsX=X=XhXxXdXdXxXlXxXxXxX=XsXxXdXsX5XfXfXdXdX4Xn.=XeX4XuXdXCXMXtXeXrX0X+Xz.#Xj.F.;.Q R { ^ ' | B 5 f } f.c.u.$.' E L Q B t Q ~ V | %.Q.zXwX&X&X:X+X! R 8 M 5 $ H S h.*X:XY./ f.N | >.L [ F 5.f.>.f ( { / e.f B ! l.V Z.X.{ F d f E D V f ^ N.B.B q i 6 k V G e.A o ; n g a S }  .-Xh.k.,.;.;.N.0.g.6.f.Y.Q./.R.OX.XH. .1./ a 7 : $ * $.8.6.c.! F.F.F.F.F.,.h.m.2.%.$.$.} | ( E f.Z ^ Y Y B E ~ f R / } / [ Z A >.8 * 2 g ! ",
";.;.;.'.F.1.4.%.;.;.,XvXjXMX'.&.h a F./ b C 8 F } ;.F.K.I.I.%XqX}.i.! J.'.'. X1X=X=X=XfXjX=X5XpXtXpXqX0X+X$X8X8X+X&X9X9X9X9X9X8X9XqXsX=X=XqXqXsX4XqXv.n.=X$XqX=X=X:XqX;X$X%X&X*Xz. XI.1.A ' p.1.] 8.G 5.N V v A R ' f p b C C | sXsXsXhXjXjXZXNXsXjXNXmXfXgX6XoX9.F p b x S m 5 5 B g | 5.v.l.] f.E f d d d ( / f f B ,.l.l.,.>.[ B B N D B Q V 8 1 l o ..%.H | ( %.c.Y.F.G.I.W.OX1X>X6X%Xk.v.tXiXiXdX=XhXfX5XfXbXbXnXMXgXI.8.6.;.8.j.2   >.2.>.{ >.X.$.&.N.$.A f.n.8.| _ f } [ B Q B g f f d >.f.S d V V N F e.Z l.L 1.a m 2 | ",
";.y.G.;.4.%.1.L 8.;.:.p.5XNXyX;.*.G     - H >.1.! 0.U.I.I.I.'.'.K.F.G.W.6XrXgXxX4X=Xv.m.v.W.x.i.G.].I.F.G.U.h.5.,.q.F.F.F.a.d.,.G.0.+Xv.k.G.2.l.9.6.u.%Xz.1.6.j.v.c.!.@XU.R.eX.Xi.I.F.%.1.&.[ [ Q R u g m l ~ ! g F 1 $ : m 9.sXSXkXjXjXfXmXcXnXfXjXfXmXZXZXNXfXxXrX{.F.+.E b l o   # 2 q V x B V g d B / h `.$.[ [ f *.-XdX=X,.B 0 b l S 5 [ ~ B F [ >.f.g.%X1X8XwXqXsXnXfXcX4XdXCXZXZXZX4Xn.jXfXfXmX5XmXNX4X=XjXMXmXbXMX9XR.e.6.U.7.) n K S 5.` ,.S ^ ` H.h p N ,.B ,.B 1 2 1 2 q > 1 { 8.g 5.V B F 1 5 n V 0 0 G 2 0 1 - & f ",
";.G.8.:.j.5.:.3.6.;.8.5.OXMXMX0X7.v.D k 1 { p.G.G.R.J.P.7.! Y.Q.{.6X%Xv.8X%X X'.W.Q.c.g.9.L.i.G.J.b.'.I.I.!.w.y.G.I.2.9.%Xa.3.f.G.L.I.Y.k.x.2.} ` 1.+.9.f.] r.$.4.c.F.F.9.9.J.J.F.P.F.6.R.*.' I Q Z t @ # B q B ; $ $ n h.eXhX5XfXjXfXdX=X#XW.@X+Xk.=X=XhXZXmXfXZXZXBXvXgXpXz.e.[ g 1 * q S 5 ; 1 & = b m B e.2 9 q F | ;XkXl.! ) } l.%.w.6.I.).&XqX3X3Xn.dXdXjXNXNXfX5XfX5XfX=XfXpXlXMXZXjXjXfX4X2Xm.k.&X6X%X%X%X%X|. X'._.J.C.F.R.;.OXe.h.H ..B H - * - 9 8 E Q 9.6.4.%.-.4.2.;.%.;.;.,.5.;.! A ,.f.B B N q i 6 1 * $ z = & j ",
";.;.%.9.v.6.;.;.;.;.0.4.! 1XCX-XXXx.Q ; h ;.c.R.I.aX'.y.y.9.oXoX X X@XY.U.9.G.I._.I.L.i.G.I.2.9.I.L.I.I.R.@XI.I.I.I.G.G.b.g.f.,.G.y.K.0.P j.:._ 1.x.~ ~ ] _ '.@.+.].J.9.! g.Z.x.x.6.:.d.y.@.{ R V B t l # m 3 ; o o N #XfXNXmXjXjXsX%XE.m.k.W.!.oX9.y.g.Q.8XpXxXMXZXNXmXmXkX:X=X$Xx.F. .w.G S n ..a k x = e.L 5 5 0 m q e.l.OXOXaX0X0XyXiXnXjX5XmXjX5XMX5XhX=Xn.dXiX+X=X+X+Xg.2.0.! F.'.rXvXbXNXZXcXY.U.E.G.F.I.T.!.I.I.I.I.I.F.;.:.;.i.6.>.5.5 x 2 % C 3.,X9XwXeXyXuX:X=XhXdXdXxX:XhXhXn.n.fX=XfX=X=XpXeX2X6X}.I.&.^ p t $ j .X"
};
