/* XPM */
static char *_aefcd62821d4272ac279a14debb21afeakvlJkJriphO2JC[] = {
/* columns rows colors chars-per-pixel */
"256 256 241 2 ",
"   c #0B161B",
".  c #0E1A1E",
"X  c #071318",
"o  c #101B1F",
"O  c #0F1A21",
"+  c #0F1C2A",
"@  c #121C23",
"#  c #111D2B",
"$  c #181F24",
"%  c #121E33",
"&  c #131F3B",
"*  c #0F1E30",
"=  c #152126",
"-  c #15222B",
";  c #1A252B",
":  c #1C262A",
">  c #152234",
",  c #1B2533",
"<  c #1E2A32",
"1  c #13213D",
"2  c #1B273C",
"3  c #1F3038",
"4  c #23282D",
"5  c #222C33",
"6  c #262C38",
"7  c #2A353C",
"8  c #273339",
"9  c #36353A",
"0  c #423A3E",
"q  c #141F42",
"w  c #142143",
"e  c #1A2545",
"r  c #1A2649",
"t  c #1C2A4C",
"y  c #1A2846",
"u  c #1E2D51",
"i  c #1F3050",
"p  c #222C4C",
"a  c #252D46",
"s  c #293548",
"d  c #323D44",
"f  c #353949",
"g  c #222E52",
"h  c #292F56",
"j  c #233254",
"k  c #26355A",
"l  c #29365B",
"z  c #2A3A5D",
"x  c #2A3655",
"c  c #363957",
"v  c #2D3E64",
"b  c #2F3F68",
"n  c #313E64",
"m  c #383C65",
"M  c #433D51",
"N  c #3A454C",
"B  c #38434A",
"V  c #3B4755",
"C  c #2E4065",
"Z  c #2F4169",
"A  c #324266",
"S  c #34456B",
"D  c #37496C",
"F  c #394A6E",
"G  c #3A4669",
"H  c #3C4C72",
"J  c #384871",
"K  c #3E5074",
"L  c #444A57",
"P  c #49545B",
"I  c #504B52",
"U  c #464A69",
"Y  c #4B5666",
"T  c #545C66",
"R  c #444B75",
"E  c #425275",
"W  c #44547A",
"Q  c #4A5A7D",
"!  c #495779",
"~  c #565977",
"^  c #564C6B",
"/  c #6B5A70",
"(  c #59636B",
")  c #5A6677",
"_  c #646B77",
"`  c #68737B",
"'  c #756976",
"]  c #6B5559",
"[  c #8D6C76",
"{  c #A6797B",
"}  c #4C5D82",
"|  c #4A5680",
" . c #575985",
".. c #544E80",
"X. c #665C8D",
"o. c #4E6184",
"O. c #526285",
"+. c #546589",
"@. c #5A6B8D",
"#. c #596789",
"$. c #5D6D91",
"%. c #5E6790",
"&. c #5E7193",
"*. c #646A87",
"=. c #6B7686",
"-. c #747B88",
";. c #627396",
":. c #657799",
">. c #657899",
",. c #6A7C9D",
"<. c #6A7797",
"1. c #737D9B",
"2. c #797C98",
"3. c #6E6791",
"4. c #6D7EA1",
"5. c #6D77A0",
"6. c #757CA5",
"7. c #796AA4",
"8. c #8D768A",
"9. c #8879B1",
"0. c #A77C89",
"q. c #9A7EC2",
"w. c #78838C",
"e. c #6E809E",
"r. c #798498",
"t. c #6E81A2",
"y. c #7284A5",
"u. c #7B86A5",
"i. c #7688A7",
"p. c #7B89A6",
"a. c #7586A8",
"s. c #7B85AB",
"d. c #7689A9",
"f. c #7A8CAC",
"g. c #7E90AF",
"h. c #7F8FB0",
"j. c #7F85B0",
"k. c #7F90B0",
"l. c #858899",
"z. c #87939C",
"x. c #928A98",
"c. c #B28893",
"v. c #8389A5",
"b. c #818EAD",
"n. c #8989A6",
"m. c #968DA5",
"M. c #8191AE",
"N. c #8B92AD",
"B. c #8B97A5",
"V. c #9697AA",
"C. c #8385B2",
"Z. c #818FB1",
"A. c #8B8AB8",
"S. c #9388BC",
"D. c #8191B2",
"F. c #8A95B3",
"G. c #8799B7",
"H. c #8A99B5",
"J. c #8C9CBA",
"K. c #8897B8",
"L. c #939CB4",
"P. c #949AB8",
"I. c #A796AB",
"U. c #B798A9",
"Y. c #A69BB3",
"T. c #AD90B0",
"R. c #98A3AC",
"E. c #8FA0BC",
"W. c #93A2BD",
"Q. c #9BA6B8",
"!. c #A4AAB9",
"~. c #A7B2BC",
"^. c #B4A8B4",
"/. c #D09498",
"(. c #C79BA9",
"). c #D1A6B0",
"_. c #ECACAF",
"`. c #E29EA0",
"'. c #9988C3",
"]. c #9996C2",
"[. c #A487CB",
"{. c #AC97CF",
"}. c #95A5C2",
"|. c #9AAAC5",
" X c #9DADCA",
".X c #99A7C4",
"XX c #9FB0CC",
"oX c #A3ACC5",
"OX c #ABB4C3",
"+X c #A3B3CD",
"@X c #ABB7C6",
"#X c #B3BCCA",
"$X c #B5BAC7",
"%X c #B6A9D9",
"&X c #A5B5D1",
"*X c #ABBBD5",
"=X c #AEBED9",
"-X c #A8B7D3",
";X c #B4BADA",
":X c #B0AACD",
">X c #BEBBE0",
",X c #D0BACB",
"<X c #C5BAE2",
"1X c #E7BDC3",
"2X c #B8C2CD",
"3X c #AFC1DA",
"4X c #B4C4DD",
"5X c #BBC5DC",
"6X c #B6C8DF",
"7X c #BAC9DE",
"8X c #BBC6D3",
"9X c #B6C7E1",
"0X c #B9C6E1",
"qX c #B7C9E0",
"wX c #BBCBE2",
"eX c #BFD0E4",
"rX c #C2CDDB",
"tX c #C5C8D6",
"yX c #C7D2DD",
"uX c #D8D6DC",
"iX c #CFC7D1",
"pX c #E3CCD4",
"aX c #C2CEE3",
"sX c #C8C7E5",
"dX c #C3D2E5",
"fX c #CBD5E3",
"gX c #CDD9E5",
"hX c #C6D5E8",
"jX c #CAD6E9",
"kX c #CDDBEB",
"lX c #C7D8EA",
"zX c #D2DEEC",
"xX c #D6DAE6",
"cX c #D4DEF0",
"vX c #D6CBEA",
"bX c #D5E1EE",
"nX c #D9E2EE",
"mX c #D6E3F1",
"MX c #D9E4F2",
"NX c #DDE9F5",
"BX c #E4E4EA",
/* pixels */
"Y ;.>.>.>.>.>.>.>.>.>.>.>.>.>.>.>.O.A v v v v v g e w w & @ . o o . . . o 8 8 < ; $ @ . X X X . = $ $ ; @ $ @ . o o o o O . . . . O O O O # # # # % % % % & & & & & w w w w w w w w w w w w & O . . & w w r p z S A v v v v v Q >.:.>.>.>.>.>.>.>.>.>.>.>.>.>.>.>.>.>.>.>.:.;.H C D F t w % @ . . . X X X . . O + e g p t t k v v v A O.:.:.>.>.:.,.t.y.y.y.y.y.y.y.y.y.y.y.y.y.y.y.y.y.y.y.y.i.f.f.f.f.f.f.f.f.f.f.f.f.f.f.f.f.k.g.f.f.f.f.f.f.f.f.f.f.f.i.y.y.y.y.y.y.i.f.f.f.f.f.d.V . O & w w w w g v F ;.,.:.:.,.>.,.,.>.>.",
";.>.>.>.>.>.>.>.>.>.>.>.>.>.:.;.} A v v v k t e w w 1 + O . . = < @ . . ( 8X8X2X@X~.Q.R.z.w.` _ _ ( P V d 7 5 < - $ @ @ @ O O O . . . . . O . . . O . . . O O O O O + + @ # # # # % % % & % # . . . % e g p p t v v v v v v v K >.:.>.>.>.>.>.>.>.>.>.>.>.>.>.>.>.>.>.>.>.:.;.K C D S a + . . . . 5 ( ` ( 8 O . . O 2 y e w w u v v v A ! ;.:.:.:.:.,.y.y.y.y.y.y.y.y.y.y.y.y.y.y.y.y.y.y.y.y.y.d.f.f.f.f.f.f.f.f.f.f.f.f.f.f.f.f.f.f.f.f.f.f.f.d.a.a.i.a.y.y.y.y.y.y.y.y.y.i.a.i.a.y.V . O % w w w w w r k F @.:.:.:.>.>.>.>.,.",
">.:.>.>.>.>.>.>.>.>.>.>.:.>.&.W v v v z t w w w 1 % O o . = P R.$X( . @ z.nXzXkXmXMXMXMXMXNXNXNXNXMXbXgXfXrX8X#X!.R.B.z.w.` ) T P L B s 8 5 : - @ @ . . . X X X   . . . . . . . . o o o O O . . . . # & e p r w j v v v v v v A @.>.,.,.,.,.,.,.,.>.>.:.:.>.>.>.>.>.>.>.:.:.;.W v j , . . .   5 _ $XMXNXNX2X) ; . . o - & w w q r k v v v J +.:.<.:.:.t.y.y.y.y.y.y.y.i.y.y.y.y.y.y.y.y.y.y.y.y.y.i.f.f.f.f.f.f.f.f.f.f.f.f.f.f.f.f.f.f.f.f.f.f.i.y.y.y.y.y.y.y.y.t.4.,.>.>.4.t.,.&.@.s O . @ 1 w w w w w w t k H } @.&.;.;.:.>.",
"&.:.:.:.>.>.>.>.>.>.>.>.:.+.F v v v j r w w w % + @ O @ L R.gXbXMX2X5 . ( bXlXqXwXhXkXbXbXkXkXbXbXmXbXMXmXMXMXMXMXnXnXbXbXbXbXzXzXgXfXyX8X2X#XOX!.R.z.l.w.` ( T P N d 8 < : ; $ @ O . . . . . O O O O % w e w w e z v v v v v A F Q &.,.e.,.,.y.,.:.>.>.:.>.&.@.+.+.@.&.:.:.&.V - @ . . . < _ #XzXbXbXmXmXmXzX!.P @ @ . O # & w q w t l v v A H +.;.:.,.y.y.y.y.a.i.i.i.i.y.y.y.y.y.y.y.y.y.y.y.y.y.y.i.i.f.f.f.f.f.f.f.f.f.f.f.f.f.f.f.f.f.f.d.a.y.y.y.y.y.y.4.,.>.>.>.;.@.+.E W E H y . . . # % & w w w w w w r u k v S F J K ",
"D o.;.>.:.:.>.:.;.:.>.&.Q A v v v u w w 1 % + O O @ d z.gXMXbXmXbXkXP . d yXkX6XqXqXqXwXwXqX9XwXlXhXwXhXkXzXzXkXkXkXbXbXmXmXmXbXbXbXzXhXdXdXdXhXkXbXbXbXbXbXkXkXkXkXkXyX8X2X@X!.V.z.w.-.` ( Y N - O . @ & w w w w u v v v v v A H E E :.p.p.f.y.;.@.+.o.W K F A C C C S K U 8 . . . . < ( $XMXMXmXbXmXmXmXmXmXMXkXz.d O . . @ # & w w w g z v v v F } $.,.4.y.y.d.d.a.y.,.,.,.,.t.y.y.y.y.y.y.y.y.y.y.y.y.i.f.f.f.f.f.f.f.f.f.f.f.f.f.f.f.f.f.d.y.y.y.y.t.4.>.>.:.>.&.o.K D D S A S J y . . . o . O O # % % & & w w w w r t t z ",
"v C H +.;.:.:.:.:.&.o.D v v v k r r r 1 + . o . 7 r.rXbXbXmXmXMXmXmXl.@ ; ~.zXqXqXqXqXqXqXqXqXqXqXqX6X6XqXqXqX6X6X6XwXhXzXMXMXMXmXzXwXqXqXqXqXwXwXqXqXqXqX4X4X4XqXwXkXMXnXnXMXMXMXMXMXMXmXbXzXfXz.; . . # w w w w w k v v v C A S Q =.r.B.B.r.Q E D F F S D C v C C z p - O . . . < _ @XzXMXbXkXlXhXdXhXcXmXMXmXmXmXrXw.5 . o o @ % 1 w w e u z v v v A H O.;.,.4.4.,.>.:.>.>.>.>.,.y.y.y.y.y.y.y.y.y.y.y.y.i.f.f.f.f.f.f.f.f.f.f.f.f.f.f.f.f.a.y.y.y.4.>.>.:.:.&.Q S C A D D A C C A y . . . X   . . o o . O O + + % & 1 w e j ",
"v v v C H o.@.+.Q D v v v k r r t y , ; . . 8 ` 8XmXbXbXmXMXMXMXMXMX@X< . w.mXwXqXqX4X}. X4XqXqXqXqXqXqXqXqXqXqXqXqXqXqXqXdXkXkXhXwX6XqXqXwXqXwXqXqX6XqXqXqXqX6X6XqXqXdXkXkXkXkXlXkXkXzXmXmXmXmXzX` @ @ @ % w w w w r z v v C A F ! 1.~.tX$Xr.Q F F F F A C v v v p > O . . . < ( @XbXbXkXhXwX6XqXqXqXqXwXkXkXzXmXmXbXbX$X( ; . . . @ % w w w w t k v v v v H +.:.,.>.:.>.>.>.>.>.>.,.t.y.y.y.y.y.y.y.y.y.y.i.f.f.f.f.f.f.f.f.f.f.f.f.f.f.i.a.i.a.y.4.,.:.>.:.+.D v v A D A S C C v v 2 . o N w.` P d < $ O . . . . . O O + > 2 ",
"v v v v v v C C v C v k r w e p , ; = . ; _ #XbXmXkXdXdXbXMXMXMXMXMXgXN   L kXkXqXqX Xf.k.J.3XqXqXqXqXqXqXqXqXqXqXqXqXqXqXqXqXqX6XqXqX4X4X*X-X*X4XqXqXqXqXqXqXqXqX4X+XW.J.J.}.+X4X6X6XqXwXlXmXmXmXyXN . . @ & w w w w t v v C A F Q 2.$XBXiXB.O.F S S S A v v p - . . o X = ) $XzXMXkXeX6X6X6X6X6XqXqXqX6X6XqXqXwXlXbXmXMXzX!.L . . o . # & w w w w r j z A F A H Q ;.>.:.:.:.:.:.>.>.>.4.y.y.y.y.y.y.y.y.y.a.f.f.f.f.f.f.f.f.f.f.d.i.a.s.s.s.s.p.4.,.>.:.:.o.A v C S F F A v v v v k > . 7 8XnXMXbXyX2XQ.w.( B ;   X   . @ @ . ",
"v v v v v v v v z j r w w 1 , ; ; @ : T ~.zXbXzXdXqXqX6XwXbXMXMXMXmXMX` X < 2XmXwX=XG.g.D.D.J.*X9X9X9X9X9X9X9X9XqXqXqXqXqXqXqX9X4X*X|.E.H.G.D.D.G.W.|.&X*X*X-XXXW.G.D.D.D.D.h.D.J.&X4XqX4XqXaXcXmXMXQ.; . . # w w w w w r k v A F ! =.!.$X~.l.U c p p t k p > O . . . < ( OXzXbXkXeXqXqX6X6X4X4X4X6XqXqXqXqXqXqXqXqXwXhXzXmXbXfXz.d @ . . O # 1 w w w w r j z v v A D } $.;.:.:.:.:.>.>.>.,.t.y.y.y.y.y.y.y.y.y.y.y.a.a.a.a.a.a.y.y.y.y.a.C.C.C.C.u.,.>.>.+.A v v C D S F C v z j r w # . N gXbXmXmXmXmXmXbXzXfX2XQ.r.( V 8 ; @ ",
"z v j r r r r r w w q & % = : ; = P R.zXbXkXdXqX6XqXqXqX6XdXmXmXMXmXMXQ.@ . z.MXdXXXD.D.D.D.h.D.}.&X&X X}.}.}.|.+X*X3X4X4X3X-X XJ.D.D.G.D.D.h.D.g.g.f.M.M.M.M.g.f.f.D.D.D.D.h.h.h.D.}.=XqXqX9XwXkXmXzX=.@ o O & w w w w w w t j z G ) =.=._ ~ ~ c j e % # . . o X ; ( ~.bXMXzXhX6X6XqXqX4X|.H.G.J.|.=XqXqXqXqXqXqXqXqX6XqXdXzXbXMX8X=.5   o . O % q w w t r p r r u z v S W +.;.:.>.>.:.:.:.>.,.t.y.y.y.y.y.y.y.y.y.y.y.y.y.y.y.y.y.y.a.s.C.'.'.9.4.,.>.&.D v v A D D D D v g e w w w # . L gXbXMXMXMXmXhXwXeXkXmXMXMXMXgX8X~.z.",
"w r w w w w w w w w % O @ ; ; L B.yXzXhXwX6XqXqX6X6X6XqXqXqXkXmXmXmXmXrX7 . Y bXhX+XD.D.D.D.D.k.M.D.D.D.g.M.M.M.D.D.G.H.H.G.D.D.h.D.G.G.D.D.D.D.D.D.D.D.k.D.D.D.Z.Z.D.D.D.D.D.h.D.D.D.G.|.=X9X9XwXkXmXrXN . O @ & w w w w w w w r h G V G V V c V a # O . . . < ( ~.zXbXbXkXwX6X6XqX6X3XE.M.f.f.g.M.D.|.=X9X9X4X6XqXqXqXqXqXqXhXzXbXzXOX( 5 @ . O @ 2 p p t t e w w w t k v C D W o.@.&.;.:.:.:.:.,.t.y.y.y.y.y.y.y.y.y.y.y.y.y.y.y.y.y.s.C.'.'.9.6.,.:.E v D A D A D v k r w w w w w # . N gXkXdXhXhXwXqXqX9XqXeXkXbXmXMXmXbXkX",
"% & 1 w w w w & % + O @ ; B l.yXNXkXwX4XqX6XqXqX6XqX6XqXqXqXdXmXmXmXmXbX) . 7 7XkX*XD.D.k.h.D.D.D.D.D.D.D.D.k.D.D.D.D.D.Z.Z.Z.D.D.D.G.G.D.D.D.D.D.D.k.D.k.D.D.D.D.D.D.D.D.D.D.D.D.D.D.D.f.D.}.=X0XqXkXMXQ.- O . # w w w w w w w e h p p j z x s 6 < @ . . ; ( ~.bXMXmXbXhXqXqXqXqX6X4XW.M.D.k.k.D.D.k.f.G.+X4X6X6X6XqXqXqXqXqX6XwXkXmXmXjXP.L @ $ = ; > a e e w w w w w w j v v v v A S H Q @.:.:.:.,.4.y.y.y.y.y.y.y.y.y.y.y.y.y.y.y.y.y.6.9.9.6.5.,.+.A C D J D D l r w w w w w w & O . N 8X6X4X9X4X4X4X6XqXqX6XqXdXkXkXhXwX6X",
"O O O O # + @ O . . @ d -.8XnXbXkXqX6XqX9X4X+X|.|.+X4XqXqXqXqXwXdXdXeXhXB.@ = Q.kX4XJ.h.D.h.h.D.D.D.k.h.k.k.f.d.f.h.D.D.D.D.D.D.G.G.G.G.D.D.D.D.D.D.D.D.k.D.D.D.D.D.D.D.k.k.D.D.D.D.D.D.D.k.g.H.-X9XqXkXzX=.@ . O % w w w w w w r r t g p a < ; = @ @ ; ( ~.zXbXbXmXzXdX6XqXqXqXqX6X|.g.D.D.D.D.D.D.D.Z.M.F.!.@X4X9XqXqXqXqXqXqXqXqXzXmXzXjXrXr.d < : ; @ # & w w w w w w w g v v v v v v v A E $.:.:.:.,.y.y.y.y.y.y.y.y.y.y.y.y.t.4.,.5.6.6.6.6.6.;.F S F F D A u w w w w w w w & O . . N 4X6XqX*X*X9X9X9X9XqXqXqXqXqXqX9X9XqX",
"@ . . O . . . . . 5 _ 2XNXnXbXhXqX6XqX9X=XJ.M.f.f.b.H.+X4XqXqXqX6X6X6X4XoX5 . ` gXqX.Xf.D.D.k.D.D.D.D.D.D.f.a.y.y.d.h.D.D.D.D.G.D.D.D.D.Z.D.D.D.D.D.D.D.D.D.D.D.D.D.D.D.k.k.k.D.D.D.D.D.D.D.h.h.G.*X9XwXzXyXN . . @ & w w w w w w w e a 5 < = o . ; T ~.bXnXbXbXmXzXwXqXqXqXqX6XqX&XD.M.D.D.D.D.D.D.D.D.D.Y.U.V.H.}.+X&X*X=X4X9X9X9XdXzXmXcXbXMXrX` 5 . . . @ % 1 w w w w w w g v v v v v v v v J $.:.>.>.,.t.y.y.y.y.y.y.y.y.t.,.>.:.,.>.>.,.,.,.:.W v C D S z r w w w w w w & # . . . . Y -X=X XD.D.}.W.}.*X0XqX4X+X+X=X9X0XqX",
"B.-.N @ . . . = B !.bXMXnXbXhXqXqXqX6X=XJ.b.D.M.M.M.b.D.}.=XqXqXqXqXqX6X3XV . B 7XqX-XD.h.D.D.D.D.D.D.D.f.a.y.y.y.y.f.D.D.G.G.G.D.D.D.D.h.f.d.f.f.b.f.f.f.d.d.f.k.D.Z.Z.k.k.D.D.Z.D.D.D.D.D.D.D.D.J.4XqXaXmXQ.; . . # 1 w w w w w a < < = $ . ; T ~.zXnXbXbXmXbXkXwX6XqXqXqXqXqX-XG.g.D.D.D.D.Z.D.D.D.Z.D.F.V.N.b.f.D.D.M.D.W.*X9X4X6XwXhXkXbXmXMXbXOXY = . . O # & w w w w w w g v v v v v v v n E ;.:.:.>.>.4.y.y.y.y.t.,.>.>.>.>.>.:.:.>.>.:.@.H C v v v j w w w w w w & # . . . o d *.p.D.D.M.M.M.b.b.D.J.+X+XJ.M.Z.D.}.*X9X",
"MXMXyXT . . . d $XnXbXmXbXdXqXqXqXqX4XJ.b.D.D.D.D.D.D.D.f.G.XX4XqXqXqX6XqX=.. @ !.wX4XJ.h.D.D.D.D.D.D.h.d.y.y.y.y.y.a.G.G.G.D.D.h.D.D.f.a.y.y.y.y.a.a.y.y.y.y.y.d.h.D.D.D.k.D.Z.Z.D.D.D.D.D.D.D.D.h. XqXqXhXzX-.@ o o > w 1 w & # = ; = o ; Y !.zXbXbXbXMXmXbXlXqXqX6XqXqXqX4X+XD.g.D.D.D.D.D.Z.D.D.D.D.Z.D.D.D.D.D.D.D.M.M.M.L.;X6X6X6XqXqXwXlXbXmXmXzXB.B @ . . O # & w w w w w g v v v v v v D A } :.:.>.>.>.>.,.,.,.>.>.>.>.:.>.>.:.&.@.O.E A v v v k r w w w w w & # O . . @ d w.#X*XM.D.D.D.D.D.D.F.G.F.D.Z.b.M.D.D.k.G. X",
"mXbXMX~.; ; 5 z.nXbXbXzXwXqXqXqXqX4X}.M.D.D.D.D.D.D.h.h.D.D.g.E.=XqX6X6XqXW.- X w.hX4X&XD.D.D.D.D.D.D.f.y.y.y.y.y.y.y.f.G.D.D.Z.D.D.f.a.y.y.y.y.y.y.s.s.y.y.y.y.y.d.h.D.k.D.k.D.D.D.D.D.D.D.D.D.D.D.G.*XqXqXzXyXN @ : 4 ; # @ O . . @ $ T ~.zXMXbXbXmXMXMXbXdXqXqXqX6X4X-X|.H.M.M.Z.D.D.D.D.h.h.D.D.D.D.k.D.D.D.D.Z.k.h.D.F.I.U.OX6X6X4XqXqX9X6XwXdXkXmXMXdXr.5 . @ O @ % 1 w w w w g v v A S S F D D @.:.:.:.>.:.:.:.:.>.>.:.>.>.;.+.E D A v v v v k t w w w w w & # . . . . d l.rXdXwX=XD.D.D.h.Z.D.G.F.G.D.D.Z.Z.D.D.D.D.h.D.",
"mXmXMX#X< @ V gXbXMXbXwXqXqX9X4X&XJ.D.D.Z.h.D.D.D.D.h.h.D.D.k.D.G.+X6XqXqX3Xd   P hXqX4X}.k.D.D.D.D.k.i.y.y.y.y.y.y.y.a.D.D.k.D.h.f.a.y.y.y.y.y.y.s.A.C.a.y.y.y.y.a.f.D.D.D.k.D.D.D.D.D.D.D.D.Z.D.D.D.}.4X6XdXmX!.7 0 I 9 = o . . ; Y Q.gXbXbXmXmXMXMXmXkXdX4X3X&X|.J.G.D.Z.M.M.D.F.G.D.D.D.h.h.h.D.Z.D.D.D.D.D.D.Z.D.h.D.N.U._.U.oX*X4X9X9XqXqXqX9XqXwXkXmXbX2X_ , O @ @ @ & w w w w g v D F D D A v J $.:.:.>.>.>.>.>.>.>.:.$.Q D C v v v l j t r w w w w w % # @ . . @ d r.rXbXhX7XwX-XD.D.D.Z.Z.D.G.G.D.D.f.Z.Z.Z.D.D.D.D.D.",
"mXmXmXz.@ . w.NXmXmXdX9XqX*X.XH.M.M.D.D.h.h.D.D.D.D.D.h.k.D.D.G.D.D.XX6X4XqX) O 5 2XdX4X4XE.h.D.D.D.f.y.y.y.y.y.y.y.y.y.d.k.D.D.f.a.y.y.y.y.y.y.y.s.S.C.s.y.y.y.y.y.d.k.D.D.D.D.D.D.D.D.D.Z.h.Z.D.D.D.H.4X4XwXzXnXx.[ c.I 4 o @ P !.zXMXbXbXmXmXmXMXbXgXwX*X}.G.D.f.h.Z.D.D.D.D.G.G.G.D.D.D.D.D.h.Z.k.D.D.D.D.D.D.D.k.h.D.F.I.U.I.N.D.H.E..X&X=X4XqX9X9XqXwXkXMXzX~.P . . o O # & w w w t A D A A v v v H &.:.:.:.:.>.>.:.@.W A v v v j t e w w w w w w w & # . . . X d l.rXnXbXdX7XwXwX Xh.D.k.h.D.G.G.D.D.D.k.h.h.D.D.D.D.D.D.",
"kXmXgXP O 5 #XnXmXbXwX4X XD.g.M.D.D.D.D.h.h.D.D.D.D.k.h.D.D.G.D.D.D.D.XX6XqXB.- @ B.dX4X0X-XD.D.D.h.i.y.y.y.y.y.y.y.y.y.y.a.f.d.y.y.y.y.y.y.y.y.y.a.s.s.y.y.y.y.y.a.d.d.f.d.d.d.d.f.D.D.D.Z.h.h.D.D.D.J.4X6XwXzXzX$X] [ 0 6 P Q.gXbXbXmXmXmXmXmXbXkXwX-X}.D.g.k.D.D.D.D.D.Z.D.F.G.F.D.D.D.D.D.D.D.Z.k.D.D.D.D.D.D.D.k.Z.Z.D.F.F.F.D.M.D.M.D.D.D.H.|.=X9XqXqXqXdXzXmXhXB.d @ O O @ # & r g x l v v v v v v F O.;.;.;.$.o.H A v v v j e w w w w w w w w & + O O . @ d w.rXbXbXkXdXwXwXqX6XJ.k.D.D.D.J.H.G.D.D.D.D.k.k.D.D.D.D.D.h.",
"eXMXOX; O T zXbXmXkXqX+XM.M.Z.D.D.D.D.h.h.h.D.D.D.D.D.D.G.G.G.G.D.D.D.D.+X4X+X8 O ( 6X4X9X=XD.D.D.f.a.y.y.y.y.y.y.y.y.y.y.y.y.y.y.y.y.y.y.y.y.y.y.y.y.y.y.y.y.y.y.a.d.a.a.y.y.y.y.a.f.D.D.D.D.D.D.D.k.}.4X6XqXzXbX$X9 9 5 l.zXMXbXmXmXmXkXdXdXdXqX+XJ.D.f.M.M.D.D.D.D.D.Z.Z.F.G.G.D.Z.Z.D.D.D.D.D.k.k.k.D.h.h.Z.Z.h.h.h.D.D.D.D.D.D.k.k.D.D.D.M.b.b.H.=XqX6XqX6XqXhXcXMXrX-.5 . @ o $ c U x r e u k l v v v v S F D A v v v v z t w w w w w w w w & # . . . . d w.rXMXMXbXzXwXqXwXqXwX+XD.D.D.G.J.J.J.D.Z.D.D.D.k.D.D.D.D.k.k.b.",
"qXmX` . ; R.bXmXmXdX4XJ.f.D.Z.Z.D.D.D.k.h.h.D.D.D.h.h.D.G.G.D.D.h.D.D.D.D.&X4XY O 7 OX4X9X XM.D.D.f.y.y.y.y.y.y.y.y.y.y.y.y.y.y.y.y.y.y.y.y.y.y.y.y.y.y.y.y.y.y.a.d.d.a.y.y.y.y.y.y.y.d.f.k.D.D.D.D.D.&XqXqXqXzXnXw.= = ( gXbXbXbXMXbXdX6X6XqX=XW.M.M.Z.D.D.D.D.D.k.k.D.Z.G.F.G.F.D.Z.h.k.k.D.D.k.D.D.D.h.h.h.Z.Z.Z.h.h.h.D.Z.D.k.k.k.D.D.D.D.D.D.D.M.J.4X6XqXqXqXqXwXkXmXzX#X) ; $ 7 T ~ h e w w w w r r u j z v v v v v v j e w w w w w w w & # O o . @ d r.tXbXmXmXmXzXaXwXwXwXqX=XH.Z.D.G.J.J.J.G.M.D.D.D.D.k.D.D.D.h.D.D.F.",
"qX*X7 . N gXMXMXbXwX&XD.D.D.D.D.D.D.D.k.D.D.D.D.D.k.D.D.G.D.D.Z.D.D.D.D.g.G.=Xr.@ @ B.qX*XD.D.D.D.d.y.y.y.y.y.y.y.y.y.y.y.y.y.y.y.y.y.y.y.y.y.y.y.y.y.y.y.y.y.a.d.a.a.y.y.y.y.y.y.y.y.y.i.f.D.D.D.D.G.=XqXqXqXkXfXB @ : !.bXMXMXMXmXhX6X6X6X&XH.b.D.D.D.D.D.D.D.k.k.h.h.D.G.G.D.D.Z.Z.Z.D.D.D.h.f.h.D.h.h.h.Z.Z.Z.Z.Z.Z.h.h.D.D.k.D.Z.D.D.D.D.D.D.D.D.b.+XqXqXqXqXqXqXqXdXkXmXnXQ.P 5 f c ; # & w w w w w w w e j z v v l t w w w w w w w % # . . . . 7 w.rXNXmXmXmXMXbXaXwXwXqXqX4XJ.M.D.H.J.J.J.J.H.D.G.G.D.D.D.D.h.h.D.F.P.Y.",
"qX-.@ . w.MXmXmXhX4X}.D.D.D.D.D.D.D.D.D.D.D.D.D.D.D.D.D.D.D.h.D.D.D.D.D.D.g.J..X5   ) 6XJ.b.D.D.h.a.y.y.y.y.y.y.y.y.y.y.y.y.y.y.y.y.y.y.y.y.y.y.y.y.y.y.y.y.a.f.d.a.y.y.y.y.y.y.y.y.y.y.y.a.h.D.D.D.G.=XqXqX6XkXB.@ . L gXmXMXMXMXkX6XqX4X|.D.N.F.b.Z.D.D.D.D.h.h.h.h.D.G.F.G.D.Z.Z.Z.Z.D.D.h.d.a.h.D.h.h.Z.Z.Z.Z.Z.Z.Z.Z.h.Z.D.D.D.Z.Z.Z.D.D.D.D.D.D.D.H.3XqXqXqXqXqXqXqXqXdXzXMXfXB.N < @ O O % 1 w w w w w w w e t r w w w w w w w & # . . . @ 7 w.8XbXMXmXmXMXMXzXdXwXwXwXwX*XJ.D.D.J.J.J.J.J.J.H.H.G.G.D.k.D.h.D.G.H.P.^.).",
"*XN . 5 2XnXbXkXqX4XH.D.D.D.D.D.k.f.d.d.d.f.f.D.D.G.G.D.D.k.D.D.D.D.D.D.D.D.M.}.V   d |.D.D.D.D.f.a.y.y.y.y.y.y.y.y.y.y.y.y.y.y.y.y.y.y.y.y.y.y.y.y.y.y.y.y.i.i.d.a.y.y.y.y.y.y.y.y.y.y.y.y.a.h.D.D.D.&XqX6XqX6XP . X z.MXbXmXmXkXqX9X*XW.M.N.I.I.D.D.D.D.f.f.d.h.D.D.G.G.G.F.D.D.D.D.D.D.h.i.a.f.D.h.D.Z.Z.Z.A.A.A.Z.Z.D.k.Z.D.D.D.D.D.Z.h.h.h.D.D.D.D.D.}.4XqXqXqXqXqX6XqXqXwXhXzXMXrX=.5 . O . O % w w w w w w w w w w w w w w & # O . . . 7 w.rXMXbXmXmXmXbXbXkXwXwXwXwXqX+XG.Z.D.J.J.J.J.J.G.G.G.G.G.G.G.D.D.D.G.G.H.L.^.U.",
"H.- O ) zXbXhXqXqX*XD.D.D.D.D.D.h.d.y.y.y.y.a.d.D.D.G.D.h.k.D.D.D.D.D.D.D.D.h.D.~ . ; <.D.D.D.M.d.y.y.y.y.y.y.y.y.y.y.y.y.y.y.y.y.y.y.y.y.y.y.a.y.y.y.y.a.d.i.i.d.a.y.y.y.y.y.y.y.y.y.y.y.y.y.a.h.D.h.J.3X6XqXW.: . 7 rXbXbXMXzXwXqX&XF.b.M.D.V.V.D.D.f.d.a.y.a.D.D.G.G.D.D.D.D.D.D.D.h.h.i.y.a.h.D.h.Z.Z.Z.A.S.'.S.A.Z.D.D.h.D.D.D.D.D.D.D.h.h.D.D.D.D.k.k.}.*X4XqXqXqXqXqXwXqXqXwXhXzXbX@X( @ . . . # & w w w w w w w w w w & + O O . . 7 w.8XbXmXbXmXMXmXkXhXaXwXwXwXwX4X|.D.D.G.J.J.J.J.H.G.G.G.G.G.G.G.K.G.G.G.G.G.G.H.P.V.",
") O ; Q.kXdXqXqXqX XM.D.D.Z.f.f.i.y.y.y.y.y.a.d.d.d.d.d.a.a.d.f.h.D.D.D.D.Z.h.Z.=.= @ Y b.D.D.f.a.y.y.y.y.y.y.y.y.y.y.y.y.y.y.y.y.y.y.y.y.y.y.u.u.u.f.d.d.i.i.a.a.y.y.y.y.y.y.y.y.y.y.y.y.y.y.y.f.h.Z.h.J.-X4X) . o -.bXbXmXkXwXqX-XD.b.D.D.D.D.D.f.f.a.y.y.y.a.D.G.G.D.D.f.Z.D.D.D.D.f.i.y.y.f.D.D.h.Z.Z.Z.A.'.[.'.A.Z.D.k.k.D.h.h.D.Z.D.Z.D.D.D.D.D.D.D.k.g.D.J.W.|. X*X4XqXqXqXqX6XwXkXbXzXR.V @ . . O # 1 w w w w w w & + O . . @ d w.rXbXbXmXmXmXbXkXdXwXwXwXwXwXwX*XW.G.G.G.G.J.J.J.G.G.G.G.G.G.G.G.G.G.G.G.G.G.G.G.G.F.M.",
"6 O V rXqXqXqXqX4XJ.b.Z.d.a.y.y.y.y.y.y.a.a.d.a.d.a.a.y.y.y.y.y.a.f.h.D.D.h.Z.f.u.8 . d d.h.f.a.y.y.y.y.y.y.y.y.y.y.y.y.y.y.y.y.y.y.y.y.y.y.a.v.m.V.H.D.M.d.y.y.y.y.y.y.y.y.y.y.y.y.y.y.y.y.y.y.y.f.D.Z.h.D.M.8 o 5 $XmXMXkXwX6X4XJ.b.D.D.D.D.Z.f.d.y.y.y.y.d.d.k.D.D.h.d.i.Z.D.D.D.k.d.y.y.s.h.D.D.h.Z.Z.Z.A.S.'.S.Z.Z.D.k.k.D.h.D.D.D.D.D.D.D.D.D.D.D.D.D.D.D.g.f.f.M.D.J.}.*XqX6XqX4X6XwXkXMXfXz.7 X O . O % & w w & + . o .   7 r.rXnXMXmXMXbXzXlXdXwXwXwXwXwXqXwX&XJ.H.H.G.G.G.G.J.H.G.G.g.f.M.G.G.G.G.G.G.G.G.D.G.G.G.G.D.",
"@ O -.wX6XqXqXqX+XM.f.i.y.y.y.y.y.y.y.y.i.d.d.d.a.y.y.y.y.y.y.y.y.y.a.d.f.f.f.d.a.V o ; <.f.a.y.y.y.y.y.y.y.y.y.y.y.y.y.y.y.y.y.y.y.y.y.y.y.a.n.^.$X!.Q.F.i.y.y.y.y.y.y.y.y.y.y.y.y.y.y.y.y.y.y.y.a.f.k.k.D.~ . . T zXMXkXqX4X4X XM.D.D.D.D.D.f.a.y.y.y.y.y.a.d.d.f.d.a.y.a.h.D.D.k.f.y.y.y.f.k.f.f.f.h.f.Z.D.Z.A.A.Z.D.Z.h.h.D.h.h.D.D.D.D.D.D.h.h.D.D.D.D.D.D.D.D.D.D.M.D.D.G. X4X0X9XqXqXqXdXkXbX2X` : . . . O + + O O = = d w.8XbXmXmXmXmXzXdXwXqXwXwXwXwXwXwXqX-XJ.G.G.G.G.G.G.G.H.G.G.f.f.d.i.D.K.G.G.G.G.G.D.f.f.D.D.f.i.",
"O 5 oXqXqXqXqX*XG.b.i.y.y.y.y.y.y.y.y.d.d.d.a.y.y.y.y.y.y.y.y.y.y.y.y.y.y.y.a.a.a.) = @ Y ,.y.y.y.y.y.y.y.y.y.y.y.y.y.y.y.y.y.y.y.y.y.y.y.y.u.m.^.^.,X$XH.d.y.y.y.y.y.y.y.y.y.y.y.y.y.y.y.y.y.y.y.y.a.f.h.d.s . o R.MXzXwXqXqX*XD.D.D.D.D.D.f.a.y.y.y.y.y.y.y.a.a.y.y.y.y.f.D.D.k.f.y.y.y.y.f.d.a.y.a.y.a.h.Z.D.F.Z.Z.Z.Z.h.h.D.D.Z.D.D.D.D.D.D.h.h.D.D.D.D.D.Z.D.D.D.D.D.k.D.Z.M.J.*X0XqX6XqX6XqXdXzXMXr.. O . . . @ $ @ B w.rXnXbXbXMXMXmXmXdXwXwXwXwXwXwXwXwXwX4XJ.G.G.G.D.G.M.M.G.G.G.f.d.a.y.y.f.G.G.G.G.G.G.g.f.f.d.a.a.y.",
". ( 4X4X6X4X&XH.g.f.y.y.y.y.y.y.y.y.y.d.i.a.y.y.y.y.y.y.y.y.y.y.y.y.y.y.y.a.a.a.a.;.< @ s K @.y.y.y.y.y.y.y.y.y.y.y.y.y.y.y.y.y.y.y.y.y.y.a.a.f.N.Y.$XOXH.i.y.y.y.y.y.y.y.y.a.y.y.y.y.y.y.y.y.y.y.a.i.a.a.#.= . N yXzXwX6X6X4XW.b.D.D.D.D.f.a.y.y.y.y.y.y.y.y.y.y.y.y.y.a.f.D.h.f.a.y.y.y.y.y.y.y.y.y.y.y.h.D.G.D.F.D.h.h.D.D.D.D.D.D.D.D.D.D.D.h.D.D.D.D.D.D.Z.D.D.D.D.D.D.D.D.D.M.D.|.=X9X9XqXqXqXqXkX#X; . O . . ; N r.8XbXmXmXmXmXMXMXmXkXwXwXwXwXwXwXwXwXwXqX|.G.G.D.M.D.f.f.D.K.G.f.d.y.y.y.y.i.D.G.G.G.G.G.f.f.f.y.y.y.a.",
"; L.6X9X&XJ.M.b.f.a.y.y.y.y.y.y.y.y.y.y.a.y.y.y.y.y.y.y.y.y.y.y.y.a.y.y.a.i.d.d.a.o.s 5 d F E ,.y.y.y.y.y.y.y.y.y.y.y.y.y.y.y.y.y.y.y.y.y.y.y.a.p.N.L.F.M.a.y.y.y.y.y.y.y.y.u.a.a.a.y.y.y.y.t.y.y.a.a.y.#.s . . r.kXwXqX6X4XXXM.D.D.D.D.f.a.y.y.y.y.y.y.y.y.y.y.y.y.y.y.d.k.h.f.a.y.y.a.a.y.y.y.y.y.y.y.a.f.f.f.D.Z.h.h.h.D.D.h.h.h.h.f.f.f.f.f.d.d.a.a.d.f.D.D.D.D.Z.Z.h.h.k.D.D.b.M.b.D.|.*X4XqXqX9XwXB.@ O O . 7 w.rXMXnXbXMXMXMXMXMXzXlXaXwXwXwXwXwXwXwXqXwX*XH.G.D.g.f.a.d.d.f.k.f.i.y.y.y.y.y.y.a.k.K.G.G.D.f.f.y.y.y.y.a.",
"N =X6X+XD.M.D.D.d.y.y.y.y.y.y.y.y.y.y.y.y.y.y.y.y.y.y.y.y.y.y.y.y.i.f.i.d.f.f.b.<.Q Y N 8 V H } y.y.y.y.y.y.y.y.y.y.y.y.y.y.y.y.y.y.y.u.p.a.y.y.a.p.d.d.a.y.y.y.y.y.t.t.y.u.n.n.p.u.y.4.,.>.>.4.4.4.:.Q z @ . 5 oXqX4X9X4X XD.g.M.D.h.f.y.y.y.y.y.y.y.y.y.y.y.y.y.y.y.y.h.D.h.d.y.y.y.u.u.a.a.y.y.y.t.y.a.d.a.y.a.y.f.h.f.f.d.a.a.a.a.a.y.y.y.y.y.y.y.y.y.i.h.D.D.D.Z.D.Z.Z.Z.Z.Z.D.D.Z.M.Z.D.J.|.-X=XN.d . @ ; ) #XnXMXbXbXbXbXbXbXzXlXwXqXwXwXwXwXwXwXwXwXqX4XW.D.D.g.f.a.y.y.y.y.y.y.y.y.y.y.y.y.y.y.d.D.D.D.d.a.y.y.y.y.i.a.",
"-.qX4XW.D.D.Z.f.a.y.y.y.y.y.y.y.y.y.y.y.y.y.y.y.y.y.y.y.y.y.y.y.y.y.f.D.M.M.D.F.<.*.=.B 8 f J F @.y.y.y.y.y.4.4.4.t.y.y.y.y.y.y.y.y.u.N.L.v.a.y.y.y.y.y.y.y.y.y.y.y.y.y.a.u.m.I.m.v.1.<.>.>.,.,.,.:.E v a . . T 4X6XqX3X}.D.g.g.Z.f.d.y.y.y.y.y.y.y.y.y.y.y.y.y.y.y.y.a.k.h.f.a.y.a.a.u.v.u.a.a.a.y.y.a.d.a.i.y.y.y.y.a.a.y.y.y.y.y.y.y.y.y.y.y.y.y.y.y.y.y.f.h.k.Z.Z.D.Z.Z.Z.Z.D.D.Z.b.Z.D.D.Z.f.1.L @   @ L Q.nXMXnXbXhXwXwXwXwXwXwXqX=X-X;X;X0XqXwXwXwXwXqX XD.M.M.f.a.y.y.y.y.y.y.y.y.y.y.y.y.y.y.y.f.f.f.a.y.y.y.y.y.i.i.a.",
"+XqX*XD.b.D.Z.f.y.y.y.y.y.y.y.y.y.y.y.y.y.y.y.y.y.y.y.y.y.y.y.y.y.a.d.M.Q.Q.Q.Q.B.V.1.V 5 5 F D J $.y.y.4.>.:.:.:.,.t.y.y.y.y.y.y.a.v.!.U.m.u.y.y.y.y.y.y.y.y.y.y.y.y.y.a.v.m.(.(.x.1.,.:.>.,.,.>.W v v - . = N.qX6X*XJ.M.D.Z.D.f.i.y.y.y.y.y.y.y.y.y.y.y.y.y.y.y.y.y.i.h.h.a.y.a.a.u.v.n.v.u.u.a.y.a.i.s.a.y.y.y.y.y.y.y.y.y.y.y.y.y.y.y.y.y.y.y.y.y.y.y.y.y.f.Z.Z.D.D.D.D.M.b.M.N.M.b.M.f.M.y.Y , O O d z.yXMXmXmXzXaXqXwXwXwXwXqXqX|.D.Z.S.S.J.|.+X*X=X*X|.D.M.M.f.a.y.y.y.y.y.y.y.y.y.y.y.y.y.y.y.y.f.f.a.y.y.y.y.y.i.a.d.a.",
"6X3XJ.g.D.D.f.a.y.y.y.y.y.y.y.y.y.y.y.y.y.y.y.y.y.y.y.y.y.y.y.y.y.a.d.f.H.OX2XtX2X~.r.Y 8 5 A J J J &.4.:.:.>.>.>.:.4.y.y.y.y.y.y.a.f.m.U.m.u.y.y.y.y.y.y.y.y.y.y.y.y.y.y.l.m.(.U.l.1.,.>.,.,.,.} v v p O . V 4X4X*XF.D.D.Z.f.d.y.y.y.y.y.y.y.y.y.y.y.y.y.y.y.y.y.y.y.a.h.f.y.a.a.d.p.n.m.m.n.u.u.u.d.d.a.y.y.y.y.y.y.y.y.y.y.y.y.y.y.y.y.y.y.y.y.y.y.y.y.y.y.y.f.Z.D.D.M.M.M.M.N.N.b.f.b.p.) 8 O . 5 ` rXbXbXbXzXlXwXwXwXwXwXwXwX4X.XM.b.Z.A.A.G.G.G.G.H.G.M.M.k.f.a.y.y.y.y.y.y.y.y.y.y.y.y.y.y.y.y.y.a.a.y.y.y.y.y.i.i.d.i.a.",
"*XJ.M.M.D.h.i.y.y.y.y.y.y.y.y.y.y.y.y.y.y.y.y.y.y.y.y.y.y.y.y.y.y.a.d.M.J.OXiXuXuX2XB.) 7 < s D J D H ;.:.>.>.>.>.:.:.4.y.y.y.y.y.y.a.u.n.u.y.y.y.y.y.y.y.y.y.y.y.t.4.,.,.1.l.x.m.2.<.,.t.,.;.W A v z > . O r.qX4XJ.b.f.f.a.y.y.y.y.y.y.y.y.y.y.y.y.y.y.y.y.y.y.y.y.y.y.f.a.y.a.u.b.N.m.U.U.m.n.p.p.d.p.a.y.y.y.y.y.y.y.y.y.y.y.y.y.y.y.y.y.y.y.y.y.y.y.y.y.y.y.y.u.f.b.M.N.b.2.2.3.@.#.~ f @ . @ ( @XbXMXbXkXdXaXwXwXwX4X+X|.|.}.H.M.b.Z.Z.Z.D.G.K.G.G.D.M.g.M.f.a.y.y.y.y.y.y.y.y.y.y.y.y.y.y.y.y.y.y.y.y.y.y.y.a.i.a.d.a.y.y.",
"J.g.D.h.f.i.y.y.y.y.y.y.y.y.y.y.y.y.y.y.y.y.y.y.y.y.y.y.y.y.y.y.y.i.d.M.L.OXtXuXuXtXB.#.d < , u v A v +.:.:.>.>.>.>.:.,.y.y.y.y.y.y.y.y.a.y.y.y.y.y.y.y.y.y.y.t.4.>.>.>.>.,.1.1.r.1.,.>.+.Q D v v k 1 O O 8 oX3XJ.i.a.y.y.y.y.y.y.y.y.y.y.y.y.y.y.y.y.y.y.y.y.y.y.y.y.y.y.y.y.a.u.v.V.!.U.).U.V.V.N.b.p.a.y.y.y.y.y.y.y.y.y.y.y.y.y.y.y.y.y.y.y.y.y.y.y.y.y.y.y.y.u.u.u.1.*.~ ~ *.~ U f : @ = V R.gXbXMXmXhXwXwXwXwXqX+XH.M.g.k.h.k.D.k.D.Z.h.D.D.D.D.D.D.D.D.f.a.y.a.a.y.y.a.y.y.y.y.y.y.y.y.y.y.y.y.y.y.y.y.y.i.f.d.i.a.y.y.y.",
"d.d.d.a.a.y.y.y.y.y.y.y.y.y.y.y.y.y.y.y.y.y.y.y.y.y.y.y.y.y.y.y.y.i.d.f.H.Q.2XiX$X~.V.*.N : ; e t v v } >.:.>.>.>.>.>.>.t.y.y.y.y.y.y.y.y.y.y.y.y.y.y.y.y.t.,.>.>.>.>.:.>.>.,.,.<.1.@.E F F A z t w % . @ ) 3X}.y.y.y.y.y.y.y.y.y.y.t.t.y.y.y.y.y.y.y.y.y.y.y.y.y.y.y.y.y.y.y.a.v.m.I.^.).(.U.V.N.b.u.a.y.y.y.y.y.y.y.y.y.y.y.a.a.y.y.a.y.y.y.y.y.y.y.y.y.y.y.y.a.u.1.*.~ ~ / ' 8.L 8 4 = 9 l.yXnXbXmXMXkXwXwXwXwX4X}.M.M.D.D.D.D.D.D.D.D.D.D.h.h.h.D.D.D.D.f.i.a.a.u.p.u.v.u.y.y.y.y.y.y.y.y.y.y.y.y.y.y.y.y.i.i.d.i.y.y.y.y.y.",
"y.y.y.y.y.y.y.y.y.y.y.y.y.y.y.y.y.y.y.y.y.y.y.y.y.y.y.y.y.y.y.y.y.a.d.f.M.Q.OXOXL.r.<.<.Y ; = > w j v W :.:.>.>.>.>.>.:.,.y.y.y.y.y.y.y.y.y.y.y.y.y.y.t.,.>.>.>.>.>.>.>.:.:.:.,.>.+.F F A A j e w 1 @ o : L.|.a.y.y.y.y.y.y.y.y.4.,.>.>.,.y.y.y.y.y.y.y.y.y.y.y.y.y.y.y.y.a.u.u.v.n.m.I.).^.I.V.v.u.y.y.y.y.y.y.y.y.y.y.y.y.a.s.s.s.s.a.y.y.y.y.y.y.y.y.a.a.a.a.1.*.~ ~ _ 3.8.8.[ I 9 9 ` 2XzXzXzXbXkXhXwXwXwXqX4XE.M.b.D.D.D.D.D.D.D.D.D.D.D.h.h.D.D.D.D.h.i.a.v.n.n.m.m.m.u.y.y.y.y.y.y.y.y.y.y.y.y.y.y.y.y.i.i.i.y.y.y.y.y.y.",
"y.y.y.y.y.y.y.y.y.y.y.y.y.y.y.y.y.y.y.y.y.y.y.y.y.y.y.y.y.y.y.y.y.i.d.f.p.L.N.H.r.#.Q ! ! 7 = # w w k F :.:.>.>.>.>.>.:.>.4.y.y.y.y.y.y.y.y.y.y.y.t.,.>.:.>.>.>.>.>.>.>.>.:.;.>.O.F D A j t w w w % .   P XXi.y.y.y.y.y.y.y.y.,.>.:.>.>.>.,.y.y.y.y.y.y.y.y.y.y.y.y.y.y.y.y.y.a.u.u.n.V.I.^.L.v.u.a.a.y.y.y.y.y.y.y.y.y.a.s.s.C.C.C.s.a.y.y.y.y.y.y.y.y.y.a.y.3.~ ~ ) ' 8.0.c./.{ ] ' ^.zXzXzXaXwXwXwXwXwXwXqX4XJ.b.D.D.D.D.D.D.D.D.D.D.D.D.D.D.D.D.h.D.D.d.y.a.u.m.U.(.(.m.v.u.y.y.y.y.y.y.y.y.y.y.y.y.y.y.y.y.i.y.y.y.y.y.y.y.",
"y.y.y.y.y.y.y.y.y.y.y.y.y.y.y.y.y.y.y.y.y.y.y.y.y.y.y.y.y.y.y.y.y.i.f.a.b.p.y.u.<.! E F l 3 : $ 1 w r A @.:.:.:.>.>.>.>.>.>.t.y.y.y.y.y.y.y.y.t.,.:.>.:.:.>.>.>.>.>.>.>.>.>.;.W S S k r w e y w w # o @ =.f.y.y.y.y.y.y.y.y.,.>.>.>.>.>.>.>.t.y.y.y.y.y.y.y.y.y.y.y.y.y.y.y.y.y.a.u.p.n.N.m.N.d.a.a.y.y.y.y.y.y.y.y.y.y.a.s.C.S.'.S.C.s.a.y.y.y.y.y.y.y.4.@.W F ^ ) -.8.0./.`.`./.(.pXxXzXzXhX7X7XwXwXwXwXwXwX XM.D.D.D.h.f.k.D.D.h.h.f.f.k.D.K.G.D.D.D.f.y.y.a.u.m.(._._.I.n.u.y.y.y.y.y.y.y.y.y.y.y.y.y.y.y.y.y.y.y.y.y.y.y.y.",
"y.y.y.y.y.y.y.y.y.y.y.y.y.y.y.y.y.y.y.y.y.y.y.y.y.y.y.y.y.y.y.y.i.i.y.y.y.,.e.e.<.E F S p > @ = 1 w w j W :.:.:.>.>.>.>.>.>.>.4.y.y.y.y.y.4.,.:.:.:.:.:.>.>.:.:.:.>.>.:.$.} K S v t w w w e p e 1 @ o 8 ,.y.y.y.y.y.y.y.y.,.:.>.>.>.>.>.>.:.4.y.y.y.y.y.y.y.y.y.y.y.y.y.y.y.y.y.a.a.u.u.p.n.u.u.a.y.y.y.y.y.y.y.y.y.y.y.a.s.C.'.[.'.C.s.a.i.y.y.y.y.t.&.W S F H R R ^ ] { /._._._.1XpXxXxXxXrX7XwXwXwXwXwXwX4XD.Z.D.D.k.f.a.d.f.d.d.i.a.a.f.G.K.J.D.G.D.d.y.y.a.u.n.U.).).U.n.u.y.y.y.y.y.y.y.y.y.y.y.y.y.y.y.y.y.y.y.y.y.y.y.y.",
"y.y.y.y.y.y.t.t.t.t.t.y.y.y.y.y.y.y.y.4.,.,.t.y.a.y.y.y.y.y.y.y.d.i.e.e.,.,.,.,.:.H S v e 1 O o % w w t A W $.:.:.:.:.>.>.>.:.>.,.,.,.,.,.,.,.,.<.,.,.,.>.>.>.:.;.$.o.E A v z j r w w e e y x a - $ @ V y.y.y.y.y.y.y.y.,.>.>.,.>.>.>.>.>.>.,.y.y.y.y.y.y.y.y.y.y.y.y.y.y.y.y.y.y.a.a.y.<.e.u.y.y.y.y.y.y.y.y.y.y.y.y.y.a.s.C.'.'.'.C.s.f.i.a.y.t.&.W F S S D D G f 0 I [ /.`._._._.1XiXiXtX7X7XwXwXqXwXwXqX Xb.Z.D.D.f.y.y.y.y.y.y.y.y.a.f.f.G.J.G.G.k.a.y.y.y.u.v.I.I.m.m.n.u.y.y.y.y.y.y.y.y.y.y.y.y.y.y.y.y.y.y.y.y.y.y.y.y.",
",.4.4.4.,.,.>.>.>.>.>.,.t.y.y.y.y.t.>.:.:.:.,.,.a.u.a.a.a.a.y.y.y.e.,.>.>.>.>.>.:.E A z e w # . # w w e z v A E O.:.,.>.>.:.:.>.1.2.,.,.,.;.%.O.} O.%.%.$.@.+.! F A v v k p c c r e e y t y f 6 : ; : f <.<.1.y.y.a.y.,.>.,.,.,.,.>.>.>.>.>.>.t.y.y.y.y.y.y.y.y.y.y.y.y.y.y.y.y.y.y.,.,.>.<.u.y.y.y.y.y.y.y.y.y.y.y.y.t.4.5.6.9.C.C.C.b.f.d.y.;.Q S A A A A A x 5 4 9 I ] { `._.1X1X,XiXtXtXtXrX7XwXwXwXqX4XH.k.D.D.f.a.y.y.y.y.y.y.y.y.f.f.f.D.H.D.M.a.y.y.y.y.a.b.n.n.n.u.u.a.a.y.y.y.y.y.y.y.y.y.y.y.y.y.y.y.y.y.y.y.y.y.y.y.",
"+.W +.,.,.:.:.>.>.>.:.:.>.,.4.4.,.>.:.>.:.:.>.,.e.n.v.u.u.u.a.y.,.>.>.>.:.>.>.>.:.W n l w w # . O & w w k v v A A E @.,.:.>.:.:.2.n.6.;.} ! R R R ! R D S A C v v v k t w w c L a w , , : 5 9 0 4 4 4 6 G ! ! &.4.v.,.>.,.4.4.,.,.>.:.:.:.:.>.4.4.,.,.4.y.y.y.y.y.y.y.y.y.y.y.y.y.,.>.>.>.>.y.y.y.y.y.y.y.y.y.y.y.t.,.>.:.,.6.5.6.4.y.p.y.;.W A C C v v l p 2 = ; 4 4 9 I ] c.1XpX,XtXtXrXrXwXaXaXwXwXwXqX*XD.k.D.h.d.y.y.y.y.y.y.y.y.i.f.f.f.k.f.i.y.y.y.y.y.i.d.b.a.a.a.a.a.y.y.y.y.y.y.y.y.y.y.y.y.y.y.y.y.y.y.y.y.y.y.y.y.y.",
"C A F &.,.,.>.>.>.>.:.:.>.>.>.:.:.>.>.>.>.>.,.<.1.l.m.n.n.u.y.<.,.,.>.>.>.>.>.>.:.} v z w w & @ . % w w u v A D F F H @.:.:.:.<.<.;.#...W |  . . . .H D A n v k u r w w w 1 2 , - = = 4 4 6 L / ] I 9 L ~ U m G O.2.<.,.,.,.,.,.:.:.;.;.$.;.:.:.:.:.:.>.,.y.a.y.y.y.y.y.y.y.y.y.t.>.>.>.>.>.y.y.y.y.y.y.y.y.y.t.,.>.:.:.:.,.,.,.,.4.t.>.} D v z k g t e 1 $ o @ 8 ` !.x.I ] ] I.iXtXtX8XOXW.J.W.|.+X*X4X4X|.g.D.D.f.y.y.y.y.y.y.y.y.y.f.f.f.D.f.i.y.y.y.y.y.d.f.f.p.y.y.y.y.y.y.y.y.y.y.y.y.y.y.y.y.y.y.y.y.y.y.y.y.y.y.y.y.y.y.",
"A D D K &.,.:.:.:.>.>.>.>.:.;.>.>.:.>.>.>.>.<.1.r.x.U.I.m.l.2.2.<.>.:.>.>.>.>.>.>.O.n v r w w @ . # w w w v S F A S v S +.$.@.O.E F J ..X.3.7.7.7. .R A l u r w w w & % # O @ @ @ o = 9 T x.^.pXiX).8.I / L 6 a z E @.,.,.,.,.;.+.W H D S F ! $.:.:.>.>.:.,.y.i.y.y.y.y.y.a.a.y.,.>.>.>.>.:.,.y.y.y.y.y.y.t.,.>.:.>.>.:.:.>.>.>.4.,.$.H C l u e w w w # @ @ = P ~.nXnXnX^.] M T $XtX5XW.N.D.Z.Z.b.b.M.D.G.D.g.M.f.a.y.y.y.i.i.y.y.y.d.f.f.D.k.i.y.y.y.y.i.f.f.f.f.i.y.y.y.y.y.y.y.y.y.y.y.y.y.y.y.y.y.y.y.y.y.t.t.t.y.y.y.y.y.t.",
"S F A A S } $.;.&.@.O.! K F F K O.;.:.:.>.,.<.1.l.I.).`.(.m.l.1.,.>.>.>.>.>.>.>.:.+.C v g w w # . @ & w q g S S S v v v A A n v v n G W X.9.9.9.7...m h t e w & # @ @ O . . $ 5 N ` V.$XiXpXpX1XpXiXiX^.' f 4 = - s F W Q Q H S C v v v v v v J @.:.:.>.>.,.y.i.d.a.a.a.a.a.a.,.,.,.,.>.>.>.>.t.y.y.t.4.,.>.>.>.>.>.>.>.:.>.>.,.,.Q A v u w w w w & + O @ 8 l.yXbXbXbXzXxX[ 9 8 l.tX@XN.F.A.Z.Z.Z.D.D.D.D.k.D.h.d.y.y.y.a.f.i.y.y.i.f.f.k.k.D.f.y.y.y.i.f.f.f.f.f.d.a.y.y.y.y.y.y.y.y.y.y.y.y.y.y.y.y.t.4.,.>.>.>.>.>.,.,.,.>.>.",
"n j t e r u v D S A v v v v v v v H $.>.:.,.<.1.x.U._._.(.8.*.*.:.>.:.>.>.>.>.>.:.o.v v z w w % O O & w e t j v v v v v z j r r r p l m  .9.q.q.7.~ m p 2 % # @ @   X @ 7 T l.@XyXnXxXyXtX,X1X_._.pXiXpXiXx.I 6 4 5 s c n v v v v v v v v v v v D @.:.>.<.,.y.a.f.f.a.p.d.d.a.,.,.,.,.,.,.>.>.>.,.,.>.>.>.>.>.>.>.>.>.>.:.>.,.>.Q A z r w w w w % O O   B !.zXzXbXbXbXbXzX^.7 4 L #XW.b.A.A.Z.Z.D.Z.D.D.D.D.D.f.d.y.y.y.d.f.i.y.i.f.f.k.k.k.D.f.i.i.f.f.f.f.f.f.f.f.f.i.y.y.y.y.y.y.y.y.y.y.y.y.t.4.,.>.:.>.>.:.:.:.>.:.:.:.:.>.",
"p t w w w w w r j z v v v v v v v v D o.;.<.<.2.x.c././.0./ U G E #.:.:.>.>.>.:.;.E v v v e w & @ o # e p t e e r t u t e w w w r t h m ..7.9.9.7.^ f 6 - $ @ @ 5 L -.!.rXkXzXkXdXrX5XtX,X,X_._._._.pX,XpXuXtX` 7 ; < ; 2 j k z v v v v v v v v v D #.<.x.l.y.a.d.D.f.f.p.p.y.e.e.,.,.,.,.,.,.,.,.>.>.>.>.>.>.>.>.>.>.>.>.,.>.Q F v r w w w 1 # O O ; _ 8XbXbXbXbXbXbXbXzXxX( = = w.L.b.Z.Z.D.h.D.D.h.h.D.k.f.f.f.a.y.i.f.f.f.d.f.f.k.k.k.k.k.f.f.f.f.f.f.d.a.a.i.d.f.f.d.i.y.y.y.y.y.y.y.y.4.,.>.>.:.;.&.@.$.&.;.;.:.>.>.>.:.>.",
"e w w w w w w w w w r j l v v v v v v v F Q #.*.~ / ' 8.8.^ U G A A Q ;.:.>.>.:.+.A v v l w w w # . - y p t w w w w w w w w w w r t g c ^ X.X.X.~ ^ f 4 5 B ) B.2XzXMXxXhXdXwX6X6X5XtX,X,X)._._._._._.iXtXfXzXnX~.Y 5 = . O % w r k v v v v v v v v D *.m.x.4.a.d.M.L.M.M.f.p.y.y.e.e.e.,.y.y.,.>.>.>.>.>.>.>.>.>.:.>.>.,.,.o.A A r w w w % O . . 7 B.bXbXbXzXkXkXzXbXbXnXnXOX5 @ d v.b.Z.Z.h.h.h.f.i.d.f.f.f.f.f.f.i.f.f.f.i.f.D.D.k.k.f.f.f.f.f.f.f.f.f.y.y.y.y.y.y.a.i.i.i.y.y.y.y.y.y.4.>.>.:.:.@.E A C A S H ! o.+.+.+.O.O.",
"- # % % & & 1 1 1 1 1 w w e r t t t r r t t p p h c M M ^ c h j j k z S W } } E A v z j e w w w % = ; y p p q w w w w w w w w w 1 1 , s U M L L M ^ *.l.OXyXzXbXzXhXtXiXtX6X6X6X5X$X^.Y.U.U.)._._.).(.^.5X5XaXlXbXfXB.d . . . + % w t z v v v v v v v F *.1.,.a.d.f.L.W.N.M.M.M.p.p.y.y.b.u.,.,.>.>.>.>.>.>.>.>.>.:.,.,.>.} A v r w w 1 + O . $ T 2XbXzXhXwXqX6X6XqXkXmXzXbXnX( . $ ) f.Z.Z.D.D.f.a.y.y.y.d.f.f.f.f.f.f.f.y.y.i.k.k.k.f.f.f.f.f.f.f.f.f.i.y.y.y.y.y.y.y.y.y.y.y.y.y.y.y.,.>.>.>.>.$.D v v v v v v v v C C C v C ",
". . . . . O O O O + + # # # % % % % & & & 1 w e y a p a x h e w w w w e r r r r r r w w w w w w e - ; 2 t e q w w w w w 1 % # @ @ $ - f s c T 2.!.tXxXzXzXzXbXzXaX4X6XtX5X6X4XoXP.N.N.N.V.I.U.(.).(.U.V.P.;XwXwXwXlXMX8X_ < . . . # & e j v v v v v v n D @.,.a.f.M.H.!.Q.Q.Q.L.F.M.N.L.p.,.,.,.>.>.>.>.>.:.>.>.,.,.:.+.E C k r w w % O . . 5 l.zXbXkXwX6X6X6X6XqX6XwXzXmXmXmX~.; O a y.f.D.D.f.a.y.y.y.y.f.f.f.f.f.f.f.i.t.y.i.f.f.f.i.i.d.d.f.f.f.f.i.y.y.y.y.y.y.y.y.t.t.t.t.t.t.4.,.:.>.>.>.>.W v v v v v v v v v v v v v C ",
"7 5 ; @ O .     . . . . . . o . . O O O O O @ # # - > , , 6 1 1 & 1 w w w w w w w w w w w w e j p ; - @ & w w w 1 % # O @ o . . O , L =.V.#XfXxXxXxXzXzXzXzXlXqX6XqX6XqX4X+XH.M.M.D.F.F.V.V.I.U.U.U.Y.P.L.L.|.4X0X0XwXzXzX~.P @ O . O % 1 t z v v v C A A J @.y.f.M.H.Q.$X$X$XOX!.~.Q.M.y.e.,.,.>.>.>.>.>.:.;.@.o.Q H D z u w w w # . . . P $XbXbXdXqXqXqX6XqXqXqXqX6XqXdXzXbXgX( O @ ) D.h.D.d.y.y.y.y.a.f.f.f.f.f.f.f.y.t.4.y.y.y.y.y.y.y.y.f.f.f.i.y.y.y.y.y.y.t.4.,.>.>.>.,.,.>.:.:.>.>.>.>.$.A v v v v v v v v v v v v l i ",
"yX8X#X~.R.B.l.-.) ( P N d 7 5 < ; @ @ @ . . . . . o o o o @ @ O O @ @ @ # # # % % % % & 1 e e p 2 = o O @ % % # @ . . . . = 7 Y w.oXrXfXdXaXaXaXaXdXfXzXzXaXqXqX0XqX4X+XJ.M.b.M.D.D.D.F.F.N.V.V.I.I.V.P.P.H.M.F.|.*X0XwXkXmXzXB.d O . . @ % w u k v v A A A H &.p.M.L.!.tXuXuXiXtX$XH.p.y.e.,.,.,.>.>.;.@.! D C v A A k r w w & @ o . 5 w.fXmXbXdXqXqXqXqX6X3X*X3XqXqXqXqXdXmXmX~.< O s d.h.h.a.y.y.y.y.d.f.f.f.f.f.f.f.t.,.,.,.,.>.4.y.y.y.y.a.i.y.y.y.y.t.4.4.,.>.>.>.:.>.>.,.,.,.>.>.>.:.:.@.H v v v v v v v v v v v k r e w ",
"bXbXMXMXMXMXMXnXbXbXzXgXyXrX8X2XOXQ.V.z.w.` ( P V d 5 : = @ . X X X X X   . . o o o o @ @ : : , @ . . . . . O . X X ; L -.!.8XhXdXwXqXqXwXaX7XrXrXaXrXfXrX7X6X6X0X-XJ.M.Z.D.Z.D.D.D.M.M.F.F.F.N.V.Y.V.F.H.F.D.D.b.F.|.4XwXkXmXMXrX-.: . @ . # & w r g v D F F E ;.M.P.OXtXuXBXuXiXOXL.M.y.e.,.,.,.>.;.W A v v v v v u e w q # o o   N ~.bXbXbXeX4XqX6XqX3X.XG.D.J.*XqXqXqXqXzXmXbX(   @ ) D.f.y.y.y.y.i.f.f.f.f.f.f.f.y.,.>.>.:.:.:.>.,.t.y.y.y.y.y.y.t.,.>.>.>.:.>.>.>.>.,.,.,.,.,.>.>.:.&.E A v v v v C C v v v k t e w w 1 % ",
"mXkXkXbXmXbXbXbXbXbXkXhXhXkXbXmXmXmXbXbXbXbXzXgXfXrX8X2X#X!.R.z.r.-.) P P N 7 8 5 : = @ @ @ ; @ . . . O O O $ d ( z.#XdXhXhXwX6X4X&X|.|.-X5XfXfXfXgXgXfXrX7X6X*X}.M.b.D.D.D.h.Z.b.b.b.M.D.F.F.F.F.P.H.F.H.H.F.D.D.D.D.J.*XaXzXzXmXzXOXY - O @ @ % w r t l A R E Q 1.L.$XiXuXBXBXiX@XQ.M.p.e.,.,.>.;.W C v v v v k t y a y # O . : ` yXbXbXzXeX6X6X0X4X+XH.M.D.G.G.J.4XqX9XqXzXmXMX~.; . 8 ;.:.,.y.a.a.f.f.f.f.f.f.f.a.,.>.>.:.:.>.>.>.:.>.4.y.y.y.y.t.>.>.>.>.>.:.:.>.>.,.t.,.,.>.>.>.>.&.H v v z j t t t r r r e w 1 1 % + O . ",
"hXqX6XeXkXzXbXkXhXwX6X6X6X6XwXhXzXmXbXzXkXdXwX6X4X6XdXkXzXmXcXkXkXkXkXkXkXgXyX8X2X@X~.R.z.w.-._ T L ; . O @ _ 8XhXhXwX0X6X6X0X*XJ.M.b.M.H.Q.2XuXxXxXxXfXaX4X+XH.M.M.b.D.D.D.D.h.f.f.p.f.b.b.b.M.D.F.F.H.Q.OXP.F.D.D.D.N.L.:XtXfXmXbXMXzXB.d . @ o - y g g j z F Q #.r.OXiXuXuXuXtXOXL.b.y.e.,.,.,.o.C v v C v u e s L ] 9 $ . d Q.bXbXbXkXwX6X6XqX9X|.M.b.D.D.G.G.D.W.4X0XqXlXmXmXzX( O @ z F W ;.f.t.d.f.f.f.f.d.i.t.,.:.>.>.>.>.>.>.>.>.>.,.t.y.y.,.>.:.>.;.o.! ! Q o.+.@.$.@.@.@.@.O.H v k r w w w w w w w 1 > + + O   X @ d ",
"6X6X6X6XqXqXwXqXqXqXqXqX9XqXqXqXqXwXaXqX4X-X-X=X9XqX6XqXqXqX6X6X6X9XqXqXwXhXzXbXmXMXMXmXmXbXbXbXzXgXQ.8 O - L.wXqXqXqXqX0X4X+XG.b.M.D.D.H.W.oXtXxXBXuXtX@XJ.F.D.M.D.Z.D.h.f.d.a.a.a.p.d.f.f.a.d.f.D.F.H.OX#XoXH.D.D.D.F.V.U.OX5XdXzXmXmXbXrX-.5 = ; < , a t p z E #.r.!.~.$XtXtXtX!.H.f.y.y.,.,.@.S v v v k r w e f ' { I 5 _ 8XbXbXfXaX9X9XqXqX4X|.D.D.D.D.F.G.G.D.D.W.4X4XqXlXmXmX~.< @ , H E ! o.Q $.i.a.y.4.t.,.,.,.:.>.>.>.>.>.>.>.>.>.:.>.,.,.:.>.:.@.F C v v C D D D A C A A A C z t w w w w w w & % # O . . @ < V -.!.yX",
"qX6XqXqXqXqXqX4X4X=X=X3X4X4XqXqX9X4X+XW.D.M.M.D.|.4XqX9X4X4X6XqXqXqX9X4X3X*X4XwXkXbXmXmXMXmXmXbXbXbXMXw.. @ ) -X=X4X=X*X XJ.g.g.Z.D.D.F.J.J.oX#XuXuXiX$XW.H.D.D.D.D.f.f.i.y.y.y.i.f.f.f.f.d.y.y.y.a.b.D.P.oXoXQ.H.D.D.F.!.I.V..X4XwXkXmXMXmXMX@X( < ; ; = , y g A =.r.r.l.B.L.Q.!.R.p.y.1.,.<.#.F A v l t w w w 1 4 ] ' ] V.xXmXbXlX5X:X4XqX6X4X|.D.D.Z.D.G.G.G.D.D.D.b.W.4XqXqXdXmXzXT . @ c W E E W E @.4.4.4.,.>.:.>.>.>.>.>.>.>.>.>.>.>.>.>.:.:.:.>.&.F v v v C D F A A v v v v v j e w w w w 1 % @ O . X . 5 P r.#XzXNXMXbX",
"4X4XqXqXqX9X-XW.G.D.D.D.H.J.}.W.J.G.D.D.Z.D.D.b.M.H.+X4X4X4X4X*X+X|.E.H.D.G.G.H..X4XdXhXkXzXbXbXzXbXbXrXV O ; <.D.D.D.D.M.g.M.D.D.D.D.G.H.J.W.@X#X$X@XOXQ.H.D.D.D.f.d.a.y.y.a.d.f.f.f.f.f.d.y.y.y.y.u.d.D.Q.#X#XW.D.D.D.F.H.F.N.}.4XqXdXzXmXmXMXgXR.L $ @ = ; s Y ! ! ) *.=.=.=.=.l.*.Q ! E H S A z u w w w 1 + @ = 9 ' 2XzXbXbXdX4X0X5X4X4X4X XD.h.D.Z.F.G.D.D.Z.D.D.D.M.W.=X4X4XwXmX!.- O < H E E K H H @.4.4.,.>.>.>.>.>.>.>.>.:.>.>.>.>.>.>.:.:.:.$.H v v v v D D F A v v v v k r w w w 1 * + O . . = d ) R.2XkXbXMXmXmXbXhX",
"W.J.*XqX9X XD.f.M.D.D.D.D.D.D.D.M.D.D.D.D.D.D.D.D.k.f.G.P.Y.H.D.f.f.h.D.D.D.D.D.f.J.3X4X4XqXwXhXuXuXzXbXQ.: o B p.M.f.a.d.g.D.D.h.D.G.F.K.F.W.oXQ.Q.W.J.P.!.H.D.g.f.d.f.d.f.f.f.f.f.f.d.f.f.i.y.y.y.a.a.f.J.#X$XW.D.D.M.D.D.D.D.Z.}.4XqXqXhXmXMXmXMXfX-.5 $ 5 d d s c V G U U U U ~ =.! F S A z u w w w w & O . . 8 z.zXbXbXzXaX4X4X4X6X6X4X+XD.k.k.h.D.F.G.F.h.D.D.D.D.D.M.J.*X4X4XwXkX( . @ V E H H H H H @.4.,.:.>.>.:.>.;.+.+.&.>.,.:.:.:.;.;.$.O.F v v v v A A A S v z z k r w 1 > + + . . . ; B ` Q.fXNXMXbXbXMXmXbXkXwXqX",
"D.M.G. XW.M.g.D.D.D.D.D.G.G.G.D.D.D.D.D.D.D.D.D.D.D.D.h.F.N.D.k.D.D.D.D.D.D.D.D.D.f.+XqXqX4X6X5X,XpXzXbXbX_   @ ) t.+.} O.4.h.h.D.G.G.D.D.D.L.M.M.M.M.D.F.V.L.D.f.f.f.f.f.d.d.d.f.i.y.y.f.f.f.f.f.f.f.f.Z.F.P.Q.F.D.D.k.k.Z.Z.D.D.k.J.=XqXqXwXlXzXmXmXbX#X_ 7 : : 4 8 x c c c z z z G U l g t e w w w & # O . @ P $XbXbXbXbXdX6XqXqX6X6XqX+XD.k.D.k.D.D.F.G.D.h.D.D.D.D.D.D.f.J.=X4X4XdX~.; . , z l n H H H H @.,.:.:.:.:.&.H A D H W } W E K H D A C v v n l l j j p p e e w 1 % # @ . . . < P r.@XfXbXMXbXbXbXmXmXMXmXkXwXwXwX",
"h.D.D.f.M.M.f.f.f.f.k.D.G.D.D.D.D.D.D.D.D.D.D.D.D.D.D.D.f.f.d.f.f.D.Z.Z.D.D.D.D.D.f.}.qXqX6X4X5XtXtXhXbXMX2X7 . , E Q Q ! O.d.D.D.G.G.D.d.f.f.i.d.d.d.i.d.f.f.f.f.f.f.f.i.a.y.y.y.y.y.y.f.f.f.f.f.f.f.f.f.M.I.I.N.d.i.d.f.f.Z.Z.D.D.b.D. X4XqXwXwXhXkXzXmXzXR.L = ; : 5 a j h x j g j V x e e w w w & @ . . 5 w.fXbXbXbXzXdX6X6X6X6X6X4X XD.k.D.D.D.G.G.D.G.D.D.D.D.D.D.Z.h.h.D.}.4X4X9XaXT @ @ y j j z J H H H } $.:.:.;.E S J H H H J C v v v v v v v j x m G m l p w & % @ . . . = 7 T z.2XbXMXbXbXbXMXMXMXMXMXmXzXhXwXwXwXwX",
"h.D.D.D.Z.f.a.y.y.a.d.k.G.D.Z.D.D.D.D.D.D.D.D.D.D.D.f.d.a.y.y.y.a.f.D.D.D.D.D.Z.D.k.G.&X9XqXqX6X6X6X6XkXmXbXB.= @ s ! ! Q ! :.G.G.G.D.a.a.u.a.a.a.a.a.a.a.d.f.f.f.f.i.y.y.y.y.y.y.y.y.a.f.f.f.f.d.i.i.f.f.b.I.I.b.a.y.y.y.a.a.d.d.f.D.D.D.H.W. X&X=X9XwXdXkXbXyXl.7 $ ; : < a p p t t t x t w w w % O . . L ~.bXnXbXbXzXaX6X4X6XqX4X+XJ.M.k.h.D.D.G.G.D.D.D.D.D.D.D.D.h.h.Z.D.Z.D.&X9X4X5XR.: @ - j j j v H H H H E } } E H H H H F J H A v C C v v j t t x U X.X.c , @ @ . X @ d ` R.rXzXMXMXbXbXzXbXbXmXmXmXbXzXhXwXqXwXwXwXwX",
"D.D.D.D.f.a.y.y.a.a.d.i.f.f.f.Z.D.D.D.D.D.D.D.h.f.i.y.y.y.y.y.y.y.y.d.f.h.D.D.Z.D.D.D.D.J.}. X X-X4X9XwXzXmXgXP O @ z E } } @.g.D.f.s.y.a.y.y.y.y.y.a.u.u.a.y.a.a.y.y.y.y.y.y.y.y.y.y.i.f.f.f.i.y.y.y.f.f.f.b.M.f.y.y.y.y.y.y.y.y.i.h.D.D.D.D.b.M.D.J.|.&X4XwXhXzX#X) 5 = = ; , e r e e t p w 1 # . . < =.yXbXbXbXkXdX7X5X5X=X+XW.H.D.M.D.D.D.D.G.G.D.D.h.h.D.D.D.D.D.h.h.h.Z.D.Z.P.=X4X5X5XT @ # y j j j v F H H H H H H J S z l j j z j j j j t r w y j x V 3.3.f - $ 5 L -.~.yXbXbXbXzXkXdXaXwXwXwXwXwXwXaXwXwXwXwXwXqXqXqXqX",
"D.D.D.g.i.y.y.a.d.d.d.d.d.y.a.d.f.Z.D.D.f.f.d.a.y.y.y.y.y.y.y.y.y.y.y.y.a.f.Z.Z.D.D.D.h.h.h.f.h.D.W.3XqXdXmXMXOX, O # g E } } @.a.y.y.y.y.y.y.y.y.y.v.m.m.u.a.y.y.y.y.y.y.y.y.y.y.y.y.d.f.f.i.y.y.y.i.f.f.f.f.f.f.i.y.y.y.y.y.a.d.d.f.f.d.d.f.Z.D.G.G.H.H.J. X4XwXdXhXQ.L $ @ @ # > w w w e > O O . B Q.bXmXmXbXhX6X6XtX,XOXL.M.b.f.D.D.D.D.K.G.G.D.D.k.D.Z.Z.D.D.D.h.h.Z.Z.Z.Z.Z.A.oX;X,X<XL.6 - 2 x j j j k A D J J D A l j j j j j j r w w w w w & % , 6 B f c c T z.$XgXnXMXbXbXzXhXwXwXwXwXwXwXwXwXwXwXwXwXwXwXwXwXwXwXwXwX",
"D.D.h.f.y.y.d.d.d.a.a.y.y.y.y.y.y.a.a.a.y.y.y.y.y.y.y.y.y.y.y.y.y.y.y.y.y.y.d.f.Z.D.D.D.D.D.D.Z.D.D.J.=XqXzXmXbX-.@ @ > j A E W O.,.y.y.y.y.y.y.y.a.n.U.U.n.a.y.y.y.y.y.y.y.y.y.y.y.y.i.d.a.y.y.y.y.a.f.f.f.f.f.f.f.d.i.i.i.d.f.D.D.D.f.d.a.i.f.D.G.G.J.J.H.F.}.-X4X0XwX*X-.7 @ @ @ # & % # @ . - _ 8XbXmXmXmXdX6X6XtX,X).(.V.F.D.D.D.G.G.D.D.D.D.h.D.D.D.h.D.k.D.D.h.h.Z.Z.Z.D.F.A.].:X,X,X:X_ c 7 s j j j j j j j j j j j j j j j j j r w 1 & # + O . @ 5 B _ V.2XgXbXbXbXbXbXkXhXwXwXwXwXwXwXwXwXwXwXwXwXwXwXqX4X=X-X+X&X&X+X",
"D.Z.f.a.a.a.d.d.d.a.y.y.y.y.y.y.y.y.y.y.y.y.y.y.y.y.y.y.y.y.y.y.y.y.y.y.y.a.a.a.f.Z.D.D.D.D.Z.D.D.D.f.}.9XhXMXmXrXB ; : a j A Q ! ! O.;.y.y.y.y.y.a.v.m.m.u.y.y.y.y.y.y.y.y.y.y.y.y.y.y.y.y.y.y.y.y.y.y.a.i.d.f.f.f.f.f.f.f.f.f.f.D.f.f.f.f.f.f.f.f.D.F.G.K.F.D.D.J..X+X*X4XW.d @ $ $ . . . . d V.bXmXmXMXmXhX6XqX6X5X$X(.U.P.H.H.G.G.G.G.G.D.D.D.D.D.D.D.D.D.D.D.h.f.f.f.Z.D.F.F.P.{.{.).,X%X{._ 7 , j j j j j j j j j j j j j j j j p 2 + + .   X = B ` R.rXbXMXzXkXkXkXkXhXdXwXwXwXwXwXqXwXwXwXwXwXwXwXwXqX*X|.H.D.b.b.b.M.f.",
"d.i.y.y.a.f.d.i.y.y.y.y.y.y.y.y.y.y.y.y.y.y.a.y.y.y.y.y.y.y.y.y.y.y.y.a.a.s.s.y.y.s.f.k.D.D.D.D.D.D.Z.G.=XwXmXmXbX_ o ; - y z =.v.;.Q H W ;.y.y.y.y.y.u.u.a.y.y.a.a.y.y.a.y.y.y.y.y.y.y.y.y.y.y.y.y.y.y.y.y.y.i.f.f.f.f.f.f.f.f.f.f.f.f.f.f.f.f.f.f.f.f.f.f.f.f.f.f.Z.D.D.G.J.#.@ ; $ @ . . P 2XbXbXmXMXbXkXqX6XqX6X4XQ.P.P.H.H.G.G.G.G.G.G.G.G.D.G.D.F.H.F.D.Z.f.a.y.y.y.d.Z.F.P.{.{.[.{.{.%X<X2.5 - y j j j j j j j j j j j g t 2 > @ O . @ < L w.~.yXbXMXbXkXaXwXwXwXwXwXwXwXwXwXwXwXwXwXwXwXwXwXwXwXqX*XW.D.b.Z.b.M.D.D.D.D.",
"y.y.y.y.y.a.a.y.y.y.y.y.y.y.y.y.y.y.y.y.a.v.m.u.y.y.y.y.y.y.a.y.y.y.a.s.C.A.C.a.y.y.a.f.k.D.D.D.D.D.D.D.XXqXkXmXrXN . @ = , G B.tXn.! S v S $.,.4.4.y.y.y.y.y.s.C.C.a.a.a.a.y.y.y.y.y.y.y.y.y.y.y.y.y.y.y.y.y.y.f.f.f.f.f.f.f.f.f.f.f.f.f.f.f.f.f.d.i.a.y.y.y.a.a.a.a.y.y.y.y.) : ; ; $ . ; @XMXmXMXMXmXbXwX6XqXqX6X-XD.N.F.H.G.G.G.G.G.G.G.G.G.D.D.W.Q.OXQ.D.d.y.y.y.y.y.y.s.Z.K.].{.[.[.'.oX;XF.6 $ - p j j j j j j j p y 2 - O .   @ 5 P w.$XbXNXMXbXMXMXkXwXwXwXwXwXwXwXwXwXwXwXwXwXqXwXwXwXwXwXqX*XW.M.f.D.D.D.D.D.D.D.D.k.",
"y.y.y.y.y.y.a.y.y.y.y.y.y.y.y.y.y.y.y.y.u.m.U.m.a.y.y.y.y.a.a.a.y.y.s.C.'.'.C.s.y.y.y.y.d.f.D.D.D.D.D.D.}.9XwXgX( O O @ @ 4 L =.V.=.E S A v E ;.:.<.,.4.y.y.y.s.A.C.f.i.i.a.y.y.y.y.y.y.y.y.y.y.y.y.y.y.y.y.y.y.i.f.f.f.d.i.f.f.f.f.f.f.f.i.i.i.y.y.y.y.y.y.a.y.6.6.,.,.,.:.$.U = ; @ o @ 5 8XbXMXMXMXmXhXqXqXqX6XqX|.f.M.M.D.G.G.G.G.G.G.G.G.G.H.H..XtXyXOXD.a.y.y.y.y.y.y.y.s.C.A.'.'.'.].J.Z.F.V @ O 2 j j j j p y > @ . . . @ 7 ( B.2XgXbXMXbXbXbXmXmXkXwXwXwXwXwXwXwXwXqXqX*X+X|.+X=X9X9X4X4X+XW.D.b.b.D.D.D.D.D.D.D.D.D.k.",
",.,.4.y.y.a.s.s.s.y.y.y.y.y.y.y.y.y.y.y.a.n.m.v.y.y.y.a.i.i.i.i.y.y.a.s.'.'.A.s.a.y.y.y.y.y.f.h.D.D.D.k.W.9X4X=.O O . . @ ; 5 f U U z n A v A #.,.>.:.:.,.t.y.a.s.f.d.i.y.y.y.y.y.y.y.y.y.y.y.y.y.y.y.y.y.y.y.y.f.f.f.f.a.y.y.i.i.i.i.a.y.y.y.y.y.y.y.y.t.4.4.6.6.6.<.%.! H c ; = . . . @ ; ~.mXMXMXMXkXqX6XqXqXqX4XJ.f.D.h.D.G.K.G.G.G.D.G.G.G.H.J..X2X8XoXF.a.y.y.y.y.y.a.a.s.s.s.A.A.P.P.s.s.p.#.- O + , y 2 - + . . . = d _ R.rXMXMXbXbXbXbXbXzXkXkXdXwXqXwXwXwXwXwXwXwX4XW.D.f.f.D.D.J.J.H.H.M.D.D.D.D.D.D.D.D.D.D.D.D.h.f.",
"$.;.:.,.,.4.C.S.s.y.y.y.y.y.y.y.y.y.y.y.y.a.a.y.y.y.y.d.i.i.a.y.y.y.a.s.C.C.s.s.a.y.y.y.y.y.y.d.h.D.h.k.W.4Xr.- O . 7 ) P ; $ ; y j t t n A A ! <.,.>.,.>.>.4.y.a.i.i.y.y.y.y.y.y.y.y.y.y.y.y.y.y.y.y.y.y.y.y.a.f.f.f.f.a.y.y.y.y.y.y.y.y.y.y.y.y.t.4.,.,.,.5.6.9.7.X.R D c 5 ; @ L _ 7 @ @ l.MXmXMXMXdX6XqXqXqXqX+XD.D.D.D.D.D.D.f.d.i.f.D.G.G.H.J.W.|.W.H.D.p.y.y.y.y.y.y.y.y.a.s.Z.Z.D.s.a.y.y.y.f . . . O O . . ; V -.~.yXbXMXbXkXhXdXdXaXwXwXwXwXwXwXwXwXwXwXwXwXwXwX*XH.b.f.D.G.G.D.Z.F.G.G.D.D.Z.f.f.f.f.f.h.h.h.f.f.d.d.",
"A F E O.;.,.6.C.s.y.y.y.y.y.y.y.y.y.y.y.y.y.y.y.y.y.y.i.i.y.y.y.y.y.y.a.s.s.a.a.y.y.y.y.y.y.y.y.a.f.h.k.|.H.< O O L 8XnXzXz.< @ @ 1 e w j U R U #.1.1.,.>.>.,.a.i.i.y.y.y.y.y.y.y.y.y.y.y.y.y.y.y.y.y.y.y.y.y.d.f.f.f.f.y.y.y.y.y.y.y.y.y.y.y.t.,.>.:.>.:.#...7.q.9.X.R x < - $ _ yXzXR.- . ( bXmXmXmXwX9XqXqXqX4XJ.M.D.D.D.k.d.y.y.y.y.a.f.G.K.K.J.J.D.M.g.f.p.y.y.y.y.y.y.y.y.a.d.b.f.a.s.a.y.y.y.) @ . . . O O ) $XgXbXkXkXdXaXwXwX4X4XwXwXwXwXwXwXwXwXwXwXwXwXwXwXwX*XH.D.D.D.F.F.G.D.D.G.F.F.D.f.i.y.y.y.a.a.a.a.a.y.y.i.f.",
"j v v v W :.,.,.,.y.y.y.y.y.y.y.y.y.y.y.y.y.y.y.y.a.i.d.a.y.y.y.y.y.y.a.y.y.y.y.y.y.y.y.y.y.y.y.y.a.f.D.D.d . @ 7 2XnXnXnXnXr.@ o @ 1 w a U ) *.~ 3.1.,.>.>.,.y.a.a.y.y.y.y.y.y.y.y.y.y.y.y.y.y.y.y.y.y.a.i.f.f.f.f.f.a.y.y.y.y.y.y.y.y.t.,.>.>.:.:.:.$.E D W 7.9.9...c 7 5 ; w.fXkXsX8Xd o 7 yXmXmXmXwXqXqX6XqXXXM.D.D.D.k.f.y.y.y.y.y.y.a.f.D.D.D.h.f.f.f.f.f.f.f.d.y.y.y.y.a.d.d.f.d.y.y.a.y.y.t.,.f . . . . ; #XkXdXwXwXwXqXwXwX&XF.F.|.*XqXwXwXqXqXqXqXwXwXqXqXwX*XH.D.D.F.F.F.F.G.G.F.F.G.G.h.y.y.y.y.y.s.C.s.y.y.y.y.f.f.",
"2 z v v A +.:.:.:.,.y.y.y.y.y.y.y.y.y.y.y.y.y.y.a.f.a.i.y.y.y.y.y.y.y.y.y.y.y.y.y.y.y.y.y.y.y.y.y.y.a.y.B O O 5 Q.bXbXmXbXbXgX` @ . # 2 a c ' x.8.~  .;.,.,.,.y.a.y.y.y.y.y.y.y.y.y.y.y.y.y.y.y.y.y.y.i.f.f.f.f.i.a.y.y.y.y.y.y.t.t.4.,.>.>.>.>.>.:.+.D A H ~ *. .R U d 5 7 l.zXzXsX%X<XT @ = OXMXmXbXwXqXqXqX=XG.h.D.D.k.f.y.y.y.y.y.y.y.y.y.a.y.y.f.f.f.f.f.f.f.f.f.f.y.y.a.i.d.d.d.a.y.y.y.y.t.y.y.! j - . . . ( @XwXwXwXwXqX4X|.D.M.M.D.D.J. X*X4XqXqXwXwXwXqXqX&XF.D.H.G.G.G.F.J.F.G.D.G.D.D.i.y.i.d.a.y.s.C.s.y.y.y.y.f.f.",
"# e l n n E ;.:.:.:.4.y.y.y.y.y.y.y.y.y.y.y.y.a.i.d.a.y.y.y.y.y.y.y.y.y.y.y.y.y.y.y.y.y.y.y.y.t.,.,.,.V O O = z.nXbXbXbXbXbXbXgX( . @ # a c ' 0.8.~ G E $.,.,.4.y.y.y.y.y.y.y.y.y.y.u.n.a.y.y.y.y.y.y.i.i.i.a.y.y.y.y.y.y.4.,.,.>.>.>.:.>.>.>.:.:.o.A v A G ~ ' ^ c B d d R.bXbXbXjXsXjXw.o . l.MXmXkXqXqXqX4XW.g.D.D.D.h.a.y.y.y.y.y.y.y.y.y.y.y.y.i.f.f.f.f.f.f.f.f.f.f.d.i.a.i.a.a.y.y.y.y.y.y.y.y.} D A a @ . @ s r.4XqX*X|.F.D.G.D.M.D.D.h.k.G.J..X+X-X-X*X+X}.G.G.G.G.G.G.H.F.G.F.G.D.f.f.M.f.f.f.f.i.y.y.a.y.y.y.y.y.i.f.",
"O & e z n n +.:.:.:.>.t.y.y.y.y.y.y.y.y.y.y.y.i.i.d.a.y.y.y.y.y.y.y.y.y.y.y.y.y.y.y.y.y.y.t.,.>.;.@.G @ O @ ` gXzXzXzXkXzXbXbXbX7XP o @ , c ^ / / ~ F F H @.,.,.4.y.y.y.y.y.y.y.y.y.v.m.a.y.y.y.y.y.y.y.y.y.y.y.y.y.y.t.,.>.>.>.>.>.>.>.>.>.>.;.Q C v v k t x T d 7 5 N !.bXbXmXmXzXzXcX!.@ . ( mXmXkXqXqXqX+XD.D.D.D.D.d.y.y.y.y.y.y.y.y.y.y.y.y.y.d.f.f.f.f.f.f.f.f.f.i.d.d.a.y.y.y.y.y.y.y.y.y.y.y.O.D D D z 2 O . = V <.M.M.D.F.G.G.D.k.D.D.G.H.G.F.F.P.P.P.H.H.H.H.G.G.G.G.J.J.J.J.g.i.p.D.oXJ.f.f.f.d.y.y.y.y.y.y.y.y.y.i.",
". % w j v v F ;.:.>.>.>.4.y.y.y.y.y.y.y.y.a.d.d.d.i.y.y.y.y.y.y.y.y.y.y.y.y.t.t.t.4.4.,.>.>.;.+.E x O . . T gXbXbXjXwXwXkXzXzXzXmX8XB @ 4 6 h c c ^ R H S H ;.>.,.y.y.y.y.y.y.y.y.y.a.a.y.y.y.y.y.y.y.y.y.y.y.y.y.y.t.>.:.>.>.>.>.>.>.>.:.>.$.E C v k r w e y 8 5 4 N @XmXbXmXMXmXbXbXmXrX8 O B fXmXdXqX6X4XJ.k.D.D.D.h.a.y.y.y.y.y.y.y.y.y.y.y.y.d.f.f.f.d.f.f.f.b.N.D.d.d.y.y.y.y.y.y.y.y.y.y.y.y.y.@.D D S D b 1 + . . @ V 1.F.J.G.G.G.D.G.G.G.H.H.J.P.Y.^.Y.L.H.G.G.G.G.G.G.G.J.J.D.f.d.f.D.J.D.f.d.i.d.a.y.y.y.y.y.y.y.y.y.",
". @ 1 t v v v W ;.:.:.>.>.4.y.y.y.y.y.i.i.i.a.i.a.y.y.y.y.y.y.y.y.y.y.y.4.>.>.>.>.>.>.:.;.+.F C x = . . N 2XbXbXkX6X;X;XsXjXzXbXmXbX@Xd @ $ , a a c E F S v } >.:.,.t.y.y.y.y.y.y.y.y.y.y.y.y.y.y.y.y.y.y.y.y.y.y.t.>.>.>.>.>.>.>.>.>.:.;.o.D v v g w w w a < 4 = P 2XbXbXmXmXmXMXmXmXmXzXP . < #XmXwXqXqX+Xg.D.D.D.D.f.y.y.y.y.y.y.y.y.y.y.y.a.f.f.d.i.a.a.f.f.b.V.I.b.d.a.y.y.y.y.y.y.y.y.y.y.y.y.y.;.J D D S D g w > @ @ . < T f.G.G.G.G.G.G.H.H.G.F.H.Y.).(.P.F.G.D.G.G.G.G.G.G.D.f.f.f.f.f.f.i.y.y.y.y.y.y.y.y.y.y.y.y.y.y.",
". . % w l v v n } :.:.>.>.,.4.y.y.y.y.i.f.i.i.y.y.y.y.y.y.y.y.y.y.y.y.,.>.>.>.>.>.:.:.$.E C v z - . . 7 @XbXbXkX6X;X%X{.%XsXzXbXmXbXMX!.5 @ @ 6 h j l z v v E :.>.:.>.,.,.t.t.t.y.y.y.y.y.y.y.y.y.y.y.y.y.y.t.t.4.>.:.>.>.>.>.>.>.>.:.+.H v v v u w w w % @ ; = T rXmXmXmXmXmXmXMXMXMXmXMXw.O @ B.zXwX4XqX.Xb.D.Z.Z.h.a.y.y.y.y.y.y.y.y.y.y.y.i.i.a.y.y.y.i.f.f.f.N.V.u.y.y.y.y.y.y.y.y.y.y.y.y.y.y.y.4.E D D S S z r r p , @ . . s =.D.G.M.M.M.D.D.Z.Z.A.P.T.Y.P.D.D.Z.D.D.D.D.G.g.a.i.d.f.f.d.y.y.y.y.y.y.y.y.y.y.y.y.y.y.i.f.",
"O . # w r v v v A O.:.:.,.6.5.,.y.a.f.d.i.y.y.y.y.y.y.y.y.y.y.y.y.y.,.>.>.>.>.>.>.:.+.S v C z 2 . . ; R.nXbXkXqX4X;X%X{.%XsXkXbXbXbXbXbXB.5 @ @ y t w w r k A $.:.:.>.:.>.>.>.>.>.,.4.y.y.y.y.y.y.y.4.,.>.>.>.>.:.>.>.>.>.>.>.>.>.;.Q A v v v j w w w % O . @ ` yXbXbXbXkXkXbXmXMXMXMXMXmX!.= O _ zXwX4X9XW.D.D.D.k.f.y.y.y.y.y.y.y.y.y.y.y.y.y.y.y.y.y.a.f.f.f.f.f.f.y.y.y.y.y.y.y.y.y.y.y.y.y.y.y.y.y.@.S D D S D z g j g e # O . = N *.y.d.f.F.D.Z.A.A.'.'.S.A.Z.Z.Z.f.M.M.g.f.f.a.y.y.i.a.y.y.y.y.y.y.y.y.y.y.y.y.y.y.a.f.k.",
"< . + 1 w r z v v A +.:.:.,.>.>.4.y.a.i.y.y.y.y.y.y.y.y.y.y.y.y.y.,.>.>.>.>.>.:.:.} A A C z a @ @ ; w.zXbXzXwX4X4X;X;X%X%X;XwXlXbXmXmXbXMXr.$ @ @ 2 q w w r z H @.;.;.:.:.:.:.>.>.>.>.>.>.,.,.,.,.,.>.>.>.>.>.>.>.>.>.>.>.>.:.>.&.K v v v C k w w w # O . - =.gXbXzXkXdXwXwXdXkXmXMXMXMXmX8X8 . N fXwXqXqX}.G.D.k.i.y.y.y.y.y.y.y.y.y.y.y.y.y.y.y.y.y.y.f.f.f.f.f.f.f.a.y.y.y.y.y.y.y.y.y.y.y.y.y.y.y.y.4.Q D D J H H v j t e e 1 @ O @ : V ) $.<.<.6.9.'.[.[.'.A.Z.Z.Z.h.h.h.d.d.f.y.y.y.y.y.y.y.y.y.y.y.y.y.y.y.y.y.y.y.a.h.k.",
"V . O & w w r k v v A O.:.>.>.>.>.t.y.y.y.y.y.y.y.y.y.y.y.y.y.t.,.>.>.>.>.>.>.>.o.A A S l 2 @ 4 ; _ gXbXbXdX4X4X4X4X-X&X;X;X4X6XwXkXmXmXbXkX=.@ @ @ & w w w j C A F K } ;.:.:.>.>.>.>.>.>.:.,.,.,.,.,.>.>.>.>.>.>.>.:.:.;.>.>.@.F v v v A l p e w # . . - l.bXbXlXaXwXwXwXqXqXwXlXmXMXmXmXkXL . : 2XhXqXwX}.f.a.y.y.y.y.y.y.y.y.y.y.y.y.y.y.y.y.y.y.y.i.f.f.f.f.f.f.f.f.i.i.d.d.i.y.y.y.y.y.y.y.y.y.y.y.y.,.Q D J H H J A v j t r e , ; : 8 N ) 2.%.%.3.9.q.q.A.A.Z.Z.Z.Z.Z.f.y.d.i.y.y.y.y.y.y.y.y.y.y.y.y.y.y.y.y.y.y.y.f.D.k.",
"G . . # w w w w j v v A O.:.:.:.>.>.t.y.y.y.y.y.y.y.y.y.4.,.>.>.>.>.>.>.>.>.:.+.D S A j y = : 0 ' iXzXzXhX6X6X4X4X+XD.M.J.+X4X9X9XqXlXbXmXmXgX) . o # & w w r v v v v v K ;.>.>.>.>.>.>.>.>.t.,.,.,.>.>.>.>.>.>.:.:.:.:.:.:.+.S v v A A z p c y > @ O 5 B.zXkXdXwXwXwXqX+XJ.-XwXwXdXkXmXmXmX` .   B.kXqXwX Xy.y.y.y.y.y.y.y.y.y.y.y.y.y.y.y.y.y.y.y.y.f.f.f.i.i.i.f.f.f.f.f.f.f.f.d.i.a.a.a.a.y.y.y.y.y.y.y.t.@.! R H D D D D A v j x x d L ( -.w.3.*.#.X.7.X. .;.y.s.f.f.f.a.y.i.a.y.y.y.y.y.y.y.y.y.y.y.y.y.y.y.y.y.y.y.k.g.k.",
"j O . O 1 w w w w u v v A } :.:.>.>.>.4.y.y.y.y.y.y.4.>.:.:.:.>.>.>.>.>.>.:.&.F D A j y = @ 4 ' _.pXzXkX6X6XqX4X4XH.M.D.b.D. X9X9XqX6XdXbXmXmXyXP . o # & w w u v v v v v Q :.:.>.>.>.>.:.,.,.,.>.>.>.>.>.>.>.:.:.:.,.:.@.Q A v C A n x x M I 6 4 = 7 !.nXkXwXwXwXwX0X.XM.f.W.6XwXqXwXdXkXmXR.@ X ` mXwXwX-Xy.y.y.y.y.y.y.y.y.y.y.y.y.y.y.y.y.y.y.y.y.a.y.y.y.y.y.y.f.f.f.f.f.f.f.f.f.f.f.f.f.f.i.y.y.y.y.y.y.i.4.%.E D D D S D D D v x V T w.R.x._ Y U R ..m l l E ;.y.a.y.y.y.y.y.y.y.y.y.y.y.y.y.y.y.y.y.y.y.y.y.y.a.f.D.g.f.",
"2 . . . % w w w w w r z v A W &.:.:.:.:.>.,.,.,.,.>.>.>.>.>.>.>.>.>.>.>.>.:.! A A j e = . = M ^.pXuXzXdX4XqXqX6X4XG.g.g.f.f.D.+X9XqXqXqXwXkXmXmX8XV . O # q w w g v v v v A @.:.:.:.:.>.,.,.,.,.>.>.>.>.>.>.>.:.:.$.O.E U U A n z j p h I ' [ I 7 N ~.zXhXwXwXwXwX4X}.M.M.D.D.+XqXwXwXwXwXwX@X5 . L gXwXqX3Xf.y.y.y.y.y.y.y.y.y.y.y.y.y.y.y.y.y.y.y.y.y.y.y.y.y.y.y.a.f.f.f.f.f.f.f.f.f.f.f.f.f.f.i.a.y.y.a.i.f.d.y.4.@.E J S S D D J F A Y =.B.l._ P N V R l g t t k E $.4.y.y.y.y.y.y.y.y.y.y.y.y.y.y.y.y.y.y.y.y.y.f.g.D.f.i.",
"+ . . @ O # 1 w w w w e j v v H $.:.:.:.>.:.:.:.:.:.>.>.>.>.>.>.>.>.>.>.>.+.A A j y - . O ; B.zXxXxXkX6X6XqXqXqX4XG.h.h.h.h.D.D.&XqXqXqX6XqXkXmXMX#Xd . O % w w w t l v v v F $.:.:.:.,.4.,.,.>.>.>.>.>.>.>.>.;.O.F G U ~ ^ c j p a c L [ /./.' ( 2XzXhXwXwXwXwXqX}.f.D.D.D.D.D.+XwXwXwXwXwX6XV = d 2XwX6X4XJ.y.y.y.y.y.y.y.y.y.y.y.y.y.y.y.y.y.y.y.y.y.y.y.y.y.y.y.y.y.a.a.i.f.f.f.f.f.f.f.f.f.f.f.f.a.y.i.i.i.i.y.y.y.t.&.Q J S D J H E U ~ =.) L 7 5 5 s a p t r r t v E O.;.4.y.y.y.y.y.y.y.y.y.y.y.y.y.y.y.y.i.g.D.f.f.i.f.",
"O . @ @ . . @ % 1 w w w w t z v D O.:.:.:.:.>.>.>.>.>.>.>.>.>.>.>.>.>.:.@.F S j r > . . @ ` gXbXbXzXaX4X6X6X6XqX+XD.D.D.D.D.D.h.G.*XqXqXqXqXqXkXmXbX~.8 @ O % w w w w j v v v F @.:.,.,.,.,.>.>.>.>.>.>.>.>.;.Q A G U ~ ' / M c x x c I [ /.).x.iXxXfXwXwXwXwXqX|.M.D.D.D.D.D.D.D.}.3XqXwXwXwX_ ; < R.qX4X4X Xy.y.y.y.y.y.y.y.y.y.y.y.y.y.y.y.s.C.s.y.y.y.y.y.y.y.y.y.y.y.y.y.y.f.f.f.f.f.f.f.f.f.f.f.f.h.f.i.i.a.y.y.y.y.y.t.;.Q J D J E E U Y G c s < ; ; @ > w r r r r k A J E O.:.t.y.y.y.y.y.y.y.y.y.y.y.i.d.f.g.f.y.a.i.d.",
"O d w.z.T - . @ # & w w w w w j v n W $.:.:.>.>.>.>.>.>.>.>.>.>.>.,.,.$.F D z r % . . . T zXbXmXmXlX6XqX6X6X6X-XG.k.D.D.D.D.k.k.D.J.=XqXqXqX6XqXkXmXMXV.; O @ % w w w w u v v v A +.,.,.t.,.>.>.>.>.>.>.>.>.+.A G U ~ [ c.0./ ^ T T L 9 I [ c.pXxXfXwXwXwXwXwX+XD.D.D.D.D.D.D.D.D.f.D.+XwXwXwXB.: ; =.4X4X4X&Xi.y.y.y.y.y.y.y.y.y.y.y.y.y.y.y.C.A.C.a.y.y.y.y.y.y.y.y.y.y.y.y.y.y.f.f.f.f.f.f.f.f.f.D.k.g.k.f.d.a.y.y.y.y.y.y.y.y.@.J F H E ! A x p p e 2 - @ O O % w e w w j A D S F } :.y.y.y.y.y.y.y.y.y.y.a.f.k.f.y.y.y.a.i.",
"T 2XbXMXgXR.N @ @ @ % 1 w w w w r k v D O.;.:.:.>.>.>.>.>.>.>.:.>.a.6.! F j g e O . . N 8XnXbXbXkXqX6XqX6X4X+XD.k.D.D.D.D.D.D.k.D.D.J.=X0XqXqXqXqXkXmXbXz.- . O & w w w w g v v A H @.,.,.>.>.>.>.>.>.>.>.$.D v A A M / c.0./ -.I.x.I 9 d x.iXxXfXwXwXqXwXwX-XH.D.D.D.D.h.Z.D.D.D.D.M.W.qXwXwXoX5 @ V -X4X4X=Xf.y.y.y.y.y.y.y.y.y.y.y.y.y.y.y.s.C.f.d.a.y.y.y.y.y.y.y.y.y.y.y.y.y.y.d.f.f.f.f.f.f.f.D.D.k.f.f.f.f.f.i.a.y.y.y.y.y.y.@.D D H E S j r e e w 1 # . . O @ % q w w t v D D D H @.y.y.y.y.y.y.y.y.f.d.d.i.y.y.y.y.f.y.",
"fXzXzXmXmXMXyX=.< . o @ & w w w w w t z n E @.:.:.:.:.>.>.>.:.:.;.+.<.! l t y - . . 7 @XbXbXbXbXwXqXqXqX4X|.M.g.D.D.D.D.D.D.D.k.D.D.k.J.=X9X9XqX6XwXmXmXzX=.@ O O & w w w w n S D A H @.>.:.>.>.>.>.>.:.;.E v v z p h L / ^ L ) ^.R.P 9 l.xXxXzXaXwXqXqXwX*XW.P.J.G.D.D.D.D.D.D.D.D.D.D.|.*X&XJ.s . 5 |.4X4X=Xh.y.y.y.y.y.y.y.y.y.y.y.y.y.y.y.y.a.a.s.C.s.y.y.y.y.y.y.y.y.y.y.y.y.y.y.y.i.d.f.f.D.D.D.f.f.f.f.f.f.f.a.y.t.t.y.y.y.y.t.W D D H A n t e w w w 1 + . . . . # & w w r v A S D D +.y.y.y.y.y.y.y.a.i.y.y.y.y.y.f.a.t.",
"jXjXzXcXmXmXMXbX~.L . . @ % 1 w w w q r k v S Q ;.>.:.>.:.:.:.+.K F A j t e - . . ; R.MXMXMXbXdX6XqXqX*XJ.M.h.h.Z.D.D.D.D.D.D.D.D.D.D.k.J.=X9XqXqXqXhXmXmXzX_ O . @ 1 w w w j F F S A H :.>.>.>.>.:.>.&.W v v v t e p h M c c L T P P R.xXzXzXaXwXwXqXqX+XW.OX#XoXH.D.D.h.h.D.D.D.D.D.G.G.G.D.f.V . O v.9X4X;Xk.y.y.y.y.y.y.y.y.y.y.y.y.y.y.y.y.y.y.s.A.C.y.y.y.y.y.y.y.y.y.y.y.y.y.y.y.y.y.y.i.f.g.f.f.d.d.f.f.f.y.4.4.4.4.t.t.y.t.4.Q H H H H J A j p p p t # . . . . . # q w w u v v Z A D $.y.y.y.y.y.y.y.a.y.y.y.y.a.y.t.t.",
"<X>XsXhXkXzXMXMXMXfXw.8 . O # & w w w w w j v v F O.;.:.:.;.Q S A z g p e % O o = r.zXbXMXmXdXqXqX6X-XG.M.D.h.Z.Z.D.D.k.D.D.D.D.D.D.D.D.h.W.4XqX0XqXqXkXmXmXyXY @ O # & r g g n A v v v Q :.:.:.:.$.} F v v v j w w e y h a 5 8 5 N !.bXbXzXaXwXwXqX4X.XF.J.#XtXOXH.D.h.h.h.D.D.D.D.D.G.D.D.D.D.) O X ) 9X4X=Xf.y.y.y.y.y.y.y.y.y.y.y.y.y.y.y.y.y.y.a.s.a.y.y.y.y.y.y.y.y.y.y.y.y.y.y.y.y.y.y.y.y.i.y.y.y.y.y.i.y.4.t.t.t.t.t.t.4.4.$.H H H H H J H l j j j p @ . . o . . O & q q w l v v v v J ;.,.4.4.t.y.y.t.t.,.,.,.,.4.t.t.",
"%X{.%X;X9XqXdXkXmXMXMX#XT @ @ @ # & w w w w g v v v H @.;.E A F l g e w % . . X _ zXmXMXmXhXqX6XqX=XG.g.M.D.D.D.D.D.D.D.h.h.Z.Z.Z.D.D.D.D.D.}.9X9X0X9XwXbXMXmXrXV . O # w t t t v v v v A ! %.#.! D n v v v l w w w w e y # ; = B ~.nXnXbXdXwXwXwX*XP.S.F.J.|.oXQ.H.D.D.D.D.h.h.D.D.D.D.D.Z.D.D.<.; . V 4X;X*Xd.y.y.y.y.y.y.y.y.y.y.y.a.a.y.y.y.y.y.y.y.y.y.y.y.y.y.y.y.y.y.y.y.y.y.y.y.y.y.y.y.y.y.y.y.y.y.y.t.,.4.4.t.t.t.4.4.t.@.K J H H H E E A l l j t - . . X X   o o # w w q t v v v v C } :.:.:.,.,.>.:.:.:.:.:.>.4.t.t.",
"%X:X%X4X9XqX4XqXqXdXkXmXgXz.d @ O @ % w w w w t z v v A S A z j t r w & O . . P yXMXmXmXdXqXqXqX9X}.f.D.D.D.D.D.D.D.D.D.Z.Z.Z.Z.Z.Z.D.k.Z.k.D. X9X0X6X6XdXmXmXMX#Xd O O # w r w g v v v v A H R R D n v v v r w w w w 1 # $ : P 2XbXbXbXhXqXwX4X|.D.Z.A.A.G.H.H.F.D.D.D.D.D.Z.Z.D.D.D.D.D.Z.Z.Z.p.7 @ 7 +X;X Xa.a.y.y.y.y.y.y.y.y.a.i.i.i.a.y.y.y.y.y.y.y.y.y.i.y.y.y.y.y.y.y.y.y.y.y.y.y.y.y.y.y.y.y.y.y.y.t.>.:.>.,.,.,.,.4.>.O.H H J J H K E A z j p , @ . O < ( -.P $ o O & w w w l v v v v J ;.:.:.:.:.:.:.>.:.:.>.>.4.t.t.",
"P.P.H.W. X*X9XqX9XqXqXdXbXMX2X) @ . O # & w w w e j z v v k r w r w & @ . . d 8XbXmXbXdXqXqXqXqX&XD.D.D.D.D.D.k.D.D.D.h.Z.Z.A.Z.Z.D.D.D.D.D.h.D. X6X,XtX0XhXmXmXmXOX8 . O % w w w g v v v A R 3.X.J C v v t w w w w % = ; ; ( tXnXzXbXhXqXqX-XJ.b.D.Z.Z.Z.D.D.D.D.D.D.D.D.D.D.Z.k.h.f.f.f.d.f.f.D.L ; 5 B.;XH.a.a.y.y.y.y.y.y.y.y.f.i.i.a.y.y.y.y.y.y.y.y.y.f.J.f.y.y.y.y.y.y.y.y.y.y.y.y.y.y.y.y.y.y.y.y.t.>.:.>.>.:.:.>.;.+.F A S D J F S S z l j 2 @ .   = ( @XbXMXgX( . . # q w w t v v v v v @.>.>.>.>.>.>.>.>.>.:.>.t.t.t.",
"Z.Z.F.D.D.D.E.&X4X9XqX0XdXmXMXzXR.B @ . O % 1 w w w e t r w w w w 1 + . . 5 !.bXbXzXwX4X4X4X4X3XJ.D.D.D.h.D.F.D.G.D.D.f.Z.A.'.A.f.f.f.h.D.D.D.k.D.|.;X6X0XqXdXzXMXmXR.: O @ % w w w u v v A R X.X.J C v u w w w w % @ ; < _ yXnXzXzXfX7XwX-XD.M.D.D.Z.Z.D.D.D.D.D.D.D.D.D.D.f.f.d.a.y.y.y.y.y.a.d.~ 5 7 -.OXv.u.u.a.y.4.,.y.y.y.a.i.i.a.y.y.y.y.y.y.y.y.y.y.f.J.f.y.y.y.y.y.y.y.y.y.y.y.y.y.y.a.a.u.y.y.t.,.>.>.>.>.>.;.@.E C z k j u u u l z x y # . . = P Q.gXbXbXbXbX@X< o @ & w w w z v v v v Q >.>.>.>.>.>.>.>.>.>.>.4.,.@.",
"D.G.F.D.D.g.f.g.W.&X4XqXqXzXMXmXMXrX` ; . . + & w w w w w w w w w # . . = B.bXbXkXqX4X4X4X4X4X}.f.h.k.h.k.D.G.G.G.D.D.h.Z.Z.C.s.y.y.a.i.f.D.D.D.Z.g.J.*X9XqX0XwXkXbXbXz.; @ @ & w e e r l b F H H G v u w w w q # o = < -.gXzXxXzXfXrXrX=XF.M.M.D.D.D.D.D.D.D.D.D.D.D.D.h.f.a.y.y.y.y.y.y.y.y.a.u.3.f I ' Y.n.n.u.1.,.,.,.,.y.a.d.d.a.y.y.y.y.y.y.y.y.y.y.y.y.i.y.y.y.y.y.y.y.y.y.y.t.,.,.>.,.1.u.v.1.,.>.:.>.:.>.>.;.Q C k t e w w w w r t a , o . O N B.zXMXmXMXMXMXmXzX( @ o # w w w j v v v v D ;.>.>.>.>.>.>.>.>.>.>.;.Q C ",
"G.F.G.D.D.D.D.h.h.D.W.*X4XhXMXMXMXMXbX!.L @ O O % 1 w w w w w w % . . @ =.gXbXkXqX4X4X4X4X4X+XM.p.a.f.h.D.G.G.D.D.k.h.f.a.y.y.y.y.y.y.y.a.h.D.D.D.D.D.F.}.=X0X6X7XdXzXzX-.@ o @ y M M p e l n A A z t w w w w % o @ 5 l.zXzXzXxXpXiXtXtX!.L.L.F.G.G.G.D.M.D.D.D.D.D.D.f.i.y.y.y.y.y.y.y.y.y.a.a.u.l.] ' c.).I.n.u.1.1.<.<.,.y.p.a.a.y.y.y.y.y.y.y.y.y.y.y.y.y.y.y.y.y.y.y.y.y.y.y.,.>.>.>.>.<.r.I.I.2.,.>.:.>.,.,.%.E v t w w w w w w t a < @ . @ d l.yXbXmXmXmXMXMXMXMXMX~.: . O & w w r v v v v C o.>.:.>.>.>.>.:.:.;.} D C v ",
"G.D.D.D.D.D.D.D.D.D.h.D.}.*XhXmXMXMXMXMXfX-.5 . O # & w w w w & O . . ( gXbXkX6X4X4X4X4X=X+XQ.L.f.y.y.f.D.G.F.D.Z.f.i.y.y.y.y.y.y.y.y.y.y.d.h.D.D.D.D.D.h.D.|.;XtX5XaXzXzX_ O @ 6 / [ c w e j k u w w w w w # O @ 7 B.nXzXzXxXuX1X1X,X,XY.P.H.F.G.G.G.G.D.D.D.D.D.k.f.a.y.y.y.y.y.y.y.y.y.a.u.v.n.m.[ c.`._.).m.l.r.2.2.1.1.v.d.a.y.y.y.y.y.y.y.y.y.y.y.y.y.y.y.y.y.y.y.y.y.y.y.,.>.>.>.>.>.1.l.(.(.x.1.,.>.,.6.7. .) x w w w w w w e , ; ; O 5 =.rXMXbXmXmXmXmXmXmXmXmXmXMXT X . # w w w k v v v v D $.:.:.:.:.:.;.O.F v v v v ",
"G.D.Z.D.D.D.D.D.D.D.D.h.D.J.|.4XdXhXkXzXMXnX@XP @ . O # w w & O O O V 8XbXkX6X4X4X3X+XW.J.Q.$X@XD.i.y.a.f.f.f.p.d.y.y.y.y.y.y.y.y.y.y.y.y.y.d.h.D.D.D.D.D.b.M.P.).,X5XaXzXdXT @ = M I a w w w w w w w w & O O @ d !.bXnXzXzXfXiX_._._.).Y.P.H.H.G.G.G.G.G.D.D.D.D.f.y.y.y.y.y.y.y.y.y.y.a.a.s.s.n.m.8.c.`._.).^.m.n.m.x.l.m.v.p.a.y.y.y.y.y.y.y.y.y.y.y.y.y.y.y.y.y.y.y.y.y.y.4.>.>.>.>.>.:.,.1.x.x.1.,.:.@.Q  .3.~ E j w w w w 1 , , ; ; 8 ` 2XbXbXmXMXmXbXhXwXwXzXbXbXbXMX!.- . O 1 w w u v v v v v J $.:.:.;.o.D C v v v v v ",
"D.Z.Z.Z.D.D.D.h.h.h.h.D.G.G.G.J. X4X9XqXdXzXMXzXl.7 . . @ # O . . 7 @XbXhX4X4X3X|.M.a.a.f.Q.~.!.D.d.d.d.d.y.y.y.y.a.s.a.y.y.y.y.y.y.a.y.y.y.y.f.D.D.D.D.D.Z.D.V.(.).5X0XaXbXyXL O = > w w w w w w w w & + O @ N OXnXbXbXzXfXtX,X_._._.(.Y.P.H.H.G.G.G.G.G.G.D.k.f.a.y.y.y.y.y.y.y.y.y.y.y.a.s.C.n.m.c.c./.(.U.I.Y.m.m.T.U.Y.v.y.y.y.y.y.y.y.y.y.y.y.y.y.y.y.y.y.y.y.y.y.y.y.,.>.>.>.>.>.>.>.>.,.1.1.<.#.E A C D n g t e w w w 2 - = = 5 ( OXbXbXmXMXmXmXkXwX6X6X4XhXmXbXbXzXfXY @ . % w w w z v v v v v D @.$.E C v v v v v v v ",
"D.k.Z.Z.D.D.D.k.h.D.G.G.G.G.G.G.G.W.&X4X0XqXkXMXMX2X( @ . . . . ; R.zXdX4X4X*XG.y.y.y.y.i.M.H.M.f.f.g.k.k.a.y.a.f.F.A.C.a.y.y.y.i.f.f.f.i.y.y.y.f.D.D.D.D.D.Z.F.V.V..X9X0XdXmX2Xd . . % w w w w w w & O O @ P 2XMXMXbXbXhXrXtX,X1X_.).^.P.L.H.H.G.G.G.G.G.G.G.k.a.y.y.y.y.y.y.y.y.y.y.y.y.y.a.v.S.U.).U.(.T.T.T.I.^.U.`.).I.l.1.,.y.y.y.y.y.y.y.y.y.y.y.y.y.y.y.y.y.y.t.,.>.:.:.>.>.>.>.>.>.>.>.<.#.R A v v z t r w w w w % # < ; ; Y !.gXMXbXmXMXmXbXkXqX6X6X6X4XqXkXzXbXbXnXR.; o O 1 w w u v v v v v v A A v v v v v v v k r ",
"k.D.Z.Z.D.D.D.D.D.D.G.G.G.G.G.G.G.G.H..X4XqXqXjXMXMXzXl.; . O @ -.wX4X4X4X=XH.y.y.y.y.y.y.i.d.f.D.D.D.k.k.i.y.i.L.OX].C.a.y.i.f.f.f.f.f.f.a.y.y.a.f.D.D.D.D.Z.Z.M.M.M.|.9XqXlXmXOX7 . @ % w w w w % @ $ ; T 8XbXbXMXbXhX7XrXtXtXiX).^.Y.P.H.H.H.G.G.G.G.G.G.G.f.a.y.y.i.i.i.d.d.i.a.y.y.y.y.a.s.A.T.(.T.T.T.S.Y.V.U.).).(.c.x.1.<.,.y.y.y.y.y.y.y.y.y.y.y.y.y.y.y.t.>.>.>.>.>.>.>.>.>.:.>.>.;.+.E A v v v k r w w w w & + ; ; 5 L B.fXzXkXkXbXmXMXMXkXwX6X6X6X6X6X6XrXzXzXzXxXgXP . . % w w w z v v v v v v v v v v v v z t w w ",
"D.D.Z.D.D.D.D.D.D.D.D.G.G.G.G.G.G.G.G.G.W.4X0XqXzXMXMXzXT O O 8 +X4X4X4X4X}.y.y.y.y.y.y.y.a.f.g.g.D.g.f.f.d.y.a.H.oXP.p.a.i.f.f.f.f.f.f.f.i.y.y.y.i.h.k.D.D.D.Z.D.D.D.D.+X0XqXzXMXR.: . O # 1 1 % O @ # ` fXbXbXbXbXdXwX7XrX7XrX;XP.P.Y.P.H.H.G.G.G.G.G.G.G.G.f.d.d.f.f.f.f.f.f.f.d.a.y.y.y.a.s.C.n.9.[.T.S.S.{.Y.U.).).U.U.l.1.<.>.4.y.y.y.y.y.y.y.y.y.y.y.y.y.,.>.>.>.>.>.>.>.>.>.>.:.>.&.W A v v v v u w q w q & + O . O B z.yXMXhXqXqXwXdXkXbXkXdXwXqX6X5X5X6X5XtXtXxXxXxXMXV.o o @ 1 w w t v v v v v v v v v v v u w w w w ",
"D.D.D.D.D.D.Z.D.D.D.D.D.G.G.G.G.G.G.G.G.G.|.4X9XhXMXMXMXw.O O d *X4X4X4X+Xi.y.y.y.y.y.y.y.d.D.D.D.g.f.f.f.d.y.y.f.M.f.i.f.f.f.f.f.f.f.f.f.a.y.y.y.y.d.h.D.D.D.D.D.D.D.Z.G.3X9XhXmXzXz.; . . O O . @ 8 =.fXbXbXbXkXwXqXqXwXwXwX5XQ.L.L.P.P.H.H.G.H.G.G.G.G.G.D.f.f.f.f.f.f.f.f.f.f.f.f.y.y.y.a.s.b.6.7.9.9.9.m.:XY.Y.U.U.Y.x.x.2.,.>.>.,.t.y.y.t.t.4.,.,.,.,.,.>.>.>.>.>.>.>.>.>.:.:.:.;.+.D v v v v k r w w w 1 # O . O 5 =.8XbXzXdX6X6XqXwXwXwXwXwXqX4X|.J.W.:XtXtX,X,XiXpXxXzXyXL o @ % w w w j v v v v v v v v k r w w w w w ",
"k.D.D.D.D.D.h.h.D.D.D.D.G.G.G.G.G.G.G.G.G.G.&XqXwXmXMXMXz.O o d *X4X4X-Xf.y.y.y.y.y.y.y.k.k.D.k.f.f.f.f.f.f.a.y.y.a.i.f.f.f.f.f.f.f.f.f.f.y.y.y.y.y.y.f.D.D.D.D.D.D.D.D.k..X9XwXzXmXzX( X . . . . - r.bXbXbXMXkX4X4X4XqXqXqX4X.XF.H.J.P.P.H.H.G.G.G.H.G.G.D.f.f.f.f.f.f.f.f.f.f.f.f.f.a.y.a.a.s.Z.1.3.9.8.m.^.$X:X^.I.m.n.u.e.r.,.>.>.>.>.>.>.>.>.:.:.:.>.:.:.>.>.,.>.>.:.>.>.>.:.>.:.} A v v v k t w w w 1 % @ .   ; ) #XMXbXkXwX6X6XqXqXqXqXwXwX6X+XJ.b.b.M.V.^.,X_._._.,XxXzXzXB.= @ @ 1 w w w j v v v v v z t w w w w w w w ",
"k.h.D.D.D.k.D.D.D.G.G.G.G.G.G.G.G.G.G.G.G.G.W.4XqXzXMXMXz.O o d *X4X&Xk.y.y.y.y.y.y.a.f.h.g.f.f.f.f.f.f.f.f.f.i.i.f.f.f.f.f.f.f.f.f.f.f.d.y.y.y.y.y.y.a.h.D.D.D.D.D.D.D.k.D.=XqXkXmXMX~.$ . . o ; z.zXbXbXMXkX6X4X4X4X4X4X-XJ.M.D.D.F.'.'.P.K.G.G.G.G.J.G.f.f.f.f.f.f.f.f.f.f.f.f.f.f.i.y.a.s.p.Z.1.6.n.m.^.iXuX,XY.N.n.u.e.1.,.<.,.>.>.>.:.:.:.>.>.>.>.>.>.,.,.,.,.,.>.:.>.>.>.:.;.} E D v u r w w w w % O . . = T ~.zXbXbXkXwX6XqXqXqXqXwXwXwX4X|.H.F.Z.D.F.N.V.)._._._.1XuXzXzXrXN . o % w w w w t j k k t e w w w w w w 1 # ",
"k.D.G.G.G.G.G.G.G.G.G.G.G.G.G.G.G.G.G.G.G.G.H.&X0XkXmXMXz.O o d -X|.d.y.y.y.y.y.y.y.f.f.a.a.d.f.f.f.f.f.f.f.f.f.f.f.f.f.f.f.f.f.f.f.f.f.f.i.a.y.y.y.y.y.i.k.D.D.h.h.D.h.k.g.|.9XdXmXmXfXN . . . ` bXbXMXMXbXwX4X4X4X4X4X-XG.f.b.Z.Z.Z.A.S.K.H.G.H.J.J.G.f.f.d.d.f.f.f.f.f.f.f.f.f.f.f.d.y.y.a.a.f.;.3.2.n.^.uXuXiX!.B.N.v.u.e.,.,.>.>.>.>.>.>.>.>.>.>.>.>.>.,.,.,.,.,.:.>.:.:.:.@.! X.3.R t w w w q % + . . @ L R.bXMXbXbXhXqXqXqXqXqXqXqXwXwXqX|.G.K.K.A.D.F.N.V.U._._._._.iXxXzXnXl.. O @ 1 w w w w q w w w w w w w w w & O . ",
"D.D.D.D.D.D.D.G.G.G.G.G.G.G.G.J.J.H.G.G.G.G.G.}.4XhXMXMXz.O o 8 f.a.y.y.y.y.y.y.y.y.y.y.y.a.f.f.i.i.f.f.f.f.f.f.f.f.f.f.f.f.f.f.f.f.f.k.f.f.a.a.y.y.y.y.y.f.D.Z.Z.Z.D.Z.Z.f.H.4XqXzXmXbX( . . 7 8XbXmXMXmXkX4X4X4X4X4X*XH.M.M.M.h.f.f.D.D.D.M.M.D.D.f.d.i.y.y.y.a.d.f.f.f.b.f.f.f.f.f.d.y.y.y.a.d.*.} @.-.x.^.,X!.r.*.*.y.e.1.,.,.,.>.>.>.>.>.>.>.>.>.>.:.,.,.,.>.>.>.>.>.:.&.Q D J 3.9.U t w w & @ . . O B B.fXbXbXbXhXwX6XqXqXqXqXqXqXqXqXqX+XH.K.K.'.'.A.D.F.V.I.).).).,X,XyXzXbXrXd . O % w w w w w w w w w w w w w % O . = ",
"D.D.k.D.h.g.D.D.G.G.G.G.G.J.J.J.J.J.G.G.G.G.G.G.*XdXmXMXz.. o 5 ,.y.y.y.y.y.y.y.y.y.y.y.y.f.i.y.y.d.f.f.f.f.f.f.f.f.f.f.f.f.f.f.f.f.k.D.D.D.f.i.i.d.f.f.d.d.D.D.D.D.D.D.D.D.k.+XqXkXmXbX` . . ` bXbXMXMXbX6X4X4X4X4X=XJ.b.M.M.f.i.i.d.f.d.d.f.g.k.f.a.a.y.y.y.y.y.y.f.f.V.I.N.f.f.f.f.f.y.y.y.a.a.O.E Q #._ x.l.=.*.Q E ;.,.,.,.,.y.,.>.>.>.>.>.>.>.>.:.>.,.,.,.>.:.;.;.@.Q D C z l U R m r 1 + O . . 7 w.yXnXbXzXhXwX6X6X4X9X9X9X9X9XqXqXqX+XH.F.F.K.S.S.A.D.F.N.Y.^.U.Y.$X,XtXxXbXbXl.@ . # 1 w w w w w w w w w w 1 # O . 5 z.",
"D.D.D.D.k.D.G.G.G.G.G.G.J.J.J.J.H.G.G.G.G.G.G.G.|.wXmXMXz.. o 6 4.y.y.y.y.y.y.y.y.y.y.y.y.y.y.y.d.f.f.f.d.i.f.f.f.f.f.f.f.f.f.f.f.f.k.D.f.f.f.f.f.f.f.f.f.f.f.F.D.D.D.D.D.D.f.}.4XdXmXbX_ . @ R.mXmXMXMXlX4X4X4X4X4X}.M.D.D.f.a.y.d.f.f.f.f.f.f.f.a.a.y.y.y.y.y.y.y.y.p.I.U.N.f.f.f.f.f.a.y.y.y.y.Q F E Q L _ T L U E F +.,.,.,.y.p.y.,.,.>.>.>.>.>.:.>.4.>.:.+.} W H D A v v k r r t p y , @ . . 5 -.8XbXmXzXhXqXqX6X6XqXqXqXqXqXqXwXqX4X|.H.F.F.J.K.F.Z.Z.D.D.F.Y.P.V.V.V.oX5XrXzXmX8X7 . . % w w w w w w w w w 1 + . . d ~.nX",
"D.k.k.D.D.D.f.d.g.G.G.D.D.D.M.g.f.f.i.i.D.G.G.G.J.4XzXMXz.. @ 6 4.y.4.,.4.y.y.y.y.y.y.y.y.y.y.i.f.f.f.i.y.i.f.d.f.g.d.d.f.f.f.f.f.k.D.k.f.f.f.f.f.f.f.f.f.f.d.D.H.G.D.G.D.D.D.J.4XwXmXkXP . 5 2XmXmXmXmXwX4X4X4X4X+XD.D.D.f.a.y.i.f.f.f.f.d.d.i.i.a.y.y.y.y.y.y.y.y.y.a.v.V.b.f.f.f.f.f.i.y.y.y.y.K S F F f P d s c F A ! ,.,.y.M.L.M.y.,.>.>.>.>.:.;.$.o.K A C v v v v v v k e w w w & @ @ O : ( $XbXmXbXkXwX6XqXqXqX4X&X.X}.}.}.}.}.}.J.H.G.G.G.G.G.D.D.D.D.D.V.V.H.F.F.N.H.*X6XwXzXmX-.. . # w w w w w w w w & O O @ P 8XMXMX",
"D.k.f.d.a.y.y.y.d.f.f.f.D.D.g.f.f.f.y.y.i.G.G.G.H.&XhXNXz.. o 5 <.>.:.:.:.,.y.y.y.y.y.y.y.y.d.f.f.i.y.y.a.f.d.a.a.b.i.d.f.f.f.f.g.k.k.k.f.f.f.f.f.f.f.f.f.g.f.b.W.H.H.H.F.D.D.G.=XqXzX8X6 . N gXmXMXmXkX4X4X4X4X=XH.g.k.D.d.y.y.a.f.f.i.a.i.d.i.y.y.y.y.y.y.y.y.y.y.y.y.y.a.f.f.f.f.f.f.i.y.y.y.,.F A S A a B 5 5 p A A E ,.y.b.Q.$XQ.b.y.,.1.1.;.Q K A F A C C C v C C v g w w q % @ @ . @ T ~.zXMXmXmXhXqXqXqX6XqX-XJ.k.f.h.h.Z.Z.f.D.G.G.G.G.G.G.G.h.h.b.D.F.H.F.F.D.D.D.b.W.4X4XaXmX8X8 . O & w w w w w w % O . = ` yXMXMXmX",
"h.f.a.y.y.y.y.y.d.f.f.D.g.D.f.f.f.f.a.y.y.f.G.G.G.|.qXmXz.. . < ;.,.,.,.:.>.4.y.y.y.y.y.a.f.f.d.y.y.y.y.a.u.a.u.u.n.p.g.f.f.f.g.k.k.f.f.f.f.f.f.f.f.f.f.f.D.M.M.Q.Q.Q.W.J.H.F.F.-XqXkXQ.O . _ bXmXMXmXdX4X4X4X4X|.M.k.k.h.a.y.y.y.y.y.y.a.a.d.i.y.y.y.y.y.y.y.y.y.y.y.y.y.y.i.f.f.f.f.f.f.y.y.4.&.S A A z y 7 ; - e z A K ,.y.f.Q.OXP.p.e.e.2.8.! F D D D A v v l k k g r w w % # @ . = L R.gXnXbXbXkXeXqX9XqXqX4X XD.g.h.h.D.D.D.D.D.G.G.G.G.G.G.G.D.D.D.D.G.D.G.D.D.D.Z.b.p.f.&X4X4XdXmX=.. . # w w w w w % O . 5 z.zXnXMXzXaX",
"a.y.y.y.y.y.y.y.y.f.D.D.f.f.f.f.f.f.d.y.y.y.D.K.K.W.4XhXz.O . - E ;.6.6.>.>.>.y.y.y.y.y.f.f.i.y.y.y.y.y.a.u.u.v.n.m.v.D.M.f.f.k.k.D.f.i.f.f.f.f.f.f.f.f.Z.D.D.H.!.#X#X@XoX|.W.H. X9XkX-.X @ B.MXmXmXbX4X4X4X4X*XD.D.k.k.f.y.y.y.y.y.y.i.i.i.i.i.y.y.y.y.y.y.y.y.y.y.y.y.y.y.i.f.f.f.f.f.f.i.4.>.@.A C C k e 6 @ @ w j C S &.,.y.f.F.p.e.;.Q -.8.~ S F A A v j r w w w w w & # O . . d z.fXMXbXzXlXwXqXqXqXqXqX4X|.D.D.D.D.h.D.D.D.D.D.G.G.G.G.G.G.G.D.k.G.G.G.D.k.h.b.f.d.a.y.y.}.4X4X4XlX2X5 . O % w w & # O . B ~.nXnXMXkXwX9X",
"y.y.y.y.y.y.y.y.a.g.k.D.f.f.f.f.f.f.f.i.y.y.i.G.K.J.=XwXr.O o - v F %.,.>.>.>.t.y.y.a.f.f.i.y.y.y.y.y.a.u.u.n.m.m.I.V.N.D.D.D.D.g.g.y.y.f.f.f.f.f.f.f.h.D.D.H.Q.$XuXBXxXuX#XJ.D.}.9XwXP X < 2XMXmXMXhX4X4X4X4X|.D.k.k.k.f.y.y.y.y.a.a.a.d.a.a.y.y.y.y.y.y.y.y.y.y.y.y.y.y.y.a.f.f.f.f.f.f.a.>.>.@.A v v j e 2 @ @ & r v C Q :.,.,.e.@.! D S ~ #.E D A v z t w w w w w & + @ . @ 7 w.rXbXbXzXdXqXqXqXqXqXqXqX4X.XD.k.D.D.h.Z.Z.D.D.D.D.G.G.G.G.G.G.G.D.G.G.D.D.D.D.Z.f.d.y.y.y.y.J.4X4X4X4XlX_ O . . @ @ O . @ P 2XMXnXmXlXqX9X9X",
"y.y.y.y.y.y.y.y.d.D.D.D.f.f.f.f.f.f.f.f.i.y.y.f.G.K.&XwXw.O o - z v D &.:.>.:.,.y.y.f.f.i.y.y.y.y.y.y.a.u.v.m.I.(.(.I.V.N.D.D.D.f.a.y.y.i.f.f.f.f.f.Z.Z.Z.D.J.!.tXBXBXBXxX#XW.F.J.4X+X7 . N gXnXmXmXwX4X4X4X*XD.M.D.D.h.d.y.y.y.a.f.d.d.a.y.y.y.y.y.y.y.y.y.y.y.y.y.y.y.y.y.y.f.f.f.f.f.a.t.,.>.+.C v v j e 1 O . # w j v C E Q W E A C A J F F D A v k r w w w w 1 # O . . 5 ` 8XMXbXbXkXqX6XqXqXqXqXqXqX4X.Xk.D.D.D.Z.Z.Z.D.D.D.k.G.G.G.G.G.G.G.G.D.G.G.D.k.D.D.D.f.y.y.y.y.t.D.4X4X4X4XqX@X5 O . O . O = ` gXMXMXmXdXqX0X0X=X",
"y.y.y.y.y.a.y.i.d.D.f.f.f.f.f.f.f.f.f.d.d.a.y.t.d.G.|.wXw.. @ - z v v +.>.:.>.>.,.y.i.a.y.y.y.y.y.a.u.p.n.m.I.(._._.(.Y.V.F.D.f.y.y.y.y.a.i.a.a.a.f.Z.A.A.F.P.@XtXuXBXBXyXOXJ.F.G.4XN.- . _ MXbXmXkX4X4X4X4X|.b.M.D.D.h.a.y.a.d.p.d.a.a.y.y.y.y.y.y.y.y.y.y.y.y.y.y.y.y.y.y.y.i.f.f.f.i.t.t.4.,.+.C v v j w 1 O . + w r v v v v C A A v v D D A v k t w w w w & % O . . ; ) @XzXnXbXbXhX6X6XqXqXqXqX6X6X4X XD.D.h.h.h.h.D.Z.D.D.D.D.G.G.G.G.G.G.G.D.g.D.D.D.D.D.D.h.a.y.y.y.y.y.f.*X4X4X4X4XwXT   O O @ 7 B.zXMXMXbXdX0X0X0X9X|.",
"y.y.y.y.y.d.d.d.f.f.f.f.f.f.f.f.f.f.a.a.d.d.y.t.4.a.J.9Xr.O @ - v v v Q >.:.>.>.>.,.t.y.y.y.y.y.y.y.a.u.n.m.U.)._._.).U.I.V.b.p.y.y.y.y.y.a.a.s.s.C.S.'.A.P.W.oX@X#XiXtXoXJ.D.d.d.-X=.O @ B.MXbXmXhX4X4X4X=XG.D.D.D.D.f.a.y.y.i.d.d.y.y.y.y.y.y.y.y.y.y.y.y.y.y.y.y.y.y.y.y.y.y.f.f.i.t.t.t.t.4.+.C v v j w w O . O 1 w j C v v k j u t t t j r e w q w w w % @ . o ; P ~.bXbXbXMXzXdX7X6X4XqXqX6XqX6X6X$XN.b.f.a.y.a.f.h.D.D.D.D.D.G.G.G.G.G.G.G.D.k.D.Z.D.D.D.D.f.y.y.y.y.y.y.y.+X4X4X4X4X9Xw.. @ = B ~.MXMXMXcXaX6XqXqXqX&XH.",
"y.y.y.i.i.d.i.i.i.f.f.f.f.d.f.f.f.i.y.y.a.f.y.y.4.4.i.=Xr.O O - z v v E >.:.>.>.>.>.>.,.,.4.y.y.y.y.y.y.u.n.m.U.).).U.I.N.v.f.a.y.y.y.y.y.y.y.s.C.S.[.[.'.K.F.H.W.!.oXOXP.D.f.d.y.|.Y . ; @XbXbXmXwX4X4X4X XD.D.D.D.D.f.y.y.y.y.a.a.y.y.y.y.y.y.y.y.y.y.y.y.y.y.y.y.y.y.y.y.y.y.f.f.t.4.4.t.t.t.$.A C v k w w # . . % w e j j r w w w w w w w w w w w q % + O o @ L R.gXbXbXmXbXlXwX7XfXwXqXqXqXqX6X6X-XY.N.f.y.y.y.y.y.f.h.D.D.D.D.G.G.G.G.G.G.G.D.D.D.h.D.D.D.D.f.y.y.y.y.y.y.y.E.3X4X3X3X4XB.= ; 5 !.MXMXMXbXwX4XqXqXqX4XJ.G.",
"y.y.y.y.i.i.a.y.i.f.f.f.d.a.f.f.f.f.i.a.y.y.y.y.t.4.4. Xr.O . = v v v H :.>.>.>.>.>.>.>.>.>.>.t.y.y.y.a.u.v.m.m.U.U.V.N.b.f.a.y.y.y.y.y.y.y.y.a.s.S.[.[.'.A.F.G.H.J.J.Q.W.D.Z.f.a.H.7 . d yXbXmXzX4X4X4X=XJ.g.D.D.D.D.a.y.y.y.y.y.y.y.y.y.y.y.y.y.y.y.y.y.a.y.y.y.y.y.y.y.y.a.y.i.y.y.4.4.t.t.t.&.H D A k w w % . . % w w w w w w w w w w w w w w w & # O O @ B z.fXnXbXzXkXhXwXqXqXqXaXwXqXqXqXqX4X+XD.M.b.a.y.y.y.y.y.y.d.h.k.D.G.G.G.G.G.G.G.G.D.D.D.Z.D.Z.h.D.d.y.y.y.y.y.y.y.g.*X*X&X+X&XN.< ; B yXnXMXbXdX4X4X4XqX4XW.G.G.",
"y.y.y.y.y.i.y.y.d.f.f.f.i.y.f.f.f.f.f.f.i.y.y.y.y.t.4.K.r.- @ = v v v D ;.>.>.>.>.>.>.>.>.>.:.>.t.y.y.y.a.u.v.n.m.m.N.b.b.p.y.y.y.y.y.y.y.y.y.a.s.C.'.'.S.A.A.D.D.D.J.H.J.Z.S.A.Z.1.- . T zXmXmXlX4X4X4X+Xf.k.k.D.D.f.a.y.y.y.y.y.y.y.y.y.y.y.y.y.y.a.d.f.i.y.y.y.y.y.y.y.a.i.i.t.,.4.4.4.t.t.t.&.H H J v t t 2 O . # w w w w w w w w w w w w w & # O o X 8 r.rXnXnXzXdXwX6X6X6XqX3X+X+X-X*X=X=X-X}.D.b.b.d.y.y.y.y.y.y.y.y.d.f.D.G.G.G.G.G.G.G.D.h.D.D.D.D.k.h.f.a.y.y.y.y.y.y.y.t.E.XX X XXXp.< ; P gXMXnXhX6X6XqX4X-XJ.D.F.G.",
"y.y.y.y.y.y.y.a.f.f.f.d.y.y.y.a.d.f.f.f.f.y.y.y.y.y.y.f.=.= = - v v v A &.>.>.>.>.>.>.>.>.>.>.:.,.y.y.y.y.a.u.u.m.n.b.b.p.a.y.y.y.y.y.y.y.y.y.a.s.C.C.C.Z.Z.Z.D.D.D.D.D.F.A.'.'.A.~ . @ r.MXmXmXdX4X4X3XJ.f.D.D.D.h.d.y.y.y.y.y.y.y.y.y.y.y.y.y.y.i.f.f.f.f.y.y.y.y.y.y.y.i.i.,.,.>.,.4.4.t.t.t.$.H H H A j j j # . O & w w w w w w w w w w 1 # O . . 5 ` 2XbXbXzXhXyXwXqX6X6X4X XG.D.D.F.G.D.D.D.D.D.D.f.y.y.y.y.y.y.y.y.y.y.d.D.G.G.G.G.G.G.G.D.h.D.D.D.D.h.f.a.y.y.y.y.y.y.y.t.,.t.}. X X&Xr.; ; _ zXmXhXqXqX4X&XW.M.M.G.H.G.",
"y.y.y.y.y.y.y.f.f.h.Z.f.y.y.y.y.y.f.f.f.a.t.t.y.y.y.i.d.) ; = = v v v A $.>.>.>.>.>.>.>.>.>.>.:.>.y.y.y.y.a.a.u.n.p.f.f.i.y.y.y.y.y.y.y.y.y.y.y.a.s.s.s.f.p.f.f.f.d.i.d.f.D.A.A.Z.V . ; OXMXMXmXqX4X4X+XD.D.D.D.D.f.a.y.y.y.y.y.y.y.y.y.y.y.y.y.y.f.f.f.f.f.d.y.y.y.y.y.a.i.t.,.>.>.>.>.,.t.t.t.@.H H H A j j j , . O & w w w w w w w w 1 # O . X - ( @XbXbXbXkXrXrXfXaX7XqX4X}.g.D.G.G.F.D.D.D.D.D.D.Z.i.y.y.y.y.y.y.y.y.y.a.f.f.f.D.D.G.K.K.K.D.D.D.D.h.f.d.a.y.y.y.y.y.y.y.t.>.:.>.i. XXX-X=.= @ w.bXhXqXqX-XW.G.M.g.G.G.G.G.",
"y.y.y.y.y.y.a.f.f.C.A.h.i.y.y.y.y.y.y.t.4.,.,.t.y.a.d.d.~ @ . # z v v n +.>.>.>.>.>.>.>.>.>.>.:.>.y.y.y.y.y.a.a.p.d.f.d.a.y.y.y.a.y.y.y.y.y.y.y.y.s.a.a.u.n.b.b.f.d.y.y.d.f.h.h.y.6 . d fXMXmXzX4X4X3XW.g.D.D.D.D.d.y.y.y.y.y.y.y.y.y.y.y.y.y.y.i.f.f.f.f.f.f.f.i.y.y.a.i.y.,.>.>.>.>.>.>.,.4.t.+.H H H A j j j y . . % w w w w w w & % @ O . ; P !.zXbXbXkXdXaXfXiXuXfXrX*XW.D.G.G.G.D.Z.Z.D.D.D.D.D.f.y.y.y.y.y.y.y.y.y.y.f.f.f.f.f.f.f.f.h.D.f.d.i.a.a.y.y.y.y.y.y.y.y.y.t.>.>.>.>.,.d. X-X( @ = B.dXqX4X+XJ.G.G.D.D.G.G.G.D.",
"y.y.i.i.a.i.f.f.f.Z.Z.f.f.f.i.y.,.>.>.,.4.t.,.>.,.y.a.i.! . . @ t v v v } :.>.>.>.>.>.>.>.>.>.>.>.t.y.y.y.y.y.a.u.d.f.i.a.y.y.y.y.y.y.y.y.y.y.y.y.y.y.a.u.V.Y.Q.b.a.y.y.y.d.f.f.;.= X ( NXbXmXkX4X4X-XD.M.D.D.D.f.a.y.y.y.y.y.y.y.y.y.y.y.y.y.y.i.f.f.f.f.f.f.f.f.f.f.f.y.>.>.:.:.>.>.>.:.:.>.,.o.H H J A j j j t O . @ 1 w w w e > @ o . @ N B.zXMXzXkXdXwXwXrXrXuX,XtX@XW.H.H.G.G.D.D.D.D.D.D.D.D.h.d.y.y.y.y.y.y.y.y.y.i.f.f.f.f.f.f.f.f.f.f.f.a.y.y.y.y.y.y.y.y.y.y.y.t.>.:.>.:.:.,.,.a.}.V @ ; W.qXqX+XH.G.G.G.G.G.G.G.G.f.",
"y.y.a.f.f.f.f.f.f.f.f.f.d.a.t.t.,.>.:.>.,.,.,.>.,.,.,.,.U . . @ w j v v H ;.>.>.>.>.>.>.>.>.>.>.:.4.y.y.y.y.y.a.a.i.d.a.a.y.,.e.,.,.y.y.y.y.y.y.y.y.y.a.v.U.).m.u.a.y.y.y.y.i.f.Y O . l.NXbXmXdX4X4X}.f.D.D.D.k.d.y.y.y.y.y.a.i.y.y.y.y.y.y.y.a.f.f.f.f.f.f.f.f.f.f.g.f.y.,.,.,.>.>.>.>.:.>.:.;.K D J H v j j j p # . . % & & % , = @ @ d z.yXbXzXlXwX6X4XqX*XW.oX#XtX!.P.F.F.G.G.D.G.D.Z.Z.Z.D.D.D.f.y.y.y.y.y.y.y.y.y.a.f.f.f.f.f.f.f.f.f.f.f.f.f.i.y.y.y.y.y.y.y.y.y.t.>.>.>.>.,.>.,.,.4.,.5 . 5 +XwX=XJ.G.G.G.G.G.G.G.G.g.f.",
"y.y.y.i.f.f.f.f.f.a.y.y.t.,.,.,.,.,.>.>.:.:.>.,.4.>.>.O.j @ o @ w w k v A +.>.:.>.>.>.>.>.>.>.>.>.,.y.y.y.y.a.a.a.a.i.a.t.,.e.y.,.,.y.y.y.y.y.y.y.y.y.a.N.P.I.m.u.y.y.y.y.y.y.i.V . - ~.MXbXbXwX4X*XG.h.D.D.D.f.y.y.y.y.y.y.d.f.y.y.y.y.y.y.a.f.d.i.i.f.k.g.f.f.f.k.f.y.a.a.b.f.y.t.,.>.>.>.>.@.A v C A j r r r r # . . . O @ @ ; : 7 w.yXMXbXzXdX4X4X6X6X4XJ.F.J..XOX|.P.H.F.F.D.D.D.D.D.D.D.D.D.D.i.y.y.y.y.y.y.y.y.a.d.f.f.f.f.f.f.f.f.f.f.f.f.f.f.y.y.y.y.y.y.y.y.t.>.:.>.>.>.,.e.,.,.,.#.= . N 4X9X}.H.H.H.H.F.G.D.k.f.f.d.",
",.4.t.y.a.i.i.a.y.,.>.>.,.t.,.>.>.>.>.>.>.>.,.,.,.>.Q A p @ $ @ w w r z v F $.:.>.>.>.>.>.>.>.:.>.,.y.y.y.a.a.i.p.f.u.e.e.e.p.y.,.,.y.a.y.y.y.y.y.y.y.d.f.f.v.v.a.y.y.y.y.y.t.,.5 o d rXbXmXbXqX4X XD.D.D.D.h.a.y.y.y.y.y.y.f.f.y.y.y.y.y.a.d.a.y.y.a.f.H.D.D.f.k.f.y.t.,.u.Q.Q.f.y.4.4.,.>.>.Q v v v v r w w w w @ . . o @ @ @ 7 w.2XbXbXzXzXaX6X9X4X4X4X+XD.D.F.P.P.P..XP.K.G.Z.Z.D.D.F.F.F.D.D.f.y.y.y.y.y.y.y.a.i.f.f.f.f.f.f.f.f.f.f.f.f.f.f.f.f.i.y.y.y.y.y.y.t.,.>.>.>.,.,.,.,.,.,.>.! O X T wX XH.H.H.F.D.g.f.f.f.f.i.y.",
">.>.>.>.>.>.>.>.>.>.>.>.>.,.>.>.>.>.:.:.>.,.4.,.>.Q C v p @ ; # e e e t v v F @.:.:.:.:.>.:.:.:.>.>.t.y.a.a.d.d.f.p.y.y.y.p.M.e.4.4.6.s.a.a.y.y.y.y.i.i.d.d.p.y.y.t.t.t.y.y.y.@.- @ T zXMXNXbX6X3XJ.k.D.D.D.d.y.y.y.y.y.y.y.i.f.i.y.y.y.i.f.i.y.y.a.f.W.#XQ.D.f.i.t.,.>.,.p.Q.Q.p.,.,.4.t.4.;.F C v v z w w w w 1 @ . . o @ ; ( @XMXnXbXzXzXlX9X4X4X4X4X4XW.D.D.D.F.].'.].].J.D.D.k.D.D.I.U.I.F.b.a.y.y.y.y.y.y.d.f.f.f.f.f.f.f.f.f.f.f.f.f.f.f.f.f.f.i.y.y.y.y.y.t.,.>.>.>.>.>.e.,.,.>.:.&.x . X _ -XH.H.H.G.D.f.f.f.f.f.i.y.y.",
">.>.>.>.>.>.>.>.>.>.>.>.:.:.:.:.>.>.,.>.,.,.>.+.K C C C a @ , 5 p p r r j v v A Q ;.:.:.:.:.,.>.>.>.,.y.i.d.f.f.p.p.p.p.p.F.b.y.y.s.9.C.s.a.y.y.d.d.i.i.y.t.,.,.>.>.>.>.>.4.a.! O @ w.nXNXNXMX4X-XD.h.D.D.f.a.y.y.y.y.y.y.y.i.f.f.y.y.i.f.f.y.y.y.i.M.#XxX#XH.i.,.>.>.>.>.,.p.f.e.>.:.>.,.,.Q F F A C u w w w w % O . @ @ o _ zXMXzXzXzXzXzXaX4X4X4X4X4X4XJ.D.D.Z.A.'.[.{..XJ.F.D.h.D.F.I.).U.N.d.y.y.y.y.y.a.d.f.f.f.f.f.f.f.f.f.f.f.f.f.f.f.f.f.f.f.y.y.y.y.y.y.,.:.>.>.>.>.:.>.,.>.>.:.E 2 . . =.J.F.H.G.D.f.f.f.f.f.h.a.y.y.",
":.:.:.>.>.:.:.:.>.>.>.>.:.;.;.&.&.@.&.@.+.Q F C C v l u > - 5 f h h g t t v v n C D O.:.<.:.,.,.,.,.,.,.a.p.p.p.p.M.N.N.H.Q.b.u.u.C.'.9.4.y.a.a.i.a.y.4.>.>.>.>.>.>.>.>.>.>.4.V . ; !.MXNXNXzX4X|.f.D.D.f.a.y.y.y.y.y.y.y.y.a.f.f.i.i.f.f.i.y.y.y.y.f.|.2XoXM.,.>.>.>.>.>.>.,.,.,.:.>.>.;.W D F H J A t e w w & O . o @ @ = Q.MXMXMXsXjXjXjX5X;X4X4X4X4X*XD.D.D.D.Z.S.[.:XF.F.F.D.Z.D.F.V.I.V.b.a.y.y.y.y.y.i.f.f.f.f.k.g.f.f.f.f.f.f.f.f.f.f.f.f.i.a.y.y.y.y.t.,.:.:.>.:.>.>.>.>.>.:.:.O.v > . @ =.G.G.D.f.f.f.f.f.f.C.A.s.y.a.",
">.>.>.>.>.>.>.>.>.;.$.+.! K F A D F F D D A v z j t w w , : 6 M U m l g p z A A C v A } <.<.:.,.,.,.y.p.y.y.p.b.N.Q.Q.Q.OX!.N.p.u.C.C.s.,.,.,.y.t.,.>.:.:.>.>.>.>.>.>.>.>.>.;.3 . 7 rXMXMXMXdX4XJ.g.D.f.a.y.y.y.y.y.y.y.y.y.y.d.f.f.f.f.f.i.y.y.y.y.i.D.M.d.,.>.:.>.>.>.>.>.>.>.>.>.:.;.W v C A D A j g g g y + O @ @ @ @ = B.NXMXMXsXsXsXsX;X;X;X4X4X4X-XD.Z.Z.D.F.F..XF.Z.Z.Z.b.D.f.D.D.N.b.a.y.y.y.y.y.y.f.f.f.f.f.k.g.f.f.f.f.d.i.i.i.i.a.a.a.a.a.y.y.y.y.,.:.>.>.>.:.:.>.>.>.>.:.&.S l @ . ; ,.f.f.f.f.f.f.f.f.h.S.'.C.i.y.",
"W Q o.+.+.O.} W K D A C v v v v A F D A z j t w w w 1 > - 5 f ^ X. .R m l g n A C v n A #.,.,.,.,.,.,.u.M.F.F.H.Q.OX@X$X2X~.L.M.p.u.y.4.,.,.>.,.,.>.:.>.>.>.>.>.>.>.>.>.>.>.#.-   P bXbXmXkX4X-XG.D.f.a.y.y.y.y.y.y.y.y.y.y.y.d.f.f.f.f.f.a.y.y.y.t.t.,.,.,.>.>.>.>.>.>.>.>.>.>.>.>.&.E C v v v k t t j j j - = O ; 8 : $ ; P fXMXzX<X%XsX;X%X;X;X;X;X;X.XZ.Z.Z.Z.D.F.Z.Z.Z.Z.h.Z.f.a.a.i.a.y.y.y.y.y.y.y.y.f.f.k.D.k.k.k.f.f.d.a.y.y.y.y.y.a.a.p.f.a.y.y.y.,.:.:.:.,.:.>.:.:.>.>.:.:.Q z e O . 8 y.d.f.f.f.f.f.f.f.f.Z.C.a.e.,.",
"v z l z z z l l k j j j i u u u t g j r w & & % % # @ @ $ 5 M X.9.7. .m g r l n n A G G ^ <.<.<.<.,.,.e.y.M.Q.OX$XtXiXuXiX$X!.F.b.u.e.,.,.,.>.>.:.:.>.>.>.>.>.>.>.>.>.:.>.>.Y @ X w.NXbXbXdX4X+XD.M.y.y.y.y.y.y.y.y.y.y.y.y.y.d.f.f.f.f.f.i.y.,.,.>.>.>.>.>.>.>.>.>.>.>.>.>.>.:.>.$.K v v v v g w w r j s < ; @ N Q.8X~.P : 8 w.nXsX%X<XvX{.%X%X%X%X;X=XJ.Z.D.Z.D.D.D.Z.Z.Z.h.Z.h.i.y.y.y.y.y.y.y.y.y.y.y.y.f.f.k.D.f.g.f.f.i.y.y.y.y.y.a.i.f.M.F.D.d.a.y.,.,.,.>.,.,.>.>.:.:.:.>.>.$.A t & O . B d.f.f.f.f.f.f.f.f.f.f.a.,.,.,.",
"r r w w e w w w w w w w w w w w 1 1 > + # O O O @ ; 7 P ( T ^ X.9.3.R l p r r l G F R R ~ *.1.1.1.,.,.e.y.p.N.!.tXuXuXBXuXtXOXL.M.u.e.,.,.,.>.>.:.:.>.>.>.>.>.>.>.>.>.:.&.Q a . @ Q.MXbXkX6X4XW.f.i.y.y.y.y.y.y.y.y.y.y.y.y.i.f.f.f.D.G.g.a.y.,.,.,.>.>.>.>.>.>.>.>.>.>.>.>.>.:.+.D v v v z t w q e y 6 = = $ T 8XnXnXbX8XL 7 L @X<X%X<X%XS.{.%X%X;X-XJ.Z.Z.D.D.D.Z.Z.Z.Z.k.Z.h.f.y.y.y.y.y.y.y.y.y.y.y.y.y.f.g.k.k.k.f.f.f.i.y.y.y.y.y.y.d.N.Q.@XQ.b.a.4.,.,.,.,.6.,.>.>.>.>.:.>.>.Q k w % . . Y f.f.f.f.f.f.f.f.f.f.d.t.,.,.,.",
"w w w w w w w w w w w w w & % # @ .   . @ < B ( w.!.8XzXnXsXoX*.^ ^ c p t r r g c U ^ ~ ' ' 2.2.1.1.,.e.y.p.N.Q.#XuXBXBXuXtXOXL.b.y.e.,.,.,.>.>.>.>.>.>.>.>.>.>.>.:.:.+.D z - . 5 8XbXbXdX4X*Xf.y.y.y.y.i.i.i.i.i.i.i.i.i.d.f.f.f.f.D.J.N.N.M.p.y.,.>.>.>.>.>.>.>.>.>.>.,.,.:.} A v v v l r q w w w 2 = = = ` gXbXbXbXbXbXQ.d N -.%X<X<XS.9.{.%X%X.XG.Z.D.Z.Z.h.h.Z.Z.Z.Z.D.D.f.a.y.y.y.y.y.y.y.y.y.y.y.y.y.f.k.k.k.f.f.f.f.i.y.y.y.y.y.y.d.M.!.$X!.D.y.5.5.5.5.6.6.,.,.,.>.>.:.:.&.S t w % . o ~ d.f.f.f.f.f.f.f.f.f.a.4.,.,.:.",
"w w w w w w w 1 1 % # # @ O . . ; 7 P =.B.OX8XaXhXzXzXzXzXzXkX;X_ M a , 2 y p h x c U / 8.0.8.l.r.1.1.e.y.p.M.Q.OXtXuXuXuXtX$XQ.M.y.y.,.,.,.>.>.>.>.>.>.>.>.>.>.>.;.Q A v l @ . P gXbXkX4X4X&Xa.y.y.i.f.f.f.f.f.i.i.i.i.f.f.f.f.f.f.f.F.:X#XOXL.y.,.>.>.>.>.>.>.>.>.>.,.y.u.#.H A v v l e q w w w , ; ; : r.zXbXbXbXbXbXmXbXw.P l.$XvX{.9.[.{.%XoXA.D.D.Z.Z.D.D.Z.Z.h.Z.D.D.h.d.y.y.y.y.y.y.y.y.y.y.y.y.y.d.D.k.f.f.f.f.f.f.f.a.y.y.y.y.y.a.f.L.Q.H.b.y.4.6.6.6.6.6.,.,.,.>.>.>.:.o.z w w # . @ ) y.y.a.i.f.f.f.d.i.a.,.,.,.:.:.",
"w w w 1 1 % # O .   . @ < N ( r.Q.8XaXaXqX4X4X4X4XqXdXkXzXbXzXzXsX-.a # $ , p h c U ^ [ /./.c.8.l.2.1.1.e.u.p.F.Q.$XiXtX$XOX!.Q.P.M.y.,.,.>.>.>.>.>.>.>.>.>.>.;.;.Q C v v p . o -.bXbXwX4X9X|.a.a.d.f.f.f.f.i.y.y.y.y.y.y.a.i.i.i.d.p.C.{.%X;XH.y.,.>.>.>.>.>.>.>.>.,.,.r.V.8.~ G C z e w w w 2 , ; @ 7 B.bXbXMXmXmXmXMXmXzXtX-._ -.:X{.{.{.%X%X].Z.Z.D.Z.D.D.h.D.D.Z.h.D.k.f.y.y.y.y.y.y.y.y.y.y.y.y.y.a.N.H.F.f.f.f.f.f.f.f.a.t.t.t.y.y.a.d.M.b.s.6.6.6.6.9.A.9.6.y.4.,.>.>.:.;.J j w w @ o - #.,.,.$.O.+.:.t.y.y.y.4.,.,.:.:.",
"% # # O O . . = 7 Y w.R.2X7XwXwXqX4X*X*X*X4XqXqX6X4X4XqXdXkXbXbXzXfXn.5 $ : 7 c ^ 3.[ c.`._./.c.m.l.r.e.e.y.p.b.H.OXOX~.Q.L.N.p.b.M.p.y.,.>.>.>.>.>.>.>.>.>.>.>.+.C v v v y . = R.bXkX4X4X4XW.d.f.D.g.f.f.i.y.y.y.y.y.y.y.y.y.y.y.y.y.9.[.[.A.b.y.,.>.>.>.>.>.>.>.:.#.~ 8.U.x.) G v r w w q & ; ; ; B ~.MXmXMXMXbXbXMXMXzXzXkX!.L L / :X%X{.%X;XP.Z.D.D.D.D.h.Z.h.D.D.D.k.f.y.y.y.y.y.y.y.y.y.y.y.y.y.a.b.I.^.!.M.f.f.f.f.f.i.y.,.>.>.,.4.y.a.a.4.4.6.9.9.A.S.'.9.b.u.,.,.>.>.>.O.v t w 1 O . - A K F A v v S W :.y.y.,.,.,.$.W ",
". o = 5 N _ z.OXyXzXzXhXwX6X9X4X XQ.#X#XW.W. X*X4X9X4X4X9XqXlXzXbXzXzXR.d 5 5 s ^ 8.' 0./.`.c.8.-.1.1.,.,.e.y.p.M.!.L.F.N.M.p.p.y.,.e.y.y.,.,.>.>.>.>.>.>.>.>.;.F v v v v > o 8 2XzXdX4X4X3XH.D.H.H.D.D.f.a.y.y.y.y.y.y.y.y.y.t.,.,.6.6.C.A.9.6.,.>.>.>.>.>.:.:.;.Q S U 8.).c.~ A t w w w 1 ; : ; T 2XbXbXMXmXmXmXmXmXmXcXzXzXjX=.f f 2.%X%X;X.XZ.Z.Z.D.D.h.f.f.k.D.D.D.f.y.y.y.y.y.y.y.y.y.y.y.y.y.a.d.N.I.(.P.b.f.f.f.i.y.y.t.>.>.>.>.:.>.,.,.,.,.6.9.S.'.[.'.].N.6.5.,.>.>.;.H z e w & O . , v v v v v v S F H +.;.;.@.Q S v ",
"T w.!.8XgXmXMXMXkXdX6X6X6XqX&XJ.H.oXiXtXoXH.D.D.J.W.|. X XXX+X3XdXmXbXzX#XP ; = 7 L L / [ 0.[ / ~ <.,.,.,.,.e.y.N.L.p.p.p.p.y.y.,.,.,.,.,.,.,.,.>.>.>.>.>.>.;.} C C v v l @ . P sXfX6X4X4X+XD.Q.Q.W.H.H.M.d.y.y.y.y.y.y.y.y.t.>.>.,.,.5.6.6.6.6.,.>.>.>.>.>.>.;.K C A G / 8.-.^ g w w e > ; ; : _ yXmXmXMXMXbXhXhXmXmXmXmXbXzXzX5XL 6 f N.;X-XF.Z.Z.D.D.d.a.a.a.i.d.f.d.a.y.y.y.y.y.y.y.y.y.y.y.y.f.d.f.D.N.V.N.f.d.f.a.y.y.y.,.>.>.>.>.:.>.>.>.,.,.6.6.A.'.[.{.P.6.6.5.,.,.:.+.A j w w % . . 2 v v v v A D S D D A A S A v v l ",
"6X6XdXlXkXkXkXdXqX6X6X6X4X|.D.D.D.J.@XOXJ.D.D.g.k.M.M.M.g.g.g.D.G.|.7XzXbXtX( = : 4 s c ^ / U ^ U O.<.,.,.,.,.y.N.p.y.y.y.y.y.,.,.,.,.>.>.>.>.>.>.>.>.>.>.:.;.F v v v v j @ . -.sXaX4X4X4X}.J.#X2X@XQ.H.d.y.y.y.y.y.y.y.y.t.>.:.>.>.>.,.,.,.,.,.>.>.:.>.>.>.;.E v v v A U U U l e w w 6 ; ; 5 -.gXbXmXmXmXkXwXqXqXdXlXkXzXzXzXzXzXR.6 5 L oX;XH.D.D.D.a.y.y.y.y.y.y.y.y.y.y.y.y.y.y.y.y.y.y.y.f.d.f.f.g.f.f.f.b.f.f.i.y.y.y.t.>.>.>.>.>.:.>.>.>.,.,.6.6.9.'.{.S.9.9.6.5.,.:.:.E v t w w % . . a v v v v v F S S v v z z k j t w ",
"4X6X4X4X4XqXqXqXqXqX9X*XW.D.M.D.D.G.J.H.G.D.D.D.D.D.D.h.D.D.Z.Z.g.D.G.-XkXbXfX` ; : 4 6 c L x A G G #.,.,.,.,.y.p.e.e.e.e.e.,.,.,.,.>.>.>.>.>.>.>.>.>.>.>.>.@.C v C v v 2 ; ; R.MXdX4X4X*XD.Q.tXuX8XQ.M.p.y.y.y.y.y.y.y.4.>.:.>.>.>.>.>.,.,.:.>.>.>.>.>.:.;.W v v v v A A A j w w e - : ; 8 z.zXbXmXmXbXhXqXqXqXqX6X6XqXqXdXzXzXzXkX` , - ) ;X}.D.D.d.y.y.y.y.y.y.y.y.y.y.y.y.y.y.y.y.y.y.y.i.L.W.D.f.f.f.f.f.f.f.f.y.y.y.y.4.>.>.>.>.>.:.>.>.>.,.,.6.6.6.].N.9.9.6.6.6.,.>.@.A z w w w + . . 2 t t r r r t j t r r e w w w w w ",
"+XW.J.J.J.}. X+X&X XW.D.Z.Z.D.D.D.D.G.D.D.D.D.D.k.k.D.h.D.k.h.D.G.G.D.G.|.wXkXkXr.5 $ = 6 c p g n A G +.,.,.,.u.e.,.,.,.,.,.,.,.,.>.>.>.>.:.>.>.>.>.>.>.:.>.} v v v v C < ; 8 8XmXqX4X4XW.D.Q.#XtX#XL.f.i.y.y.y.y.y.y.4.>.>.>.>.>.>.>.>.:.:.:.>.>.>.>.>.:.} C v v v v v v u w q & - < : d Q.bXbXbXmXzXdXqXqXqXqXqXqX4X6X6X4XdXmXzXcX8XV # < B.&XD.f.a.y.y.y.y.y.y.y.y.y.y.y.y.y.y.y.y.y.y.y.i.L.Q.D.f.f.f.f.f.d.i.y.y.y.y.y.,.:.>.>.>.>.:.>.>.>.,.,.,.5.F.F.6.6.6.6.5.,.5.,.Q v j w w w O . O & q q q q q w w w w w w w w w w w ",
"M.f.k.D.k.f.f.f.f.f.f.D.h.h.h.D.D.h.D.D.D.D.D.D.D.k.D.D.D.D.D.D.G.G.D.D.D..X6XhXzXV.7 @ = 5 2 e t z C A } :.,.y.,.,.,.,.,.,.,.,.>.>.>.>.>.>.>.>.>.>.>.>.:.>.! v v v v v 5 ; P gXkX4X4X+XM.D.H.W.Q.Q.M.d.i.y.y.y.y.y.,.>.>.>.>.>.>.>.,.>.:.:.:.:.>.>.>.:.o.A v v v v v z t q q & @ o = N @XbXbXbXbXzXwXqXqXqXqXqX*X X3X9X4X4XqXzXmXzXmXR.; @ B J.b.d.y.y.y.y.y.y.y.y.y.y.y.y.y.y.y.y.y.y.y.y.y.f.f.f.f.f.f.f.i.y.y.y.y.y.y.t.>.:.>.>.>.>.:.>.>.>.4.,.,.y.u.6.6.6.6.,.,.,.>.$.F v r w w w O . O 1 w w w w w w w w w w w w 1 & % + ",
"D.D.D.k.D.D.D.D.D.D.D.D.h.h.D.D.D.D.D.D.D.D.D.D.D.D.D.D.D.D.G.G.G.D.k.D.D.D.|.4XaXzX~.B @ = # 1 w e j z A E ;.,.>.>.>.>.>.>.>.>.>.>.>.>.>.>.>.>.>.>.>.>.>.>.E v v v v j = = ` bXdX4X*XD.f.g.D.D.M.D.f.i.y.y.y.y.y.,.>.>.>.,.>.>.>.>.,.>.>.>.:.:.>.>.;.O.A v v v v v k r w q % @ . @ Y 8XbXbXbXbXzXwXqXqXqXqX4X|.G.D.3XqXqX6X4XdXbXmXbXzX` @ @ Y s.y.y.y.y.y.y.y.y.y.y.y.y.y.y.y.y.y.y.y.y.y.y.y.i.f.f.f.f.f.y.y.y.y.y.y.y.,.:.>.>.>.>.>.:.>.,.,.4.4.,.,.,.,.,.,.,.,.,.>.;.K v l w w w 1 O . . & w w w w w w w 1 & % # + O . . . ",
"D.k.h.D.D.G.J.H.G.G.D.D.D.k.D.D.D.D.D.D.Z.D.D.D.D.D.D.D.D.h.D.D.D.D.D.D.D.D.Z. X4XwXzX8XP @ @ O & w q r j v F } ;.:.>.>.>.>.>.>.>.:.:.>.>.>.>.>.>.>.>.>.>.>.H v v v v y . = R.kX4X*XH.f.f.f.f.i.i.d.f.y.y.y.y.y.,.>.>.>.,.,.>.>.>.>.,.,.>.>.>.>.>.:.o.A v v v v v g w w & # @ O $ _ fXbXbXmXmXkXwXqXqXqX6X4X.Xk.k.J.4XqXqX6X6XqXlXmXmXmXrXB O # V E Q ;.y.y.y.y.y.y.y.y.y.y.y.y.y.y.y.y.y.y.y.y.d.f.f.f.f.f.y.y.y.y.y.y.y.>.>.>.>.>.:.:.>.,.t.,.,.,.,.;.W } @.:.,.,.:.&.E v v r q w w & O . . + & w & & & % # O . . O . .   . = ",
"h.D.G.G.G.G.G.G.G.G.G.D.D.D.D.D.Z.D.D.D.D.D.D.Z.D.D.D.D.D.D.h.D.Z.Z.k.k.D.D.h.D.XX4XwXkXyX` $ O @ > w w w p l S F } ;.>.>.>.>.>.>.:.>.>.>.>.>.>.>.>.>.>.>.;.F v v v v , . 5 #XwX*XJ.f.f.d.y.y.y.a.y.d.a.a.y.y.,.:.:.,.,.,.,.,.>.>.,.,.y.,.,.,.,.:.} A C v v v z t w q & # . . - w.gXmXmXmXmXkXqX6XqXqXqXqX XM.D.k.E.4X6XqXqXqXqXwXhXmXmXMXR.- . - C S J :.y.y.y.y.y.y.y.y.y.y.y.y.y.y.y.y.y.y.i.f.f.f.f.f.d.y.y.y.y.y.y.t.>.>.>.>.:.>.:.>.,.,.,.>.>.;.H C A A H Q } ! D v v t w w w w % . . . . @ # O O O . . . . . O ; d ( l.!.",
"f.G.H.J.G.G.G.G.G.G.G.G.D.D.D.D.Z.D.D.Z.Z.D.D.D.D.D.D.D.D.D.D.Z.D.D.k.k.D.Z.D.D.D.&X9XqXkXzXw.: $ 4 , e t p t l A A D o.;.:.:.:.>.>.>.>.>.>.>.>.>.>.>.>.>.;.D v C v z # . B 4X*XJ.f.d.a.y.y.y.y.y.y.y.a.u.u.,.<.:.,.,.,.,.,.>.>.,.,.e.p.e.e.,.,.Q A A C C v j e w w & # . . 5 B.bXbXmXmXbXhX6XqXqXqXqXqX3XG.g.D.h.G.&X4X4X9XqXqXqXqXhXmXbXzX` O . y D D } y.y.y.y.y.y.y.y.y.y.y.y.y.y.y.y.a.i.f.f.f.f.f.f.d.y.y.y.y.y.y.,.>.>.>.>.$.W o.$.>.,.>.>.;.W C C v C C v v v v k r w w w w & O . . . . o . . . . o ; 7 L ` B.2XfXbXMXmX",
";.4.D.G.G.K.G.G.G.G.G.G.D.D.D.D.k.k.D.k.k.k.D.D.D.k.k.k.D.D.D.D.D.D.k.k.D.D.D.D.D.G.*XqXqXkXzXR.9 9 9 6 p g e t r z v v J +.:.:.:.>.>.>.>.>.>.>.>.>.>.>.>.&.A v C C j O . Y }.D.d.i.a.y.y.y.y.y.y.y.y.u.m.m.r.,.:.,.,.,.,.>.>.,.,.,.y.M.y.e.,.O.F S A A v t w w q & @ . . 7 !.bXbXMXMXbXdXqX6XqXqXqX6X9X|.g.D.D.D.h.D.K.J.}.*XwXqXqXqXkXmXmXrXN . O x D J @.y.y.y.y.y.y.y.y.y.y.y.y.y.i.f.f.f.f.f.f.Z.Z.h.f.y.y.y.y.y.4.>.>.>.>.>.&.S D F D K ! ! H A v v v v v v v k t w w w & % # O . o o o . X . ; B ( z.~.rXzXbXMXMXmXbXmXmX",
"! } O.y.f.D.G.G.G.G.G.G.G.D.D.D.k.k.k.h.k.k.k.k.D.k.h.h.h.D.D.D.D.D.k.k.D.D.h.f.f.f.H.=X9XqXkXzX^.[ ] M 7 p t w w r l v v A Q ;.:.:.>.>.>.>.>.>.>.>.>.>.>.@.A v C v 2 . . ~ y.,.,.,.y.y.y.y.y.y.y.y.y.r.U.U.l.,.,.,.,.,.>.>.>.,.e.y.p.F.N.p.@.E H F S z r w w w % O . @ L #XbXbXmXMXkXwXqXqXqXqXqXqXqX*XG.h.D.D.D.D.D.D.D.D.J.-XqX6XqXwXzXmXMXR.- . - A D D Q ;.y.y.y.y.y.y.y.y.t.y.d.f.d.f.f.f.f.Z.S.S.Z.f.y.y.t.t.t.>.>.>.>.>.:.>.Q D D C v v v v v v v v z k u e w & % # O O O . . . @ ; 7 P =.R.2XfXbXbXbXbXbXbXbXmXMXMXMXMX",
"} ! E @.f.f.h.D.K.K.G.G.G.G.D.h.D.D.h.k.Z.D.D.G.D.D.D.D.D.D.D.k.D.D.D.D.k.f.a.a.y.y.y.G.4X9XwXfXuX_.0.I 7 , 1 w w w e k v v v H $.:.:.>.>.>.>.>.>.>.>.>.>.O.v v v g # . $ #.4.>.:.:.:.,.,.,.,.,.,.,.,.1.l.x.1.,.4.,.,.>.>.>.,.,.y.p.M.Q.Q.r.*.Q E F l t e w w % O . . ( rXMXmXmXmXkXqXqXqXqXqXqXqXqXqX|.f.D.D.D.D.D.h.h.D.D.G.J.4X6X4X6XaXzXbXzX=.. . 2 A D S J } 5.y.y.y.4.,.,.:.,.y.a.f.f.f.f.f.C.'.'.Z.d.y.y.,.:.>.>.>.>.>.>.>.,.@.D D C v v v j g g t t e 1 % # @ o o . . X   ; d ) z.~.rXzXMXMXMXbXbXbXMXMXmXMXMXMXMXMXMXkX",
"W E E | a.f.f.f.f.D.G.G.G.G.G.D.D.D.D.D.G.G.G.G.G.G.G.D.D.D.h.D.D.D.D.h.d.a.y.y.y.y.y.y.}.4X6X5XfXuXiX-.5 @ O % w w w w j v v v F +.:.:.:.>.>.>.>.>.>.>.:.W v v k w O . < ;.>.:.>.:.:.:.:.:.:.:.:.:.:.,.,.<.,.,.e.,.>.>.>.,.,.e.y.b.P.OX$XV.r.#.U c x j p t , @ @ ; ` yXnXmXMXbXhXqXqXqXqXqXqXqXqXqX4XH.g.D.D.D.D.D.D.D.G.G.G.D.+XqX5XtX,XfXbXbXrXN . O y v S D D E ;.y.,.<.<.:.:.,.1.4.y.d.f.f.f.Z.A.A.Z.a.y.y.>.:.>.>.>.>.>.>.,.,.>.E A v v v j w w & % - 4 4 : @ o o = 5 V _ B.#XfXzXbXnXnXbXbXkXkXhXdXhXhXkXzXmXmXMXMXMXbXwX",
"D E E E :.a.y.y.a.f.f.f.f.D.D.D.D.F.F.G.K.K.K.H.G.G.G.G.D.D.D.D.D.D.f.i.y.y.y.y.y.y.d.f.f. X4X4X7XfXnXzXw.; . O % 1 w w w t z v v A } :.:.>.>.>.>.>.>.:.&.D v v r & O . f >.:.>.>.>.:.>.>.>.>.>.>.:.:.:.<.,.,.,.,.,.:.>.>.,.,.e.p.N.Q.2XuX$XV.-.) ^ G x a - . . ; l.bXmXmXmXkXeX6XqXqXqXqXqXqXqX6X6X XM.D.D.D.D.D.D.G.D.G.D.D.k.J.4X5X,X_.iXfXbXMXQ.- . O w j D D D J $.:.,.>.:.:.,.t.y.y.y.d.f.f.f.f.b.f.y.y.y.>.>.>.>.>.>.t.,.,.,.>.O.C v v v t w y 5 : : 0 ] M B P -.R.8XzXMXMXMXmXbXmXmXmXkXwX6XqX9X9X9X9X9XqXwXhXkXmXmXhXqX",
"j F H D +.a.y.y.y.i.f.f.f.f.f.f.Z.A.Z.f.h.D.G.G.G.G.G.G.G.D.D.k.h.f.a.y.y.y.y.y.i.f.f.f.f.D.+XqXqXwXkXmXzXB.5 . O # 1 w w w e j v v A W &.:.:.:.:.>.:.>.o.v v t w % . . Y >.:.>.>.>.>.>.>.>.>.>.>.:.:.:.,.,.,.,.,.,.:.:.>.,.,.e.u.v.R.tXuXiXY.2.~ V h y = @ . 7 R.zXmXmXbXhXqXqXqXqXqXqXqXqXqXqXqX*XG.k.D.D.D.k.G.G.D.D.D.D.D.D.D.-X6XtX,XtX7XkXmXzX=.O . + e k S D A D $.:.,.,.:.,.y.y.y.y.1.y.s.d.f.f.i.a.y.y.>.>.>.>.,.,.e.e.,.>.:.;.H v v v r w s I 4 4 ] /.).iXgXbXnXnXmXmXmXmXmXmXMXmXkXqX6X6XqXqX9X4X4X9X9XqX9XqXwXdXqX6X",
"2 j v S W y.y.y.y.y.i.f.f.f.f.f.C.A.h.f.f.f.f.f.D.D.K.G.G.D.f.f.a.y.y.y.y.y.y.i.f.f.f.f.f.f.D.*XqX6XwXkXcXMX~.d . @ # & w w w w t l n v F O.:.,.,.:.:.@.A v j w w # . @ ) >.>.>.:.:.:.:.>.>.>.>.:.;.,.,.,.,.,.,.<.:.:.,.,.,.1.1.<.2.l.!.tX~.z._ U c a ; @ @ d ~.MXbXmXbXdX6XqXqXqX6X6X6X6X6X6XqX4XJ.h.D.D.D.D.D.G.G.G.D.Z.D.h.D.Z.W.4X6X6X6X6XwXkXmXrXB . . 1 r v S C v W :.<.1.1.1.y.y.u.1.1.1.y.a.u.d.u.a.y.y.,.>.>.>.,.t.t.>.>.:.>.>.o.v v v t w 6 6 4 4 / 1XpXxXzXmXmXMXmXmXmXzXdXdXkXlXqX9X9XqX4X&XW.H.H.}.&X4XqX9X9X4X6X6X",
"@ 1 y A D $.y.y.y.y.y.a.d.f.f.f.f.f.f.f.f.f.f.f.f.f.f.f.f.f.d.y.y.y.y.y.y.y.d.f.f.f.f.f.f.D.D.J.3XqX6XqXlXcXmX2XP @ . @ % w w w w e j v v A ! 3.<.%.} A v k e w 1 O . < @.>.>.>.:.;.;.:.>.>.>.>.>.,.,.,.,.,.>.:.<.<.<.;.@.O.! E U U ) 2.V.V.=.~ G s 5 ; $ P 2XbXbXmXmXhX6X6XqXqXqXqX4X4X6XqXqX*XE.M.D.D.D.h.D.G.G.D.D.D.D.D.h.k.Z.D. X9X9XqXqXqXwXkXmXQ.; O + w t v v v b +.,.<.2.r.u.u.u.2.2.1.1.u.u.v.u.y.y.y.t.>.>.>.>.,.,.>.>.>.>.:.&.D v v j w 1 @ @ ; l.xXxXbXbXmXMXkXbXmXkXqX6X4X9X0X9X9X9X=XW.D.g.k.M.g.D.J.+X4X9XqXqXqX",
"@ # 1 g A E ,.y.y.y.y.y.y.i.i.f.f.f.f.f.d.d.f.f.f.f.f.f.f.f.f.d.a.y.y.y.a.f.f.f.f.f.f.f.f.D.M.M.H.*X0X9XqXkXmXbXyX( @ . @ % w w w p p g z A R X...A v v k r w w & . . s ;.:.;.+.E H H } $.:.:.:.,.y.,.,.,.>.:.$.#.Q F A A A G z h c U ~ =.-.~ U f 5 : : ) yXbXbXmXmXkXqX6X6XqX6X4X&XW.J.}.|.}.D.g.D.D.D.k.h.k.D.D.D.D.Z.D.D.D.k.D.h.D.|.4XqX9XqXqXwXcXmX=.O O % r p v v n H ;.<.1.l.n.n.n.n.l.l.2.v.n.v.a.y.y.y.y.>.:.>.>.>.>.>.>.>.>.:.;.! v v z e w # o = V.nXzXbXmXMXkXwXwXdXqX6X4X4X6X0X0X9X*XH.f.D.D.k.D.D.D.f.D.E.&X4XqXqX",
"@ . % w j S } y.y.y.y.y.y.y.y.y.i.i.i.i.y.y.i.f.f.f.f.f.f.f.f.f.f.f.d.d.f.f.f.f.f.f.f.D.D.D.f.f.p.G.=X0X9X0XkXmXmXgXw.= O . # w y c L h t j A ! R A v g w w w w % . . G ;.o.F C v v v v A Q ;.:.:.,.,.,.:.$.E A A G A A A A h p p x c G U _ V d 6 4 5 w.gXbXbXmXmXbXwXqXqXqXqXqX+XM.f.h.h.f.h.h.D.h.f.d.d.d.f.D.D.D.Z.Z.Z.D.D.D.Z.Z.h.D.W.=XqXqXqXqXdXmXrXV @ = 2 r k n b b ! <.1.l.I.I.T.T.m.x.x.m.n.u.a.a.y.y.y.,.:.>.>.>.:.>.>.>.>.>.:.+.C v v t w % . @ r.bXbXmXMXbXwXqXqXqX6X4X4X4X5X5X5XoXD.M.D.D.k.k.D.D.D.D.D.h.D.J.+X*X",
"- o O & w z D O.t.y.y.y.y.y.y.y.y.y.y.y.y.y.i.f.f.f.f.f.f.f.i.f.f.f.f.f.f.f.f.f.f.f.f.f.Z.f.f.f.f.f.D.&X4X4X9XhXmXbXkXB.8 . O # s / 8.^ s r r g g u r w w w w w # . @ G H C v v v v v v v v F O.;.:.,.>.#.D v n A R F G G h a a p h h x c Y f 6 5 9 V.zXbXbXbXmXmXhXqXqXqXqXqX*XG.k.D.D.D.D.D.D.f.i.y.y.y.y.a.f.D.Z.Z.A.F.D.D.D.D.h.D.D.g.J.*XqXqXqXqXkXmX!.8 ; , y r v A A A Q 1.l.m.(.(.(.U.U.U.x.r.u.u.a.y.y.y.t.>.>.>.>.>.>.>.>.>.>.:.$.A v v j w & O . T zXbXMXMXkXwXqXqX4X=X4X4X5X;X,X!.V.N.M.Z.D.k.h.h.D.D.D.D.D.D.g.M.D.",
"( . . % 1 r A D O.y.y.y.y.y.y.a.y.y.y.y.y.y.a.f.f.f.f.f.f.y.a.f.f.f.f.f.f.f.f.d.i.i.d.f.f.f.f.d.i.a.y.d. X4X4X4XaXzXmXmX!.d . $ 6 ] [ ^ h e e w w w w w w w w 1 O . # z v v v v v v v v v v v C H } +.} S v v A A U ~ U c h s a p p p h s B I 6 L ~.nXbXbXbXbXbXkXqX6XqXqXqX4XE.M.D.D.D.D.H.J.D.a.y.y.y.y.y.a.a.f.Z.A.A.Z.Z.F.D.D.D.Z.D.D.k.H.=X9XqX9XqXcXMX-.= = # w t n A G U  .n.I.(.`.`.`.`.U.x.l.2.u.a.y.y.y.y.,.>.>.>.>.>.>.>.>.>.>.;.D v v l w w @ . 7 rXmXmXMXhXqXqX4X}.D.G.W.W.Y.).(.I.N.D.h.D.D.h.Z.Z.D.D.D.D.D.Z.D.D.",
"@X5 . O & w g D D } ,.y.y.y.i.a.y.y.y.y.y.y.y.f.f.f.f.f.i.y.a.f.f.f.f.f.f.f.i.y.y.y.y.a.a.a.a.a.a.y.y.y.i.}.=X4X4X0XlXzXbX2XP @ $ 6 L c p t r w w w w w w w w % O . - v v v v v z k j k z v v v v v C v v v C A G U / ^ L M c h s s a 6 5 7 I T $XxXxXnXbXbXbXkXqX4X6XqXqXqXXXM.D.D.D.D.F.oXOXD.a.y.y.y.y.y.a.a.s.A.S.'.S.A.Z.Z.F.G.D.D.D.D.f.|.qXqXqX9XdXmXrXV O O & w p c U R ~ 8.I.(._._._.`.U.m.l.1.e.a.a.y.y.y.t.>.>.>.>.>.>.>.>.>.>.;.H v v v e w # . = ~.MXmXmXeXqXqX-XD.f.M.M.N.Y.(.(.V.F.M.D.D.k.k.D.D.D.D.D.D.D.D.D.D.",
"zX` o . # w w k S D W ,.a.a.i.i.i.y.y.y.y.y.y.i.f.f.f.i.y.y.i.f.f.f.f.f.f.a.y.y.y.y.y.y.y.y.y.a.s.y.y.y.y.y.D.&X4X=X=XrXyXaX#XT $ ; 5 2 p e w w w w w w w w % O . . @ j b v l t w w q w w r g l v n n v A n A G U U / [ =./ L M M c 6 4 4 6 ' iXxXxXxXxXzXzXfXqX9X6X6X6XqX*XD.g.D.D.D.D.G.W.Q.b.y.y.y.y.y.y.a.a.s.A.'.[.'.S.A.S.S.K.F.D.D.D.h.J.9XqXqXwXwXkXmX!.< @ @ w e s U ~ *.8.I.(._._._.`.U.x.l.1.1.1.y.y.y.y.y.,.:.>.>.>.>.>.>.>.>.>.! v v v r w % O X r.NXmXdXqX6XqX|.f.f.M.D.F.P.V.Y.N.D.D.G.D.k.D.D.D.D.D.D.D.D.h.D.k.",
"mXrXd . O % w w z A A H :.,.,.,.,.t.y.y.y.y.y.y.d.f.i.y.y.y.i.f.f.f.f.i.y.y.y.y.y.y.y.a.a.a.s.s.s.a.y.y.y.y.y.a.D.}.+X8X8X-X-X+X) < ; ; % w w w w w w w 1 # O . . . O = p t w w w w w w w w w w r j z n S n n n c L ' c./.c.' ^ M 6 4 4 6 ` iXpXxXxXxXxXgXaX5X6X0X6X6X6X4XJ.g.M.D.D.k.f.d.p.p.a.y.y.y.y.y.y.a.s.C.S.[.[.[.'.].{.[.S.F.D.D.D.Z.D.*XqXqXwXqXwXzXbX=.. @ # y a L 3.8.8.U.(.`.`.`.).I.x.r.1.<.<.t.y.y.y.y.4.:.>.>.>.>.>.>.>.>.>.o.v v v g w & O . ( kXdXqX6XqXqXW.f.b.D.D.D.D.F.F.F.D.G.G.D.h.k.D.D.D.D.D.D.D.h.k.D.",
"mXMXz.o . @ 1 w e z n S H &.>.>.:.>.,.y.y.y.y.y.y.y.y.y.y.y.d.f.f.f.i.y.y.y.a.a.y.y.a.a.s.s.j.C.s.a.a.y.y.t.,.:.:.,.M..X+X+XXX X+X-.8 @ o # q w w w w 1 # . . . X X . O . # & w w w w w w w w e e e y p x p p s c ^ [ `._./.8.U 7 4 4 6 l.uXuXpXpXpXuXiXtX5X5X6X6X6X6X4X}.M.D.M.f.f.d.a.y.y.y.y.y.y.y.y.y.a.s.s.C.'.[.[.[.'.S.S.S.A.Z.Z.Z.Z.D.M.}.qXwXwXqX4XwXzXrXN @ $ 6 c U ' c.U.U.(.U.U.U.U.I.l.2.1.<.,.,.t.y.y.y.t.>.>.>.>.>.>.>.>.>.>.@.A v v k w w @ = d *XwXqXqXqX9XJ.f.D.Z.h.Z.D.D.D.D.D.G.G.D.k.k.D.D.D.D.D.h.D.D.D.D.",
"MXmXfXL . . % w w t S F F J @.:.>.>.>.>.4.y.y.y.y.y.y.y.y.y.f.f.f.d.y.y.y.y.p.v.s.s.s.s.C.C.A.A.C.s.a.y.4.>.>.:.>.:.>.,.y.f.G.J.E.H.#.< O . + & w w & O . . @ d _ ` B @ O . @ % q w w w w w e e r p p c x p p s c ^ 0.`.`./.' L 8 4 d V.uXuXpXpX1X1X,X,XtXtXtXtXtX5X4X|.g.f.d.a.a.y.y.y.y.y.y.y.y.y.y.y.y.a.a.s.s.C.'.[.[.'.A.A.F.Z.Z.D.Z.Z.D.Z.D. X4XwXqX6XqXdXzX~.5 $ ; c U ' c.(.I.m.m.m.x.x.x.m.2.<.<.,.:.>.4.y.y.t.>.>.>.>.>.>.>.>.>.:.;.H v v z e w , ; 5 L.qXqXqXqX4XH.h.D.h.D.h.h.Z.Z.D.G.G.G.G.D.k.k.h.D.D.D.D.D.D.D.k.",
"MXMXMXQ.; . O 1 w r n A A v D +.:.:.:.>.>.,.y.y.y.y.y.y.y.y.f.f.f.i.y.y.y.y.v.m.u.a.s.C.A.'.'.S.C.s.4.,.>.>.:.:.>.:.>.:.:.:.,.,.,.:.:.! > . . O # # @ . . @ ) yXNXNXyX-.< . . O # & w w w w e r p x c Y G x h x L / / [ 0.{ I 9 6 L ~.xXxXuXpX_._._._.,X,X,XiXtX5X=X.Xf.a.y.y.y.y.y.y.y.y.y.y.y.y.y.y.y.y.y.y.a.s.s.C.S.'.A.A.Z.D.Z.Z.Z.h.Z.h.D.G.D.J.+X4XqXaXaXaXkX=.@ = 6 U / 8.x.8.*.2.2.2.2.2.v.l.<.,.,.:.:.>.,.4.,.>.>.>.>.>.>.>.>.>.>.:.O.C v v j t 2 = = =.6X6XqXqX4XD.D.k.k.D.D.h.h.Z.G.G.G.G.G.D.g.k.h.D.k.k.D.D.D.D.k.",
"zXmXmXbX( X O % t t j A v v v A +.:.:.:.>.:.,.t.y.y.y.y.y.y.f.f.f.a.y.y.y.y.a.u.a.a.s.s.A.'.[.'.C.6.,.,.>.:.>.>.>.>.>.:.>.,.,.,.,.:.O.S x @ . . . . . . < z.gXnXbXmXMXbX~.V O O . @ % w w e e p x U ) r.) U c c c c M ^ ] ] 0 6 P 2XnXxXuXpX1X_._._._._.,X,X$XOX!.V.v.a.y.y.y.y.y.y.y.y.y.y.y.y.y.y.y.y.y.y.y.a.a.s.s.C.C.C.f.f.h.Z.h.h.h.G.G.G.D.D.D.D.W.*XfXfXwXqX*XV @ : M ^ ^ ^ ~ ~ ^ ^ ~ ~ ~ #.2.2.<.,.>.>.>.>.>.>.>.>.>.>.>.>.>.>.>.>.:.;.H C A l p y - O P 4X6XqXqX*XD.D.k.D.G.D.k.k.D.G.G.G.G.G.D.k.h.k.D.D.D.G.K.D.k.D.",
"dXmXmXMX#X5 . # y y p k v v v v A @.:.:.>.>.:.>.,.y.y.y.y.y.f.f.f.y.y.y.y.y.y.y.y.y.4.6.9.'.'.S.C.6.6.,.>.:.>.>.>.>.>.>.4.y.4.,.;.W A k r # . . . . . d !.bXbXbXmXmXMXmXmXyX=.< . o . % w t p c U =.V.$XB.~ c h s s f 7 6 0 0 _ yXnXMXzXuX,X1X_._._._.).^.Y.V.V.I.m.v.a.y.y.y.y.y.y.y.y.a.y.y.y.y.y.y.y.y.y.y.y.y.a.a.s.s.a.y.y.y.a.f.h.D.D.G.G.D.D.D.D.D.H.#XrXwXqX4XF.5 4 6 c h x m U U U U U R W  .1.1.,.>.>.>.>.:.>.>.>.>.>.>.>.>.>.>.>.>.>.+.D H v r e O . 7 +X4X6XqX+XM.D.D.G.K.D.f.k.G.G.G.G.G.G.G.f.i.f.D.G.K.G.D.D.D.G.",
"6XhXMXbXbXw.; ; , t p r v v v v v F &.>.>.>.>.>.>.>.4.y.y.i.f.f.i.y.y.y.y.y.y.y.4.,.,.6.6.9.9.9.6.6.6.5.,.>.:.:.:.>.t.4.1.n.<.W S z u w 1 O . . . . P 2XMXbXmXmXmXMXMXMXmXmXbX!.N . o o @ 2 p V ~ B.iXuX$X-.U x p a 5 4 4 4 l.uXnXnXnXfXtX,X_._._._._.(.I.V.V.I.(.I.v.a.y.y.y.y.y.y.y.y.f.y.y.y.y.y.y.y.y.y.y.y.y.y.y.y.s.a.y.y.y.y.u.p.G.G.G.D.k.D.D.h.D.D.H.W.&X9X4X4X` = ; , a p p z G U G R ..X.3.*.1.,.>.:.,.l.1.>.>.>.>.>.>.>.>.>.>.>.>.:.;.E D v e w # . = H.qXqX9X}.M.D.D.G.G.D.k.D.G.G.G.G.G.J.G.f.f.f.k.G.D.f.f.f.D.K.",
"4XqXkXMXMXyXL $ - 1 w w j v v v v v W :.>.>.>.>.>.>.>.,.4.i.f.f.y.y.y.y.y.y.y.,.>.>.,.,.6.6.6.6.6.,.,.,.,.>.>.>.>.:.;.+.~ ' U v j e w 1 # . o . - ` fXbXmXmXbXkXkXkXbXmXMXmXmXmXyX` : o @ @ > p G =.^.iXV.=.^ V x 6 : = 5 l.xXzXnXzXyXtXtXtX,X,X_._.).U.Y.V.N.m.I.m.n.a.y.y.y.y.y.y.y.d.f.y.y.y.y.y.y.y.y.y.y.y.y.y.y.y.a.y.y.y.y.y.n.m.b.D.D.D.D.D.D.D.D.D.D.D.D.W.-X4X-XV @ @ , e e r l G R ..3.S.9. .<.,.:.:.,.l.1.>.>.>.>.>.>.>.>.>.>.>.>.:.:.@.A v r w % @ . =.&X+X&XG.D.k.G.G.G.D.D.G.G.G.G.H.J.J.D.f.f.f.f.f.f.f.f.f.f.D.",
"qX6XdXmXMXMXB.= O O 1 w e z v v v v A &.:.:.>.>.>.>.>.:.>.t.y.y.y.y.y.y.y.,.>.:.>.:.,.,.4.4.5.5.,.,.<.:.>.>.:.>.$.W H A A l g e w w 1 # . @ . 5 B.zXbXmXzXdXwXqXqX6XwXhXmXmXmXmXmXbXQ.N   @ $ < x Y -.l.) U c h 5 5 ; 7 R.zXzXzXxXrX5X5X5XrXtX,X,X^.(.I.V.N.v.n.v.u.u.a.y.y.y.y.y.y.a.f.d.y.y.y.y.y.y.y.y.y.y.y.y.y.y.y.y.y.y.y.y.a.v.m.a.d.D.D.D.D.h.h.D.D.D.D.b.M.D.W.-XN.: @ @ 1 w r t l G ! 6.S.7. .+.,.,.:.:.>.>.:.:.>.>.>.>.>.>.>.>.>.>.>.>.;.K v t w & O . P J.b.D.Z.k.D.G.G.G.G.G.G.G.G.J.J.J.G.D.f.f.f.f.f.f.f.d.d.f.f.",
"qXqXwXzXMXMXgXP . O % w w t v v v v C O.:.:.>.>.>.>.>.>.,.,.,.>.>.,.,.,.>.>.>.>.>.:.>.,.5.,.,.,.,.:.:.:.>.:.;.Q A D C k r w w w w % O @ @ @ N ~.bXbXbXhXqXqXqXqX6XqXqX6XwXkXmXMXmXmXmXtX` < @ = < s Y ^ G c f s s s L ~.nXzXzXfX7X6X6X6X5X5XrX8X!.V.U.V.N.p.u.u.a.a.y.y.y.y.y.i.a.y.d.f.d.y.a.y.y.y.y.y.y.y.y.y.y.a.u.u.a.y.y.y.y.y.y.a.y.y.h.D.D.D.Z.h.D.D.D.D.D.D.Z.D.D.H.V O . @ 2 t p g x G  .X. .R J E } $.$.;.;.;.;.:.:.>.>.>.>.>.>.>.>.>.>.:.O.v j w w @ . 5 p.b.Z.D.D.D.D.G.G.G.G.G.G.J.J.J.G.f.d.f.f.f.f.f.f.f.a.y.a.i.",
"6X6XqXhXMXMXMX~.< @ O 1 w w j v v v v K :.:.>.>.>.:.:.>.4.,.>.>.>.>.>.>.>.>.>.:.>.>.>.,.,.>.>.>.:.>.:.:.>.$.K v v j r w w w w w + . . @ o ( rXnXbXkXwXqXqXqXqX5X5XwXwXqX6XqXlXmXMXmXmXbXbXR.B @ = : d f h c M ^ ^ _ 2XzXbXkXaX6X4X6X5X5X6X5X;X.XF.V.V.m.u.u.u.a.y.y.y.y.y.i.d.d.d.d.f.f.f.f.f.i.y.y.y.y.y.y.y.y.a.u.m.m.u.a.y.y.y.y.y.y.y.a.h.D.D.D.D.D.D.D.h.h.D.D.D.D.f.y.G . . @ ; 2 y p t t n W R D A v v A A D F H E } @.:.:.:.>.>.>.>.>.>.>.:.&.D l w w # . @ =.D.D.k.f.f.f.D.K.K.K.K.G.J.H.G.f.y.y.i.f.f.f.d.s.s.a.y.y.y.",
"4XqXqXqXbXMXmXzX) O @ # w w w j v v v A $.:.>.>.>.>.>.,.,.>.:.>.>.>.>.>.>.>.>.:.:.:.:.,.>.:.>.:.:.:.:.:.+.F v k r w w w w w 1 + . . o : w.fXmXbXhXqXqX3X X}.|.OX@X&X+X&X4XqXqXwXkXmXmXmXmXmX8X_ < = 6 : : 7 ^ 9.S.;XkXlXdXqX4X4X4X6XtX8X;X+XP.b.D.b.n.n.u.a.a.y.y.y.y.y.i.d.p.N.N.v.f.f.f.f.f.i.y.y.y.y.y.y.y.y.u.m.(.U.m.u.y.y.y.y.y.y.y.i.k.D.D.D.D.h.h.D.h.h.f.a.,.$.O.} a . . = = ; = # 1 w t g k v n v v v v v v v v v A ! &.:.:.>.>.>.>.>.>.:.:.H v t w % . . T D.f.f.f.f.f.f.D.G.K.K.J.H.G.D.d.y.y.y.d.f.f.f.C.A.C.a.y.y.",
"D.XX4XqXkXMXmXMX2X8 . O 1 w w w k v v v W :.>.:.>.,.,.,.,.,.>.>.>.>.>.>.>.>.>.>.:.:.:.>.;.;.:.:.:.:.&.Q A z t w w w w w w & O . O . 7 R.nXbXzXwX9X9X*XG.f.f.g.D.D.D.M.g.E.4XqX9XqXhXbXmXmXmXbXbXR.d : = ; 6 U S.%X;X0X4X4X4X*X XW.J.J.H.f.p.f.f.p.p.u.n.u.a.y.y.y.y.y.y.i.d.b.Y.I.V.b.f.f.f.f.i.y.y.y.y.y.y.y.y.u.m.U.U.m.u.y.y.y.y.y.y.y.f.D.D.D.D.D.f.a.4.;.@.O.Q W ! | A @ . . < 8 - . . O @ 1 e w r j v v v v v v v v v v v H &.:.:.>.>.>.>.>.:.:.W v j w & . . B D.f.f.f.f.f.f.f.k.G.J.J.D.D.f.a.y.y.y.i.f.f.f.A.'.A.s.y.y.",
"f.f. XqXwXmXMXmXmXr.@ . # 1 w w e z v v A +.:.:.>.,.,.,.,.>.>.>.>.>.>.>.>.>.>.>.>.:.>.>.;.;.:.$.o.E A v j e w w w w w w % O . O @ L #XbXbXkXqX4X0X*XF.f.D.D.D.G.G.D.D.D.k.}.4XqX9XqXwXkXmXmXmXmXbX8XT @ = , U :X;X;X;X4X*XJ.p.y.y.y.y.y.a.f.f.f.f.f.f.b.b.a.y.y.y.y.y.d.f.d.b.m.(.V.f.f.f.f.f.f.y.y.y.y.y.y.y.y.a.u.m.n.u.y.y.y.y.y.y.y.i.h.Z.D.h.f.,.+.} Q ! ! E E E K x @ . - _ !.#XV.Y < O O @ @ # % w r j l v v v v v v v v v H $.:.:.>.>.>.>.:.>.} v v t w O . < e.f.f.f.f.f.f.f.f.k.D.D.g.f.d.y.y.y.y.a.f.f.f.Z.A.C.f.y.y.",
"N.f.G.4XqXkXMXmXmXyXB . O % w w w r v v v D +.&.&.o.! $.>.:.>.>.>.>.>.>.>.>.>.>.>.>.>.>.>.&.Q A v v v t w w w w w w 1 + . . . @ ) yXbXmXlXqX6XqX4XJ.b.D.D.D.G.G.D.D.D.D.D.D.}.=X0XqXqXqXlXmXMXmXmXmXrXP @ ; U ;X4X4X4X|.M.d.d.a.y.y.y.y.d.f.f.f.f.f.f.g.D.s.a.y.y.i.g.g.g.f.f.N.N.N.f.f.f.f.f.f.i.y.y.y.y.y.y.i.d.a.u.a.y.y.y.y.y.y.y.s.Z.Z.Z.D.f.$.! ! ! E D v v v l 2 O . 5 z.bXbXbXmXzX@X=.d = . . O @ % & w e t u g j k l z v v D } $.;.:.>.:.:.:.} n ^ ^ y # . # *.f.f.f.f.f.f.f.f.D.f.D.f.i.a.y.y.y.y.y.f.f.f.f.f.f.f.i.y.",
"V.f.f.&XqXwXbXmXMXmXB.= . O 1 w w w j v v v A H H F A S o.;.>.>.>.>.>.>.>.>.>.>.>.>.>.>.@.F v v C z r w w w w w w 1 + . . . < l.gXnXbXhXqXqX6X4X.Xg.D.D.D.G.D.D.D.k.D.D.D.D.k.J.+X9XqXqXqXhXmXMXMXmXmX#X7 ; 8 |.9X&XJ.f.p.f.f.d.d.a.a.i.f.f.f.f.f.f.f.f.J.A.C.s.d.k.D.g.f.f.f.f.f.f.f.f.f.f.f.f.f.i.y.y.a.i.f.f.f.i.y.y.y.y.y.y.y.y.s.A.A.Z.f.f.$.! ! ! J v z z z j - O . d !.zXbXbXmXbXbXmXzXyXR.T < . . . O # % & w q w w w w r u k v A H Q +.;.:.>.} n ~ / p & . O T f.f.f.f.d.f.k.D.D.D.D.f.f.i.y.y.y.y.y.i.f.f.f.f.f.f.f.f.",
"f.f.f..X9X9XdXbXMXMXzXT . o % w w w r A A A F W E E A C C E $.;.>.:.:.>.>.>.>.>.>.;.;.@.D v v v k e w w w w w 1 > + . . . d Q.bXbXbXhXqXqXqXqX&XM.h.Z.D.G.G.D.D.D.D.k.h.h.h.h.Z.D.J.*X9X0XqXhXmXmXmXmXMX-.. @ ) W.f.d.f.f.f.f.f.f.f.f.f.f.f.f.f.f.f.f.h.A.:XP.b.k.k.k.g.f.f.f.f.f.f.f.f.f.f.f.f.f.f.f.f.f.f.f.f.f.i.y.y.y.y.y.y.y.y.s.S.S.Z.h.:.! ! ! J v v z z p @ . @ P #XzXzXbXbXmXmXmXbXzXzXzXkX#X-.B = . . @ @ % & q w w w w w w t k v v A S W $.O.n G G p & O . f i.f.f.i.i.d.f.f.k.f.f.f.f.i.y.y.y.y.y.y.i.i.i.d.f.f.f.f.",
"f.f.f.G.4X9XqXeXkXmXMXOX< o O 1 w w y G R H O.<.=.E A v v v A } &.>.:.:.:.>.:.:.>.>.+.A v v v k w w w w w w w % O . . X P 2XbXbXmXlXqXqXqXqX4XJ.f.h.D.D.G.G.D.D.D.D.k.D.h.h.D.D.D.h.D.|.9XqXqXkXmXmXmXmX8X7 . ; <.d.f.f.f.M.H.D.D.f.f.f.f.f.f.f.f.f.f.f.Z.A.W.G.D.k.k.g.f.f.f.f.f.i.i.f.f.f.f.f.f.f.f.f.f.f.f.f.f.i.y.y.y.y.y.y.y.y.a.Z.Z.Z.4.} ! ! F v v v z 2 O . - =.rXrXsXzXbXbXmXmXkXkXzXmXbXzXmXmXdXR.( < X . @ O @ % q w w w w w w t k v v v S ! A v n u q @ . ; O.y.f.a.i.f.d.d.d.f.f.f.f.i.y.y.y.y.y.y.y.y.y.y.y.a.a.a.",
"f.f.f.f.XXqXqXqXqXdXkXkX` @ o # w e s / -.~ Q l.B.! A v v v v C D } @.;.;.:.:.;.@.W A v v v k e 1 w w w w 1 # . . . - ` yXbXMXMXkXqXqXqX6X4X}.M.M.D.G.D.G.G.D.D.D.D.D.D.D.D.D.D.D.D.k.D.}.4X9XqXkXmXMXmXbXw.@ . G a.f.f.f.H.OXoXH.f.f.f.f.f.f.f.f.f.f.f.f.D.D.D.k.f.f.f.f.f.f.f.a.y.y.i.f.f.f.f.f.f.f.f.f.f.f.f.f.i.y.y.y.y.y.y.y.y.y.f.h.4.} ! E D v z v k , . . 5 l.fXkXtX<XjXkXkXdXwXqX9XqXeXlXkXzXzXzXmXkX#Xw.N ; O . @ O % & q w w w w w t k v v A n v n g q # . @ A } >.f.i.i.a.y.y.i.f.f.f.f.f.a.y.y.y.y.y.y.y.y.y.y.y.y.",
"d.f.f.f.J.4XqXqXqX6X6XwX@X7 . O & e f / ' U R #.Q E S v v v v v z z A J E Q ! K A v v C v j e w w w w w 1 # . . . 5 z.bXbXbXmXzXqXqXqXqXqX+XM.D.D.G.D.D.D.D.D.D.D.D.D.D.D.D.D.D.D.D.D.h.k. X9X9XqXkXmXmXmXrXd O - Q 4.f.g.H.@XoXD.f.f.f.f.f.f.f.f.f.f.f.f.D.D.D.k.f.f.f.f.f.i.y.y.y.y.y.i.d.d.i.f.f.f.f.f.f.f.f.f.i.y.y.y.y.y.y.y.y.y.y.;.} W J v v v v j - . . d !.bXzXjXzXxXaXdX4X4X4X4X4X4X4X4X4XdXkXmXzXzXmXMXfXQ.( 5 .   @ @ # % & w w w w w r j v v v n g w % . . x W W $.a.y.y.y.y.y.i.f.f.f.f.f.y.y.y.y.y.y.y.y.y.y.y.y.",
"y.i.i.f.f.+X6XqXqXqXqX6X6X-.O O # y p c c j p p t t j z k j t e e e t l v v v v v z l j r w w w w w 1 > @ o o @ N ~.zXzXjXjXzXwXqXqXqXqX4XJ.M.G.G.G.k.f.f.k.D.D.D.D.D.D.D.D.D.k.D.h.h.h.k.D.&X0X9XqXlXmXmXmXw.O @ a Q $.a.D.H.H.g.f.f.f.f.i.a.i.f.f.f.D.k.D.f.f.f.f.f.d.i.y.y.y.y.y.y.y.y.y.y.y.y.i.f.f.f.f.f.f.f.i.y.y.y.y.y.y.y.t.>.Q H H v v v v z p # . @ P #XbXbXmXzXzXlXwX4X4X4X4X4X*X.X|.&X=X4XwXkXcXcXbXbXbXmXkX2Xr.V ; . . . O # & w w w w w t z v v t w & O . 5 E E Q ,.y.y.y.y.y.y.i.f.f.f.f.y.y.y.y.y.y.y.y.y.y.d.f.",
"y.y.y.i.d.G.4X6XqXqXqXqX4X-XN . @ 2 s g p e w w w w w w w 1 1 1 w w 1 w r t r e w w w w w w w w w 1 + O o o @ T tXnXbXzXsXsXaX4XqXqXqX6X.XD.G.G.D.d.y.y.y.a.f.h.D.D.D.D.D.D.h.h.D.D.h.h.D.k.J.=X9X9XqXdXcXmXrXd O $ F E } &.,.t.>.t.f.i.y.y.y.y.y.d.f.f.k.k.f.f.f.f.f.a.y.y.y.y.y.y.y.y.y.y.y.y.y.y.i.f.f.f.f.f.f.d.y.y.y.y.y.t.y.&.H S A j k v v z y O . @ _ fXbXbXbXbXkXlX4X4X4X4X4X4X*XD.t.t.a.M.}.&X4XaXdXlXkXkXzXzXmXMXkXQ.( 8 . . . @ # % 1 w w w r k k w w 1 O . - H W E ;.y.y.y.y.y.y.y.y.i.i.y.y.y.y.y.y.y.y.y.y.i.h.k.",
"y.y.y.y.y.y.}.qX6XqXqXqX4X*X=.; < < a y w w w w w w w w w w w w 1 w w w w w w w 1 w w w w w w e a , @ o @ < w.fXbXbXbXzXjXaX4X4XqXqXqX+XM.D.G.D.f.y.y.y.y.y.y.a.d.f.f.h.D.D.h.Z.D.D.D.D.D.D.k.J.&X9XqX6XwXkXmXz.@ o a E E W W ! W &.i.y.y.y.y.y.y.y.f.f.f.f.f.f.f.f.d.y.y.y.y.y.y.y.y.y.y.y.y.y.y.y.y.a.f.g.f.f.f.f.y.y.y.y.y.y.$.H S S k r r u j 2 . O 5 l.hXbXbXbXbXbXhX4X4X4X4X6X;X+Xg.y.y.y.y.y.y.d.J.+X=X4X4X4X6XwXkXzXmXmXkX2Xr.V ; . . O @ # & w w w w w w w # O @ A W E O.t.y.y.y.y.y.y.y.y.y.y.y.y.y.y.y.y.y.y.y.i.i.d.",
"y.y.y.y.y.y.y.}.3X4X3X+XH.e.:.f = ; > w w w w w w w w w w w w w w w w w w w w w 1 1 1 & > % % > M 0 = @ 7 R.MXbXmXmXbXmXkX6X4X6X6XqX=XH.g.M.D.k.a.y.y.y.y.y.y.d.u.u.u.p.d.d.f.h.D.D.D.D.D.D.D.D.D.J.&X4XqXwXzXyXB @ @ A E W W W E } t.y.y.y.y.y.y.y.y.i.i.d.f.f.f.f.f.i.y.y.y.y.y.y.y.y.y.y.y.y.y.y.a.i.v.N.b.d.f.f.y.y.y.y.t.$.F D D A t r r w # . . d Q.bXzXmXmXbXkXdX4X4X4X=X+X$X!.p.y.y.y.y.y.y.y.y.y.a.J.&X4X4X4X4X4XwXkXkXkXzXmXkXQ.) 8 @ . . o @ % & w w w w % . . x W E W @.y.y.y.y.y.y.y.y.y.y.y.y.y.y.y.y.y.y.y.i.i.y.",
"y.y.y.y.y.,.>.>.y.i.y.,.:.:.:.O.- = @ # 1 w w w 1 1 1 1 1 & % % % % + + + + @ @ @ ; @ @ O O O @ 4 9 : P $XbXbXbXbXbXbXzXwX6X6X4XqX4XJ.g.M.D.D.d.y.y.y.y.y.y.a.p.H.m.m.u.y.y.y.a.d.h.D.D.D.D.G.D.G.h.D.J.&XqXhXMXz.$ @ , S E W W K A &.y.y.y.y.y.y.y.y.y.y.y.i.f.f.D.D.g.i.y.y.y.y.y.y.y.y.y.y.y.y.a.f.i.v.V.u.y.f.f.a.y.y.y.@.D S D D v r e 1 + O @ P 2XzXbXmXmXmXkXwX4X4X3X Xg.a.u.p.y.y.y.y.y.y.y.y.y.y.y.a.f.J.|.&X=X4X4X4X4XqXqXqXwXhXkX2Xz.L = . . O @ # & w 1 # O . , H W W } t.y.y.y.y.y.y.y.y.y.y.y.y.y.y.y.y.y.i.i.a.y.",
"y.y.y.t.,.:.>.>.>.>.>.>.>.:.;.;.V o o . O + # @ @ O O O O . . . . . . . . . @ = = ; ; @ O @ o o @ < ` rXnXbXbXbXnXbXzXwXqX6X6X4X-XJ.M.M.M.D.f.a.y.y.y.y.y.y.d.N.Y.^.m.u.a.y.y.y.y.a.f.D.G.G.G.D.D.D.D.h.D.&XqXkXfXN . @ y F W E A v H $.4.y.y.y.y.y.y.y.y.y.y.i.f.J.oXH.f.y.y.y.y.y.y.y.y.y.y.y.y.a.i.i.a.a.y.y.i.f.a.y.y.;.H D S S S i r 1 O O = _ rXbXbXbXmXmXkX6X3X3X3XE.y.y.y.y.y.y.y.y.y.y.y.y.y.y.y.a.f.M.F.M.f.D.}.&X=X4X4X4X4X4X4X4XqXhXhX~._ 7 @ @ @ @ @ O . . . @ l E E ! ,.y.y.y.y.y.y.y.y.y.y.y.y.y.y.y.y.i.a.i.y.y.",
"y.y.4.>.:.>.>.>.>.:.>.;.+.W H D z @ . . . . . . . . o o o @ @ o o . . . X X = @ $ $ @ . . . o @ @ P gXnXbXnXnXbXnXkXaX7X6X-X XJ.D.b.M.M.M.f.a.y.y.y.y.y.y.y.M.!.^.Y.L.u.a.y.y.y.y.y.a.f.G.G.D.D.D.D.D.D.D.G.=XwXzXB.$ o - l K D v v v A J +.4.y.y.y.y.y.y.y.y.y.f.L.oXD.f.i.y.y.y.y.y.y.y.y.y.y.i.i.i.y.y.y.y.y.i.f.a.y.t.Q D D S S l t s 5 = < l.gXbXbXbXmXcXkXqX4X4X3X}.y.y.y.y.y.y.y.y.y.y.y.y.y.y.y.y.d.b.H.Q.W.M.p.u.p.F.}.*X4X4X4X4X4X4X4X9XhXkX8XB.Y 4 @ @ @ o . O . y A E } 4.y.y.y.y.y.y.y.y.y.y.y.y.y.y.a.d.d.i.y.y.y.",
"y.4.>.>.>.>.>.:.>.&.} F C v v v j @ . . . . . . O @ @ @ = ; < 5 7 d B L Y ( _ w.l.B.V.R.Q.( @ = @ B.nXnXnXnXnXbXgXaXrX*XW.D.M.b.f.f.f.f.d.a.y.y.y.y.y.y.y.a.M.Q.P.v.b.f.u.a.y.y.y.y.a.d.f.f.f.h.h.D.D.D.D.k.|.qXqX8XN @ @ y z v v v v v v A $.4.y.y.y.y.y.y.y.y.i.f.D.g.f.f.i.y.y.y.y.y.y.y.y.a.i.i.a.y.y.y.y.y.a.f.a.y.y.+.D D S A t p T P 8 B.bXbXbXbXmXmXkXwX3X4X4XXXa.y.y.y.y.y.y.y.y.y.y.y.y.y.y.y.f.M.H.Q.2X@XL.b.s.a.y.y.d.J. X-X=X=X=X=X3X4X4XaXlXaXoX=.B 5 $ @ . . - j A O.y.y.y.y.y.y.y.y.y.y.y.y.y.y.y.i.a.d.a.y.y.y.",
"4.>.:.>.>.>.>.>.+.H v v v v v v y . . @ d P ( _ -.l.z.B.Q.~.2X2XrXyXgXzXbXnXMXMXbXkXlXwX*XN.5 = 7 tXnXnXnXnXxXgXfXdX*XH.D.D.f.a.y.y.y.y.y.y.y.y.y.a.i.i.a.y.a.f.f.p.u.p.b.p.u.a.y.y.d.a.a.y.a.a.d.f.f.f.f.f.G.=X0XqXr.$ @ # e t k v A A v v } ,.4.y.y.y.y.y.y.y.y.y.i.f.f.d.a.y.y.y.y.y.y.y.a.d.i.y.y.y.t.t.y.y.y.d.y.y.y.,.H S D v r y N B P yXkXbXmXmXmXbXdX3X4X4X=XM.y.y.y.y.y.y.y.y.y.y.y.y.y.y.y.a.i.f.F.Q.#X@XL.M.b.s.a.y.y.y.y.i.f.k.k.D.K.}.&X;X=X;X<XsX;XV.( : . @ @ y l F ;.y.a.y.5.:.;.:.,.4.y.y.y.y.a.d.d.d.a.y.y.y.",
">.>.>.>.>.:.;.Q A v v v v v v p @ o N R.yXgXzXzXbXbXbXbXbXbXbXmXbXzXkXkXlXdXdX7X4X4X+XJ.D.,.< @ ( yXhXgXxXxXxXxXgX8XW.F.D.f.a.y.y.y.y.y.y.y.y.y.i.f.f.f.f.f.i.i.d.d.b.b.V.P.v.p.p.d.d.a.y.y.y.y.y.y.y.y.a.a.d.}.9X4X8XV . O % w e p / ^ C v W :.>.4.y.y.y.y.y.y.y.y.y.y.y.y.y.y.y.y.y.y.y.y.i.i.d.y.y.4.>.>.,.t.y.y.y.y.y.t.Q S D z e e - = ( zXkXmXmXmXbXkX4X3X4X4X|.y.y.y.y.y.y.y.y.y.y.y.y.y.y.y.i.i.d.f.b.N.Q.L.D.f.C.s.a.a.y.y.y.y.y.y.y.y.y.y.p..X;X%X{.%X<XvXrX!.Y $ @ @ a k z F W E F A A A S F E ,.,.,.,.i.a.a.y.y.y.y.",
">.>.>.>.:.:.Q v v v v j u r 1 @ . L rXnXbXbXzXzXbXbXbXkXlXhXdXwXqX4X4X4X3X*X&X XW.G.g.f.d.~ @ = z.6X7XrXfXxXxXxXyXOXJ.F.f.a.y.y.y.y.y.y.y.y.y.i.f.f.f.f.f.f.f.f.f.f.b.V.I.^.Q.N.M.d.f.y.y.y.y.y.y.y.y.y.y.y.y.f.*X4XqXv.$ @ # w w p ^ U A v H :.:.>.,.t.y.y.y.y.y.y.y.y.t.t.t.y.y.y.y.y.i.i.d.i.i.y.t.>.>.>.>.,.y.y.y.y.y.y.o.A D z e w O @ P gXkXmXmXbXkX4X4X4X4X3XD.y.y.y.y.y.y.y.y.y.y.y.y.y.i.i.a.i.a.a.a.d.D.f.f.s.C.C.s.s.a.y.y.y.y.y.y.y.y.y.y.C.oX{.[.%XsX<XsXzXfX` $ @ @ 2 r w w z v v v v v v A #.e.,.,.y.y.y.y.y.y.y.",
">.>.>.:.:.o.A v v u r w w 1 + O d 2XbXbXbXzXzXjXlXdXwX6X4X=X+X|.W.J.J.H.H.G.M.f.f.b.d.;.Q 6 @ 7 OX6X7XrXuXxXxXuX2XQ.J.M.p.a.y.y.y.y.y.y.y.y.i.f.f.f.d.d.i.i.i.d.f.b.N.I.)._.).!.N.N.M.p.a.a.i.i.i.i.a.y.y.y.y.y.].;X4X*XL @ = 2 r r z A C v S ;.:.>.>.>.4.t.y.y.y.y.t.,.>.>.>.,.t.y.i.a.i.i.i.a.y.y.,.>.>.>.>.y.b.f.a.y.y.y.+.A D v e e # O B yXkXzXzXhX4X4X4X4X4X&Xi.y.y.y.y.y.y.y.y.y.y.y.y.a.f.i.i.a.y.y.y.a.f.s.s.C.'.S.C.s.s.y.y.y.y.y.y.y.y.a.s.s.S.{.{.%X%XsXkXzXzXzX-.$ O O % w w v v v v v v A J O.,.,.,.>.,.,.,.,.:.,.",
">.>.>.>.@.A v l r w w w w # . 5 !.bXbXbXzXhX0X;X;X*X+X}.J.D.g.f.g.D.G.G.G.D.M.M.g.a.+.W z + o Y 4X6XwXdXfXfXyXtXOXW.M.d.i.a.y.y.y.y.y.y.y.d.f.d.a.y.y.y.y.y.y.a.p.N.V.U.)._.).!.J.M.M.f.f.f.f.f.f.f.f.f.f.i.a.a.s..X9XqXB.; = s j j l D A C A @.:.:.:.:.:.>.,.,.,.,.>.:.>.>.>.:.,.t.d.i.i.i.y.y.y.t.>.>.:.>.,.M.!.L.d.y.y.y.+.S D C r e % @ 5 2XzXbXhX4X4X4X4X4X4X}.y.y.y.y.y.y.y.y.y.y.y.y.f.i.d.i.y.y.y.y.y.a.s.s.C.S.[.[.'.C.C.s.a.y.y.y.y.y.y.y.y.a.s.].;X:X;X;X0XaXdXkXkX-.- . O % w k v v v v v v D Q ,.:.:.:.:.:.:.:.:.:.",
">.>.:.;.H v k e w w w w * . = z.bXbXzXdX0X;X%X{.].F.D.f.h.h.D.D.G.D.G.D.D.D.M.b.d.+.! S a . @ r.qX7XaX8X8X#XOXoX!.F.f.d.i.a.y.y.y.y.y.a.f.f.d.y.y.y.y.y.y.y.y.y.a.p.v.V.U.).U.V.M.f.f.f.f.f.f.f.f.f.f.f.f.f.f.d.i.d.W.*X4XY ; d Y U n G J S v D } ;.:.:.:.:.:.:.>.:.:.>.>.>.>.>.,.t.y.i.a.y.y.y.y.4.:.>.:.:.,.p.Q.M.a.y.y.a.$.D J S u e & ; , OXbXzXwX=X4X4X4X4X*Xf.a.y.y.y.y.y.y.y.y.y.y.y.a.i.i.y.y.y.y.y.y.a.s.C.A.'.[.[.'.A.s.a.y.y.y.y.y.y.y.y.y.a.s.F.].:X;X=X4X4X4X4XlXkXw.= . . % e g k z v v v v S } :.:.:.:.>.>.>.>.>.",
">.>.:.! C z e w w w w % O @ ` zXbXlXqX4X4X&X].'.S.Z.Z.Z.Z.D.G.G.G.G.D.Z.D.D.N.M.;. .H z < o 8 +XqX7X+XJ.J.L.J.H.H.H.f.d.a.y.y.y.y.y.a.f.f.f.i.y.y.y.y.y.y.y.y.y.y.y.p.N.V.I.N.v.f.f.f.f.f.f.f.f.f.f.f.f.f.f.f.f.f.f.f.f.J.1.5 L l.l.~ U A A v v v D H W } $.:.>.>.>.>.>.>.>.>.>.>.,.,.,.,.y.y.y.y.,.:.>.:.>.,.,.y.e.,.t.y.s.5.W H J z r 1 5 8 V.zXzXwX4X4X4X4X4XW.y.d.i.i.i.i.a.a.y.y.y.y.y.y.a.y.y.y.y.y.y.y.a.s.s.C.S.'.[.S.C.s.a.y.y.y.y.y.a.a.y.y.y.i.a.n.P. X=X4X4X4X3XdXzXkXr.; . . % w w w r j v v v C H O.$.:.:.>.>.>.>.",
">.>.} C z r w w w w & O X T gXmXhX6X4X9X&XF.A.A.A.Z.Z.h.D.G.G.G.D.D.k.D.D.D.F.l.*. .G c : o T 6X4X|.f.f.M.b.f.f.f.M.b.i.y.y.y.y.y.y.f.f.f.f.y.y.y.y.y.y.y.y.y.y.y.y.a.f.v.n.u.a.a.a.a.i.f.f.f.f.f.a.y.y.i.i.f.f.f.f.f.p.p.f.Y T ^.Y.2.G j k v v v v v v v F $.:.>.>.>.>.>.>.>.>.>.,.,.:.>.>.,.,.,.>.>.>.>.,.,.,.>.>.>.,.4.C.'.7.! H D t y 7 I x.xXxXrX;X4X4X4X Xp.a.d.M.f.f.f.d.i.a.y.y.y.y.y.y.y.y.y.y.y.y.y.y.y.a.s.C.A.S.C.s.s.a.y.y.y.a.a.i.a.a.y.y.y.y.u.v.a.M.}.=X4X3XwXcXcXzXl.- . . % w w w w r l v v v v S E @.:.:.>.>.",
";.o.A v t w w w w & + . N 8XMXkX6X6X4X*XH.D.Z.Z.Z.Z.h.h.D.G.G.D.D.Z.h.D.b.N.N.8.8.*.^ f $ = r.3XJ.a.a.a.u.u.d.d.d.d.f.i.y.y.y.y.y.f.f.f.f.i.y.y.y.y.y.y.y.y.y.y.y.y.y.a.u.u.a.y.y.y.y.y.y.y.y.y.y.y.y.y.y.y.y.i.i.i.d.f.D.d.) T ` z._ c p e r j l v v v v v W :.:.:.:.:.:.:.:.:.:.:.>.>.>.>.>.>.>.>.,.,.6.6.,.:.>.>.>.,.5.6.'.9.} F G z h d ] c.pXpXfX5X4X4X Xp.a.i.f.H.H.H.F.M.f.f.d.a.y.y.y.y.y.y.y.y.y.y.y.y.y.a.a.s.s.C.s.s.a.y.y.y.a.d.i.i.i.y.y.y.y.y.y.y.y.y.y.k. X3X9XkXcXzXkXz.< . . % w w w w e k v v v v v A +.>.>.>.",
"Q A v t w w w w & + O 8 @XmXzXwX6X6X4XE.g.M.Z.Z.Z.Z.h.h.D.D.D.D.k.Z.h.D.b.N.8.I.x.-.^ 6 @ 8 H.f.y.y.a.a.a.a.d.d.a.s.d.f.i.d.f.f.i.i.f.f.f.a.y.y.y.y.y.y.y.y.y.y.y.y.y.y.y.a.y.y.y.y.y.y.y.y.y.y.y.y.y.y.y.y.y.y.y.y.i.d.a.#.! B B P P g r w w w w e t l v v A +.,.:.,.>.,.,.,.:.:.:.>.>.>.>.>.>.>.>.y.y.9.A.6.,.>.>.>.:.,.5.6.s.<.W F z h I { `._.pXxX5X4X Xi.y.a.d.f.J.OXOX!.P.H.M.a.y.y.y.y.y.y.y.y.y.y.y.y.y.y.y.a.a.a.s.s.a.a.a.a.a.i.d.a.y.y.y.i.y.y.y.y.y.y.y.y.y.a..X4XwXkXmXzXzXB.; . O % w w w w r z v v v v v E >.>.>.",
"S A j w w w w w + . ; V.mXbXhXqXqXqX+XD.g.f.Z.h.h.Z.h.D.D.D.h.h.D.Z.Z.Z.Z.v.-.x.I._ U 4 @ B a.y.y.y.y.a.s.a.d.d.f.f.f.f.f.f.f.f.y.y.y.y.y.y.y.y.y.y.4.,.,.t.y.y.y.y.y.y.y.y.y.y.y.y.y.y.y.y.y.y.y.y.y.y.y.y.t.4.4.a.i.a.O.H F A 5 5 7 a e w w w w w w r z v v A Q +.+.+.#.3.#.@.;.:.:.>.:.>.>.>.>.:.,.p.C.S.6.,.>.:.>.>.>.,.4.4.,.$.F A x I { `._.pXgX6X-Xf.y.y.a.d.M.Q.2XiX8XoXH.f.i.y.y.y.y.y.y.y.y.y.y.y.y.y.y.y.y.y.a.s.s.u.u.v.u.a.d.i.a.y.a.d.f.a.y.y.y.y.y.y.y.y.y.a. X4X4XdXkXcXzXB.< O O % w w w w r z v v v v D ;.>.>.",
"D l t w w w w % O @ r.bXmXkXqXqXqX4XJ.f.D.D.h.h.h.D.D.D.D.k.h.h.k.k.D.Z.b.3.*.3.*.) c : = ) f.d.d.a.y.s.d.d.d.f.f.f.f.f.f.f.f.i.y.y.y.y.y.y.y.y.t.>.:.:.:.,.y.y.a.a.a.y.y.y.y.y.y.y.y.y.y.y.y.y.y.y.y.y.4.,.>.>.,.4.y.O.F D D F 6 = = 2 w w w w w w w w t v n n v v v v A U A A F W } @.$.:.:.>.,.,.,.4.F.s.6.,.>.>.>.>.:.,.,.,.,.>.} G c M I ] ).pXiX4X}.y.y.y.a.d.D.oXtXuXtX!.F.f.i.y.y.y.y.y.y.a.i.f.f.f.f.i.a.y.y.y.y.a.u.m.m.m.v.d.d.d.i.f.f.f.f.i.y.y.y.y.y.y.y.y.y.y.f.&X4X4X4XlXzXzXV.5 . O # w w w w t v v v v A &.>.>.",
"A t w w w w % O @ ) gXMXmXdX6XqX6X Xb.Z.D.D.D.h.D.D.D.D.D.k.h.D.D.D.D.D.u. . . .U U 7 @ < <.d.f.f.f.f.f.f.d.f.f.f.f.f.f.f.f.d.y.y.y.y.y.y.y.y.4.>.>.>.>.>.>.t.a.C.A.s.y.y.y.y.y.y.y.y.y.y.y.t.4.,.,.,.>.>.>.>.>.,.4.+.S A F F F a @ o @ & w w w w w w w e t j j j k z z z l l k k v v A S F K W Q } O.#.%.<.<.,.,.<.:.:.>.,.,.,.>.:.;.R x 6 4 9 Y.pXtX4XJ.t.y.y.a.d.H.oX#XtX#XW.M.d.i.y.y.y.y.y.i.f.f.f.f.f.f.f.f.d.i.a.y.a.p.m.(.U.N.M.f.f.f.f.f.f.f.f.i.y.y.y.y.y.y.y.y.y.y.D.*X4X4X4XlXcXcXR.5 O O # w w w w j v v v C +.>.:.",
"t w w w w & O . L yXbXmXdXqXqX6X*XD.D.D.D.Z.h.k.D.D.k.k.k.D.D.D.D.D.Z.D.:.Q } ! A c 4 . f a.y.a.i.d.f.g.f.f.f.f.f.f.f.N.N.d.y.y.y.y.y.y.y.y.,.>.:.>.>.>.>.:.4.y.s.A.s.y.y.y.y.y.y.y.y.y.t.,.>.>.:.,.>.>.>.:.>.,.,.;.D A S R ! G 7 = @ . @ # > 1 1 w w e r e e w e e e e e e r w w k v v v v v v v A U U R U Q <.1.<.:.,.,.,.>.:.:.:.>.} z y : ; w.xX5X4XJ.y.y.y.i.M.H.J.W.Q.oXH.f.d.a.y.y.y.y.d.f.f.f.f.f.f.f.f.f.f.f.f.f.f.b.V.I.I.V.D.f.f.f.f.f.f.f.f.f.a.y.y.y.y.y.y.y.y.y.y.G.*X4X4X4XhXcXmXR.8 . O % w w w w j v v v H ;.>.",
"w w w w & + O d #XnXzXdXqXqXqX4XJ.M.D.D.D.D.D.D.D.D.D.D.D.D.D.D.D.D.h.f.@.Q } H z a @ @ ! a.y.y.y.i.d.d.d.a.i.d.f.f.f.N.N.i.y.y.y.y.y.y.y.,.:.:.>.>.>.>.>.>.,.y.a.a.y.y.y.y.y.y.y.y.y.t.,.>.>.:.:.,.,.,.,.>.4.4.;.H v z z Y 2.-.N ; @ . o @ ; $ # % 1 y p r r r t p p p t j r w w r j z v v A A A G ^ _ _ / / ~ <.,.,.,.,.e.>.>.>.>.:.&.S p @ @ ) gX4X4X}.y.y.a.i.d.D.D.D.H.H.H.d.i.y.y.y.a.d.f.f.f.f.f.f.f.f.f.f.f.f.f.f.f.f.N.V.F.F.D.f.f.f.f.f.f.f.f.f.f.d.a.y.y.y.y.y.y.y.y.a.D. X=X4X4XaXkXmXQ.8 O O # w w w w k v v v H Q ",
"w w w 1 # O < Q.nXkXwXqX6XqX4X}.f.g.k.k.D.D.G.G.D.D.D.G.G.G.D.h.D.D.D.f.} | Q D z > . @ ! y.y.y.a.d.i.a.y.y.y.y.d.f.f.f.p.y.y.y.y.y.y.y.4.>.>.>.>.>.>.>.>.>.>.y.y.y.y.y.y.y.y.y.y.y.4.>.:.>.>.>.,.2.n.u.1.1.,.,.E i r e p Y V.z.P < @ = : $ $ 6 ; , 4 5 5 6 s s x c c c c x r w w w w w r t p j z c ^ ' 8.0.-.^ Q ;.,.,.,.,.>.;.$.@.;.:.Q z # . L fX4X4X Xy.y.y.y.i.f.D.D.D.M.f.d.a.y.y.i.f.f.f.f.f.f.f.f.f.f.f.f.f.f.f.f.g.g.M.D.D.H.D.f.f.f.f.f.f.f.f.f.f.f.f.f.f.f.f.f.f.f.f.f.f.f.G. X=X4X9XhXcX!.7 . . # w w w w k v v v v ",
"w w w # O @ z.MXkX7X6X6XqX*XJ.g.M.D.k.D.G.K.K.G.D.k.D.G.G.G.D.k.D.D.D.y.Q } ! A j @ . , A ;.4.y.y.d.i.y.y.y.y.y.y.a.i.a.y.y.y.y.y.y.y.,.>.>.>.>.>.>.>.>.>.>.>.4.y.y.y.y.t.4.,.,.,.>.>.>.>.>.>.>.<.l.I.I.v.y.:.K t w w w y f ( T d 4 ( !.@XV.` Y c 6 a f a 6 f L N L Y T Y x t e w w w w w w e t p x U ' 0.c.' ~ U E H E W Q E H S A H $.;.F > . 7 8X4X4X+Xy.y.y.y.a.f.f.f.f.f.a.f.f.i.f.f.f.f.f.f.f.f.f.f.f.f.f.f.f.f.f.f.D.M.k.k.D.Q.H.f.f.f.f.f.f.f.f.f.f.f.f.f.f.f.f.f.f.f.f.f.f.f.f.f.J.+X4X4X0XlX!.7 . O # 1 w w w j v v v ",
"w w % O @ ` zXkX6X6X6X4X XD.M.M.D.G.G.G.G.G.k.f.f.f.f.f.f.D.G.G.D.D.D.,.! | ! v a O O p v D #.,.,.y.a.y.y.y.y.y.y.y.y.y.y.y.y.y.y.y.,.:.:.>.>.>.>.>.>.>.>.>.>.>.,.4.4.,.>.>.>.>.>.>.>.>.>.>.>.>.1.x.U.I.u.:.A t w w w & # 4 6 5 7 z.zXMXMXcXzXfX:XS.2.X.^ U c N ( ` l.l.P d a 2 w w w w w w r p x V ~ 8.8.[ / ~ ! R F A C v v v v v v D +.@.s . 5 @X4X4X+Xy.y.y.y.i.f.f.f.f.d.a.f.f.f.f.f.f.f.f.f.f.f.f.f.f.f.f.f.f.f.k.k.D.g.f.f.f.D.D.f.f.f.f.f.f.f.d.i.i.f.f.f.f.f.f.f.f.f.f.f.f.f.f.f.d.d.J.*X4X4XdXOXd O O # w w w w g v v ",
"w % O X T gXzXwX6X6X4X}.D.f.D.D.G.G.G.G.G.f.f.f.f.f.f.f.f.f.f.D.D.D.D.,.Q } W A , . # v A A S @.,.,.,.,.4.y.y.y.y.y.y.y.y.y.y.y.y.4.>.>.:.>.>.>.>.>.>.>.>.>.>.:.:.>.>.>.>.>.>.>.>.>.>.>.>.>.>.,.1.r.n.l.#.A e w w w % @ o @ o N ~.nXmXmXMXcXzXzXsX%X%X{.{.P.-.T _ R.iXR.( d 4 = @ # % 1 w w r p c U =.z.-.' ~ ^ G G n z v v v v v v v v A ! V . = R.4X4X Xt.y.y.y.i.f.f.f.f.f.f.f.f.f.f.f.f.f.f.f.f.f.f.f.f.f.f.f.f.f.k.D.k.f.f.d.i.i.a.a.a.i.d.d.i.a.y.y.y.y.i.f.f.f.f.f.f.f.f.f.f.f.f.i.y.y.y.b.&X;X;XkX@Xd . . # 1 w w w u v ",
"& O . N 2XbXdX4XqX4XW.D.D.k.D.G.G.G.G.G.M.f.f.f.f.f.f.f.f.f.f.f.f.f.D.:.o.+.Q A - . , A J F J $.<.:.:.:.:.,.,.4.t.y.y.y.y.y.y.t.,.>.>.>.>.>.>.>.>.>.>.>.>.>.>.>.>.>.>.>.>.>.>.>.>.>.>.>.>.>.:.>.,.,.#.! G t w w & # @ . . = ( rXnXMXMXmXMXzXzXjX<X%X[.{.%X<XfXyXtXtXiX^._ d < = o . @ O @ > 2 s V ) l.~.V.-._ T U x p r r r u l v v v v v v x O O r.4X4XJ.y.y.t.y.f.f.f.f.f.f.f.f.f.f.f.f.f.f.f.i.i.a.i.i.d.f.f.f.f.f.f.f.f.i.y.y.y.y.y.y.y.y.y.y.y.y.y.y.y.y.y.a.f.f.f.f.k.f.f.f.f.f.f.y.y.y.y.y.f.XX;XwXzX@XB o . # 1 w w w t ",
"+ . 8 @XbXkXqXqXqX|.D.k.D.D.G.G.G.G.G.D.f.f.f.f.f.f.f.f.f.f.f.f.f.f.d.+.W Q S s O @ c D J D F ;.:.>.:.>.>.>.:.:.>.>.>.,.,.,.,.>.:.>.>.>.>.>.>.>.>.>.>.>.>.>.>.>.>.>.>.>.>.>.>.>.>.>.>.>.>.>.>.:.@.E D A j w w & @ . o . < z.bXMXMXMXkXhXzXzXzXjX<X{.[.{.%X<XvXzXnXnXnXxXtXV._ d = X . @ = : 5 d P _ B.~.R.-.~ G x p w w w w w w r g z v v v j @ . ) 4X3XD.d.a.i.i.f.f.f.f.f.f.f.f.f.f.f.f.f.d.y.y.y.y.y.y.y.y.i.i.d.i.a.y.y.y.y.y.y.y.y.y.y.y.y.y.y.y.y.y.y.y.y.y.y.i.i.f.d.f.f.f.f.f.f.y.y.y.y.a.s.C.:X;XjXzX#Xd . . + 1 w w w ",
". ; B.bXbXwXqXqX-XD.h.D.D.G.G.G.G.D.k.f.d.a.a.i.f.f.f.f.f.f.f.f.f.f.i.} W H k > . # A F D n H :.:.>.>.4.y.,.>.>.>.>.>.>.>.>.>.>.>.>.>.:.:.>.>.>.>.>.>.>.>.>.>.>.>.>.>.>.>.>.>.>.>.>.>.>.>.:.@.E A S v j e w % O O o o N ~.bXMXMXbXhXwXqXwXdXzXjX<X%X%X%X%XsXvXzXzXnXnXnXnXnXxXrX~.r.T d 5 : < 5 7 L _ x.w.T V x p y w w w w w w w w w e r r e @ . P 4X*XD.f.f.d.f.f.f.f.f.f.f.f.f.f.Z.Z.f.i.y.y.y.y.y.y.y.y.y.y.y.y.y.y.y.y.y.y.y.y.y.y.y.y.y.y.y.y.y.y.y.y.y.y.y.y.d.i.i.i.y.y.i.f.f.f.a.y.y.a.s.C.A.].;XhXkXzXz.o . . + 1 w w ",
"@ w.bXbXgX6XqX4XJ.D.D.D.D.D.D.k.f.a.y.y.y.y.y.y.d.f.f.f.f.f.f.f.f.f.y.Q W A j @ . > v S A v E :.:.>.>.6.P.y.<.>.>.>.>.>.>.>.>.>.>.>.>.,.,.:.>.>.>.>.>.>.>.>.>.>.>.>.>.>.>.>.>.>.>.>.>.>.:.+.S v v v u w w > = $ @ $ ( rXNXMXMXkXdXqXwXwXqXqX0XsXsXsX<X>X%X>XjXzXnXnXnXMXnXMXnXnXMXNXMXrX!.w.Y d 5 7 N ( T N 7 5 , > > 1 w w w w w w w w w w w @ . d *X+XD.D.D.k.k.f.f.f.f.f.f.f.f.h.S.S.h.a.y.y.y.y.y.y.y.y.y.y.y.y.y.y.y.y.y.y.y.y.y.y.y.y.y.y.y.y.y.y.y.y.y.y.y.a.d.a.y.y.y.y.y.a.d.f.a.a.a.s.C.A.'.'.%XaXkXkX2X5 . . . + & w ",
"( gXbXzXwX6X4X|.D.Z.f.f.f.f.f.a.y.y.y.y.y.y.y.y.i.f.f.f.f.f.f.f.f.f.,.W H z y . O % j v v v E :.:.>.>.,.6.4.>.>.>.>.>.>.>.>.>.>.>.,.>.,.,.,.:.>.>.>.>.>.>.>.>.>.>.>.>.>.>.>.>.>.>.>.>.;.} A v v k r w 1 - 7 B 7 7 z.zXMXMXzXhXwXqXwXwXtXtX0X0X0X0X0X>X;X>X;X0XdXhXgXkXkXkXkXkXkXzXbXMXMXMXnXzXtX~.l.( P L 7 5 ; = @ o O + % % 1 w w w w w w w # . <  X.XM.D.f.f.f.f.f.f.f.f.f.f.f.h.A.A.s.y.y.y.y.y.y.y.y.y.y.y.y.y.y.y.y.y.y.y.y.y.y.y.y.y.y.y.y.y.y.y.y.y.y.y.a.i.i.a.y.y.y.y.y.y.y.y.y.a.s.C.A.'.[.[.:XsXjXkX#X< O . . . @ & ",
"yXmXbXwX6X6X+XM.b.f.f.f.f.f.a.a.y.y.y.y.y.y.y.y.i.f.f.f.f.f.f.f.f.f.&.W A k > . @ & r v v v A +.:.:.;.@.Q W O.$.:.>.>.>.>.>.>.:.,.4.4.,.,.>.:.>.>.>.>.>.>.>.>.>.>.>.>.>.>.>.>.>.>.>.;.} C v z t w w % @ = L -._ @XMXMXzXhXwXwXwXwXwXwXtXtX6X-X+X5X0X0X0X0X0X0XwXqX6XqXqX6X6X6X6XwXwXkXMXMXnXnXnXMXNXnXyX~.-.P 7 = . . . . . . O + % % 1 w w 1 + . = N.J.M.g.f.f.f.d.a.a.i.f.f.f.f.f.f.d.y.y.y.y.y.y.y.y.y.y.y.y.y.y.y.y.y.y.y.y.y.y.y.y.y.y.y.y.y.y.y.y.y.y.y.y.i.i.i.y.y.y.y.y.y.y.y.y.y.y.a.s.C.S.[.[.%XsXdXkXB.# O . . . . @ ",
"mXmXdX6X4X|.M.d.d.f.f.D.f.d.d.a.y.y.y.y.y.y.y.y.i.f.f.f.f.f.f.f.f.y.Q D u y + . # w w t v v v A E Q H A v v v S E } +.@.@.O.} } Q } Q +.&.:.:.:.>.>.>.>.>.>.>.>.>.>.>.>.>.>.>.>.>.;.Q C l t w w 1 # @ . = B z.yXnXbXkXwXwXwXwXwXwXwXwXwX6X+XJ.H.oX0X0X0XqXwX0XqXwXwXwXwXqXqXqXwXwXqXaXcXzXbXbXMXMXnXnXMXMXnXgX8XR.=.L < o . . O . O O O # # + . o @ =.D.M.f.f.f.f.y.y.y.y.i.f.f.f.f.a.y.y.y.y.y.y.y.y.y.y.y.y.y.y.y.y.y.y.y.y.y.y.y.y.y.y.y.y.y.y.y.y.y.y.y.a.i.i.y.y.y.y.y.y.y.y.y.y.y.y.y.y.a.s.C.S.{.;XdXkX7XB O @ d _ P @ O ",
"bXdX6X&XD.a.y.i.f.f.f.h.a.a.y.y.y.y.y.y.y.y.y.y.i.f.f.f.f.f.i.a.y.&.D l r > . . % w w w r k v v v v v v v n v v v v v n v v v A D S S v S W $.:.:.:.:.>.>.>.>.>.>.>.>.>.>.>.>.>.:.Q z t w w w & @ . . . 7 z.zXnXzXdXqXqXwXwXwXwXwXwXwX0X+XJ.J.J.H.+X;X0XqXwXqXqXwXwXwXwXwXwXwXwXqXwXwXaXwXwXwXdXhXzXMXMXnXnXbXbXMXMXzX2XB._ N 5 @ . . . . . . = ; ; ) g.f.f.f.f.y.y.y.a.a.a.d.f.d.a.y.y.y.y.y.y.y.y.y.y.y.y.y.y.y.y.y.y.y.y.y.y.y.y.y.y.y.y.y.a.a.y.y.y.y.y.i.i.d.y.y.y.y.y.y.y.y.y.y.y.y.y.y.a.s.s.A.:X0XlXjX=.@ . V rXnXgX=.@ ",
"wX6X+Xi.y.a.d.f.f.f.f.i.a.y.y.y.y.y.y.y.y.y.y.y.a.d.f.f.i.y.y.y.t.W A u e + . O & w w w w w r t u u u g k z v v v n n n n v A D F S C v v v S } :.:.:.:.>.>.>.>.>.>.>.>.>.>.:.;.! j w w w 1 % O . o . N ~.MXMXzXaXwXwXwXwXwX4XqXwXwX4X XJ.H.H.F.F.P.:X;X0XwXqXwXwXwXwXwXwXwXwXwXwXwXqXwXwXwXqXqXqXwXdXlXkXzXzXzXbXbXbXMXMXnXgX2XV.` B ;   . = d P 5 ) g.f.f.f.a.y.a.s.C.s.y.y.y.y.y.y.y.y.y.y.y.y.y.y.y.y.y.y.y.a.f.y.y.y.y.y.a.i.a.y.y.y.i.f.f.f.d.y.y.a.d.i.i.i.y.y.y.y.y.y.y.y.y.y.y.y.y.y.y.a.s.].;XaXkX-X6 O $ Q.MXmXbXzXw.",
"4X*XM.a.d.f.f.i.d.f.d.d.a.y.y.y.y.y.y.y.y.y.y.y.y.y.y.y.y.y.y.t.+.D v r e O . . % w w w w w w w w w w w w w e r r t u g k n G D A A v v v v v v H $.:.:.>.>.>.>.>.>.>.>.>.>.;.K r w w w & # o O . = _ rXMXMXzXeXwXwXwXwXqX*XW. X*X-X}.J.J.J.H.H.F.S.].%XqXqXqXqXqX=X-X4X4X*X+X|.|.&XqXwXwXwXqXqXqXqXqXqXwXwXwXwXwXwXdXhXzXmXMXMXMXbXgX#Xz.N ; L P d <.g.f.f.i.y.y.a.C.'.C.a.y.y.y.y.y.y.y.y.y.y.y.y.y.y.y.y.y.y.f.f.y.y.y.y.f.f.f.f.f.f.f.f.f.f.f.f.g.i.i.i.i.i.i.y.a.f.f.f.d.a.y.y.y.y.y.y.y.y.y.a..X4XkXkX) O O ( gXmXmXmXmXzX",
"4XJ.f.f.f.d.a.y.d.d.a.y.y.y.y.y.y.y.y.y.y.y.y.y.y.y.y.y.y.y.y.;.F S z r 1 . . @ $ % & & 1 w w w w w w w w w w w w w w q e t j n v v n n n n v v v S } ;.>.:.:.:.>.>.>.:.>.@.A e w w w & O . @ . 5 z.zXMXMXzXdXwXwXwXqXqX4XJ.F.G.H.J.J.J.J.J.G.G.G.K.H.}.4XqXwX4X|.D.M.D.D.D.f.f.f.M.|.qXwXwXwXwXwXwXwXwXwXwXwXwXwXwXqXqXwXkXMXMXMXMXMXMXNXOX5 5 7 V f.f.f.i.y.y.y.y.s.C.s.a.y.y.y.y.y.y.y.y.y.y.y.y.y.y.y.y.y.d.f.f.a.y.y.d.f.f.f.f.f.f.f.f.f.f.f.f.D.D.g.f.a.y.i.d.f.f.f.f.f.f.i.y.y.y.y.y.y.y.y.a. XqXcXQ.- O 8 #XmXmXmXmXmXmX",
"|.f.f.d.i.y.y.i.d.d.y.y.y.y.y.y.y.y.y.y.y.y.y.y.y.y.y.y.y.y.,.K A A j e # . @ 9 9 @ O O O @ # # % % % & 1 1 1 w w w w r t p t p r u j k k k k l v v v H +.;.:.:.:.:.:.&.} v e w w 1 % O . @ @ L ~.nXMXMXzXdXwXwXwXwXwX3XJ.F.F.J.J.J.J.J.J.J.G.G.G.G.F.F.}.4X*XW.H.D.M.M.D.Z.D.D.D.D.D.J. X&X=X=X=X*X&X+X+X+X&X4XqXwXwXwXwXdXMXMXMXMXMXMXMX2X8 ; < *.f.f.a.y.y.y.y.y.a.a.y.y.y.y.y.y.y.y.y.y.y.y.y.y.y.y.y.y.i.f.f.f.f.i.f.f.f.f.f.f.f.f.f.f.f.f.k.k.D.D.k.f.f.f.f.f.f.f.f.f.f.f.f.i.y.y.y.y.y.y.y.d.&XeXdXV O O -.nXbXcXmXmXmXzX",
"f.d.a.y.y.y.i.i.d.d.y.y.y.y.y.y.y.y.y.y.y.y.y.y.y.y.y.y.y.t.} S D A u e O . @ I I 7 : @ . X X X . . O @ @ @ @ # # > 1 e y y t e w w w w w w w w r t j k v H } +.@.+.Q D k e w w 1 # . . @ 5 ` yXMXMXMXbXdXwXwXwXwXwX=XJ.M.M.D.J.J.J.J.H.H.H.G.G.D.D.D.F.G.J.J.G.G.G.D.D.D.D.k.D.D.D.D.f.f.Z.D.D.D.D.f.f.f.f.M.G.+XwXwXwXwXhXMXMXMXMXMXMXNX=.- @ f a.d.a.y.y.y.y.y.y.y.y.y.y.y.y.y.y.y.y.y.y.y.y.y.y.y.y.y.y.f.f.f.f.f.f.f.f.f.f.f.f.f.f.f.f.f.f.k.D.D.k.f.f.f.f.f.f.f.f.f.f.f.f.f.f.i.y.y.y.y.y.y.d.*XdXz.@ O d rXmXlXqXhXdXwXqX",
"a.y.y.a.y.i.i.i.i.a.y.y.y.y.y.i.i.a.y.y.y.a.i.y.y.y.y.y.y.;.F D D A u > . . P OXrX8X#X!.B.w._ Y N 7 < ; @ O O . @ < ; ; ; @ + + + % % & & & w e p a y e e r t j j k j t w w w 1 # O o @ d R.xXnXMXMXzXdXwXwXwXwX-X}.D.g.M.D.D.J.J.J.H.H.G.G.D.g.D.k.D.G.H.G.G.G.G.G.G.G.G.G.D.D.D.D.D.D.D.D.Z.k.D.D.k.D.D.D.D.h.D.*XwXwXwXlXMXMXMXMXMXMX@X7 @ - E t.a.y.y.y.y.y.y.y.y.y.y.y.y.y.y.y.y.y.y.y.y.y.y.y.y.y.y.a.f.f.f.f.f.f.f.f.f.f.f.f.f.f.f.f.f.f.f.k.f.i.i.i.i.f.f.f.f.f.f.f.f.f.f.f.f.d.y.y.y.y.y.f.3X#Xs O - B.bXkXqX9XqX9X9X0X",
"y.y.y.f.d.d.i.a.y.y.y.y.a.i.f.f.f.f.f.i.f.f.f.i.y.y.y.y.y.+.H E E H k > . 5 2XnXbXbXbXMXNXNXNXMXzXyX2XOXV.w.` T L N 7 5 = O .     . . . O @ # , M ] M a 1 & & q w w w w w w % O O . . L $XnXnXnXMXzXdXwXwXwXqX4XH.b.D.g.D.G.J.J.J.H.F.G.D.f.f.g.D.D.D.G.H.G.G.G.G.H.G.G.G.K.G.k.D.D.D.D.D.D.D.G.G.G.g.D.D.D.D.D.Z.|.wXwXwXlXMXMXMXMXMXzXT @ . x E $.y.y.y.y.y.y.y.y.y.y.y.y.y.y.y.y.y.y.a.y.y.y.y.y.i.a.y.i.f.f.f.f.f.f.f.f.f.f.f.f.f.f.f.f.f.f.i.y.y.y.y.y.y.y.a.i.f.f.f.f.f.f.f.f.f.f.f.i.y.a.y.D.4X=.  O P gXzXqX9X9X0XqXqXqX",
"y.a.i.d.d.d.a.y.y.y.a.d.d.f.f.f.f.a.y.t.y.f.f.d.i.i.i.i.a.} E W W D j # . T bXbXmXmXmXmXmXbXbXmXmXMXMXMXMXmXbXgXyX7X2X$XQ.B.w._ P N 7 : - @ $ 4 ] { ] 4 @ O O @ # # % % % # . . . = _ rXMXnXnXzXlXwXwXwXwXwXqX|.M.D.D.D.k.D.J.J.H.G.D.D.k.D.D.k.D.D.G.G.G.G.G.G.G.G.G.G.G.G.J.D.D.D.D.G.G.G.G.G.G.G.G.G.G.D.D.D.Z.J.qXqXwXlXMXMXMXMXMXV.- O < H H ;.y.y.y.y.y.y.y.y.y.y.y.y.y.y.y.y.a.a.i.a.y.y.y.d.F.M.a.f.f.f.f.f.f.f.f.f.f.f.f.f.f.f.f.f.f.a.y.y.y.y.y.y.y.y.y.y.y.d.f.f.f.f.f.f.d.d.f.f.f.k.k.E.W.5 O : ~.MXhX9X9X4X4X9X0XqX",
",.a.d.d.a.y.y.,.,.,.y.i.f.d.i.a.t.t.4.t.t.i.f.f.f.f.f.d.t.Q W W E v y @ @ B.MXmXMXMXMXMXmXlXkXkXbXmXMXmXbXkXwX6X6X6XwXkXmXMXMXMXbXkXyX#X!.B.w.` ' [ ] 7 ; $ O . . @ . . . . . . 5 z.bXMXMXMXhXwXqXwXwXwXwXwX=XD.Z.D.D.D.D.D.H.H.G.D.g.k.D.D.D.D.G.K.G.G.G.G.G.G.G.G.G.G.J.H.J.J.G.G.K.K.G.G.G.G.G.G.G.G.G.G.D.k.Z.H.4XwXwXhXMXMXMXMXfXN . @ V J K 4.y.y.y.y.y.y.y.y.y.y.y.y.y.y.y.i.i.d.d.i.y.y.a.M.!.W.f.f.f.f.f.f.f.h.h.f.f.f.f.f.f.f.f.f.a.y.y.y.y.y.y.y.y.y.y.y.y.y.i.d.f.f.i.y.y.y.y.a.d.k.f.G.Y O O _ bXzXqXqX*XW.}.4X9XqX",
">.4.a.i.y.,.>.>.,.4.4.t.y.y.t.t.4.t.t.t.t.y.d.f.f.d.f.k.,.W W W D k > O 5 2XmXmXMXmXMXmXhX9XqXqXwXdXhXhXwXqX6XqXqXqXqXqXwXdXlXlXlXkXzXMXMXzXzXzXgXfXyX8XOXR.B.-._ P B @ . . o ; R.bXMXMXMXzXwXwXwXwXwXwXwXwX|.f.D.D.k.D.Z.D.H.G.D.h.D.k.k.k.D.D.D.D.D.D.D.G.G.G.K.G.G.J.J.J.J.J.J.K.K.G.G.G.G.G.G.G.G.G.G.G.G.D.D.b.|.qXwXdXmXMXMXmXw.@ . 6 J S o.y.y.y.y.y.y.y.y.y.y.y.y.y.y.y.i.f.k.f.f.a.y.y.y.i.D.M.f.f.f.f.f.f.f.f.f.i.y.y.f.f.f.f.f.i.y.y.y.y.y.y.y.y.y.y.y.y.y.y.y.y.y.y.y.y.y.y.y.y.a.i.f.#.@ . 8 2XbXhXqX9X}.G.H.&X0XqX",
">.>.,.,.,.:.>.,.4.4.4.4.4.4.4.t.t.t.t.t.t.t.i.f.f.f.f.g.:.W W J z p @ . Y zXmXmXmXzXhXwX6XqXqXqXqXqXqX9X9XqXqXqXqXqXqXqXqXqXqXqX4X6XaXzXzXjXjXzXzXzXbXmXbXMXMXMXnXzXyXB.< . . L zXMXMXMXMXlXqXwXwXwXwXwXwX4XF.Z.D.D.k.k.D.D.G.D.D.D.D.D.k.k.D.D.D.D.D.h.D.D.D.D.D.G.G.J.E.H.J.H.G.K.K.G.G.G.G.G.G.G.G.G.G.G.G.D.D.D.G.=XwXwXzXMXMX2X8 O @ l D J ;.y.y.y.y.y.y.y.y.y.y.y.y.y.y.a.g.D.k.g.f.f.f.i.i.i.d.f.f.f.f.f.f.a.a.s.a.y.y.y.y.f.f.f.i.y.y.y.y.y.y.y.y.y.y.y.y.y.y.y.y.y.y.y.y.y.y.y.y.i.y.>.O.3 . @ w.bXzXqX0X=XJ.G.G.J.&X&X",
">.>.:.:.:.>.,.t.t.t.4.4.4.4.4.t.t.t.t.t.t.4.t.y.f.g.k.f.@.K J l j y O @ z.MXMXmXkXwX6X6X6XqX9XqXqX=X+X}.|.*XqXqXqXqXqXqXqXqXqX6X4X4X4XwXdXrXsXjXzXzXbXMXMXMXMXbXbXbXbXMX` . . T MXMXMXMXmXdXqXwXwXwXwXqXqX+XD.D.D.D.D.k.D.D.D.D.Z.Z.D.D.k.D.D.D.D.D.h.h.D.D.D.D.D.D.D.H.J.J.W.L.H.H.G.G.G.G.G.G.G.G.G.G.G.G.G.D.k.D.k.+XwXwXlXMXmX_ . O % j D W y.y.y.y.y.y.y.y.y.y.y.y.y.y.y.g.k.D.g.f.f.f.f.f.f.f.h.f.f.f.f.d.a.y.a.s.a.y.y.y.y.y.y.a.y.y.y.y.a.y.y.y.y.y.y.y.y.y.y.y.y.y.y.t.y.y.y.y.t.$.W J a O . N fXbXaXqX9X*XH.G.G.G.G.G.",
">.>.>.:.>.,.4.t.t.t.t.t.t.t.t.t.t.t.t.t.t.t.t.t.a.y.y.>.K D k j j > . 5 8XMXMXmXwXqXqXqXqXqX4X&XW.D.M.M.M.G.&X4X6XqXqXqXqXqXqX4X6X4X4X;X%X<X:X;X0XwXdXhXlXkXbXMXMXMXmXMXQ.@ . N kXMXMXMXzXwXqXwXwXwXwXwX4XH.D.D.D.D.D.D.k.D.D.D.Z.Z.D.D.D.D.D.D.D.D.h.h.Z.D.D.D.h.D.G.D.D.L.!.Y.P.H.G.G.G.G.G.G.G.D.G.G.G.G.G.D.D.D.k.|.qXwXaXmX!.; O @ w t S O.y.y.y.y.y.y.y.y.y.y.t.,.y.y.f.D.g.g.f.f.f.f.f.f.f.f.f.f.f.s.a.a.a.a.s.C.a.a.a.y.y.y.y.y.t.;.o.} O.;.4.y.y.y.y.y.y.y.y.y.y.y.t.,.;.&.+.o.W E F z = . = R.MXhX4XqX0X&XH.G.G.G.G.G.",
">.>.>.>.,.t.t.t.t.t.t.t.t.t.t.t.t.t.t.t.t.4.,.,.y.y.t.O.J z j j p @   Y bXmXmXdXqXqXqX6X4X*XW.M.f.D.D.D.D.b.D.*XqXqXqX6XqXqXqX6X0X6X5X;X%X{.<X:X;X4X4X4XqXqXwXlXmXMXMXMX8X5 . 5 8XMXMXMXkXqX*XqXwXwXqXwX Xb.D.D.D.D.D.D.D.D.h.Z.D.D.D.D.D.D.D.D.D.D.D.D.D.D.D.k.D.G.G.G.H.L.I.Y.L.H.G.G.G.G.G.D.D.M.G.G.G.G.G.G.D.D.D.|.qXwXwXaXP . O & e e A ;.u.u.a.y.y.y.y.y.y.t.O.W >.d.k.D.k.f.f.f.f.f.f.f.f.f.f.d.a.a.s.s.s.s.C.C.s.a.a.y.y.y.y.t.+.J A S S D W +.>.t.a.a.y.y.a.t.;.+.! H D D H K K E S 2 . . T gXkXqX9X9X9X XH.G.G.G.G.G.",
"+.+.$.,.4.t.t.t.t.t.t.4.4.t.t.t.t.t.t.t.4.,.,.,.y.y.;.H D j j j y O O B.MXmXkXqXqXqXqX4X XH.g.D.D.D.D.D.D.D.D.J.&X3X4X4X4X3X*X-X+X+X4XrX<X%X%X;X4X4X9XqX4X4X4X6XhXbXMXmXzXP . = Q.MXMXmXdX4XF.}.=XqX9X+XD.Z.D.D.D.f.h.h.D.D.h.Z.D.D.D.h.d.f.h.D.D.D.h.k.D.D.h.D.G.J.J.H.H.H.H.L.H.G.G.G.G.G.M.D.D.D.G.G.G.G.G.G.G.G.G.|.qXqXqXr.= . # w e e A 2.I.m.*.,.y.y.y.y.t.@.D D Q t.k.D.k.f.f.f.d.f.f.f.f.d.a.4.,.,.6.s.C.C.A.C.s.s.a.a.y.y.t.+.D D D D D D D D H Q @.&.;.&.@.Q J D D J D H J F A z y O . 5 OXbXwX9XqX9X4XJ.G.G.D.D.D.D.",
"v v F $.4.4.t.t.t.4.,.,.,.,.t.t.t.t.t.t.4.,.4.>.,.,.} J z g j j > . 5 2XbXbXwXqXqX6X4X.XG.G.D.D.D.D.D.D.D.D.D.Z.b.D.G.G.G.D.D.M.M.D.oXrXsX<X;X;XqXqX4X+XW.H.|.4X6XlXmXbXMX` . O w.MXmXlXwX-Xb.f.D.W.J.D.Z.D.D.h.d.y.a.d.h.D.D.Z.D.D.f.a.y.y.f.D.D.D.k.k.D.D.D.D.J.J.J.G.G.G.H.H.H.G.G.G.G.D.g.D.h.D.G.G.G.G.M.D.G.G.G.|.qXqX+Xs . O 1 e e r A 2.U.0.~ @.y.y.y.y.$.J D H K O.;.a.d.f.i.>.O.@.a.f.d.y.$.! R W  .%.6.A.'.A.C.s.s.a.a.t.O.D D D D A k k v A D S S D J D S D D D A D A z j u e w # . X ` MXkX9XqXqX9X&XD.D.M.g.g.f.g.",
"v A J E ;.t.t.4.4.,.>.>.>.>.,.4.t.t.t.t.t.,.e.,.>.&.S v t w w e @ . Y kXbXkXqXqXqXqX-XG.G.G.D.D.D.D.D.D.D.D.D.D.Z.k.D.D.D.k.h.Z.Z.D.J.8XfXtXrX6X6X3XW.D.D.D.D.-X0XqXkXmXMXR.@ . Y zXlXwXwX|.f.D.Z.D.h.D.D.D.h.d.y.y.y.y.a.f.h.Z.D.f.a.y.y.y.a.f.h.Z.Z.h.D.D.D.H.J.J.J.G.G.G.G.G.G.G.G.G.D.D.D.D.h.D.K.G.G.G.D.g.D.D.G. XqXqX) . . # e e e t G ~ 3.' ! H ;.y.t.$.H H E W Q } W Q } O.} ! W W O.:.$.} R H G R  .3.7.9.q.S.A.C.s.a.5.} J J J J D v r r r u l v A A S A C v k j j j j p r e e > . . d 8XbXwX9XqX9X9X}.b.D.D.h.h.h.D.",
"v J H J o.t.t.t.,.>.>.>.>.>.>.,.4.t.t.y.t.,.e.,.>.+.C v e w w % o @ z.mXzXqXqX6XqXqXXXG.G.G.G.D.D.G.G.D.D.D.k.D.D.D.D.D.D.D.k.Z.Z.D.G..X8X5XwX4X+XJ.D.D.D.D.Z.|.4X4XwXmXmX2X< . 7 2X7XwXqXJ.M.D.D.D.D.D.D.D.f.a.y.y.y.y.y.y.a.d.i.a.y.y.y.y.y.y.a.f.f.D.G.G.D.G.G.D.D.D.D.D.D.D.G.G.G.D.Z.D.D.D.k.k.D.G.G.G.D.g.k.k.k. XqXQ.< O + w e e e z D R R H J D H } } J H J H F D J H E W W E E W W W H J E R G R R X.7.9.[.[.q.9.7.3.+.E J J S A v l r e e e e e r t t u t r e e t j j g e e e e + . = z.bXzXqXqXqXqX*XD.D.D.D.h.Z.D.h.",
"j v J H K ;.t.,.>.:.>.>.>.>.>.>.,.t.y.y.e.,.,.>.>.+.C l w w w # . 8 8XmXhX6XqXqXqXqX|.D.G.G.G.G.G.G.K.D.k.k.k.D.D.D.D.D.Z.D.D.D.h.D.F.H.J.|. XW.H.D.D.M.k.Z.Z.J.4X4X6XhXmXfXB . @ R.wXwX4XG.D.D.D.D.D.D.D.D.d.y.y.y.y.y.y.y.y.y.y.y.y.y.y.y.y.y.y.y.i.d.D.G.D.D.D.D.D.Z.h.f.h.k.D.D.D.g.D.D.D.D.Z.h.k.G.G.G.D.f.D.D.k.XX4XT O . > e e e t A D D D D D D D D D D J A A l k k z v S H E W E E W H D A k g n R  .7.9.[.[.[.9.7. .W G l j u t r r e e e e e e e e e e r e e e r t t r e e 1 # . . L gXnXlXqXqX9X4XJ.k.D.D.D.D.h.D.D.",
"j j z F H O.,.,.>.>.>.>.>.>.:.>.4.y.a.t.,.>.>.>.>.+.C j w w 1 O X T MXbXhXqXqXqXqXqX|.G.G.G.G.G.G.G.G.G.D.G.D.D.D.D.D.D.Z.h.k.k.D.G.K.D.G.D.G.D.D.M.M.M.D.D.h.G.4X4X6XqXkXbX( . X -.dXwX*XD.D.D.D.D.D.D.D.f.a.y.y.y.y.y.y.y.y.y.y.y.y.y.y.y.y.y.y.y.d.d.d.d.D.D.D.D.D.Z.D.Z.Z.Z.D.k.D.D.D.D.D.D.Z.D.k.D.G.G.D.f.D.D.D.-XB.= O # w e e e r u j l v v v k u t k k l A l l l l l l k z v A F H H D z u t g l m R X.9.q.[.9.7.X...R m n l g t r e e e e e e e e e e e e e w w 1 1 2 1 1 # @ . . . B.MXbXdXqXqX4X|.M.D.D.D.D.D.D.D.D.",
"j j j z J K ;.>.:.:.:.:.>.>.>.,.,.t.y.,.>.:.>.>.>.+.C j w w % O . z.NXzXwXqXqXqX6X4XW.G.G.G.G.G.G.G.G.G.G.K.G.D.D.D.D.D.k.Z.D.G.F.G.J.D.F.G.G.D.M.g.M.D.D.D.D.h.+XqX6X6XeXMXl.@   T wXwX+XD.k.k.D.D.D.D.D.f.y.y.y.y.y.y.y.i.y.y.y.y.y.y.y.y.y.y.y.y.y.a.a.a.d.Z.Z.Z.F.F.D.Z.Z.D.D.D.D.D.D.D.D.D.Z.D.D.D.D.D.k.D.D.D.D.+XV . O % e e e e e e e e e r e e e e e t j l l l l l l l l k l k l z z j r t u g h m R  .3.9.9.7.X.U c h p y y e 2 > > % # # # # # # + + O O + O O O O O O . . . . . d yXbXmXwXqX4XW.D.M.D.D.D.D.G.G.G.G.",
"p j j j A J E &.:.:.;.;.:.:.,.t.,.,.>.>.>.>.>.>.>.+.A u w w + . 5 2XzXdXqXqXqXqX4X|.G.G.G.G.G.G.G.G.D.f.f.D.G.D.D.D.D.k.D.G.G.G.G.G.K.G.Z.G.D.M.g.f.f.k.D.D.D.h.H.*XqXqXqXkXOX; o d 3XqXW.M.D.h.f.f.f.f.d.a.y.y.y.y.y.y.d.f.y.y.y.y.y.y.y.y.y.y.y.y.y.y.a.a.a.Z.Z.Z.A.F.D.D.h.D.D.k.D.D.D.D.f.f.d.d.d.g.f.D.Z.D.D.D.D.=.@ . . # e e e e e e e e e e e e e e e j j j j j j j j j p p p p y y y 2 > > , 2 6 s c U ~ 3.3.~ U f 6 , ; $ @ O . . . . . . . . . . . o @ @ @ @ @ = ; < 5 ; . . . . _ bXmXkXqXqX&XG.G.G.Z.D.D.D.G.D.D.D.",
"> g j j j v v F W E J W ;.:.:.,.,.>.:.:.>.>.>.>.>.+.C t w & O . T fX7X6X4X4XqX4X|.i.D.K.G.G.G.G.G.D.f.f.f.f.D.G.D.k.f.f.f.D.G.K.G.G.K.G.D.D.D.Z.D.d.a.d.h.D.D.D.k.J.*XqX6XwXyX7 . < Q.4XD.G.h.d.a.a.a.y.y.y.y.y.y.y.y.i.f.f.y.y.y.y.y.y.y.y.y.y.y.y.y.a.a.a.s.C.A.A.S.Z.F.D.f.s.d.d.f.f.f.s.a.y.a.d.d.d.d.d.f.D.h.h.1.< . . . O > 1 1 1 1 1 1 1 > > > > % # # > - - - # - @ @ @ @ @ @ @ @ . @ . o o @ $ $ 4 a f c ~ U c f 6 4 ; : ; : : 5 7 d B V P P T ( ` =.w.l.z.B.B.R.~.@X2X2X~.P . @ @ B.bXbXwX9X9X|.G.G.G.D.g.k.D.G.D.D.k.",
"O > p g t r z v v v v v E ;.:.:.,.>.>.>.>.>.>.>.:.} v r w % @ @ r.qX4X6X6X4X XD.d.a.f.K.G.G.G.G.G.f.f.f.f.f.f.f.f.f.f.f.f.f.D.K.G.G.G.K.D.D.D.D.h.a.y.y.f.k.D.D.D.D.J.=X6X6XkXT . @ r.|.D.D.d.a.y.y.y.y.y.y.y.y.y.y.a.f.f.f.i.i.a.y.y.y.y.y.y.y.y.y.y.a.s.s.C.C.S.'.'.A.Z.f.a.y.y.y.y.y.y.y.y.y.a.d.a.i.y.y.y.d.h.D.G . . . . O O @ @ @ O . . . . . . . . . . . . . . . o @ @ @ = = ; ; < 5 8 7 d B L P Y T ` -.2.n.l.l.m.V.Q.!.~.OX#X2XtXrXyXgXgXgXkXkXbXbXbXbXbXbXMXMXMXMXMXMXMXMX8Xd O # Q.mXdXqX9X9X}.G.G.G.G.D.D.G.G.D.D.D.",
"@ O - e w w r v v v v v v ! :.:.:.:.>.>.>.>.>.:.;.H z r w # . 5 oXqX6X4X|.E.f.i.f.g.f.G.K.G.G.G.D.f.f.f.f.f.f.f.f.f.f.f.f.f.f.D.K.K.G.G.D.D.D.D.f.a.y.y.a.f.D.D.D.D.k.W.4X4XdXw.  @ T F.D.f.a.y.y.y.y.y.y.y.y.y.y.a.f.f.f.f.f.f.a.y.y.y.y.y.y.y.y.y.y.y.a.s.C.'.[.[.'.C.s.a.a.y.y.y.y.y.y.y.y.a.i.i.i.y.y.y.y.y.d.,.; . . . X . . . @ @ $ = ; < 8 7 d d N L P T ( _ ` =.w.r.z.B.R.!.~.~.$X2XrXyXfXfXzXzXzXMXcXcXcXvXcXcXcXcXMXMXMXnXMXmXzXkXlXhXdXwXwXeXdXkXbXbXMXMXMXMXMXMXMXMXMXMXbX( O - ~.zXqX9X9X4XW.G.G.G.G.J.G.D.D.h.D.D.",
"-.$ O # & w w t v v v v v n W ;.:.:.>.>.>.>.>.>.@.A z w 1 @   P 4X6XqX&XG.G.f.f.g.f.f.f.D.f.f.f.a.d.f.f.f.f.f.f.f.f.f.f.f.i.a.d.G.K.G.G.G.D.D.D.d.y.y.y.y.d.h.D.D.D.D.D.-X4XqXF.@ . d f.D.i.y.y.y.y.y.y.d.y.y.y.y.d.f.f.f.f.f.f.y.y.y.y.y.y.y.y.y.y.y.y.a.s.C.S.[.[.'.A.s.a.y.y.y.y.y.y.y.y.a.d.d.d.a.y.y.y.y.y.a.! @ o @ L -.z.B.R.R.!.~.OX2X8XtXyXyXfXfXgXkXbXbXbXMXmXMXMXMXMXMXMXMXMXMXMXMXMXMXmXmXmXbXcXzXzXkXjXzXzXzXzXzXzXkXlXdXqXqX9X9X9X9X9X9X4X4X9XwXzXMXMXMXMXmXmXMXMXMXMXmX_ O - ~.zXqXqXqX4XJ.G.G.H.J.J.J.G.D.D.D.D.",
"kX-.= . # 1 w w g v v v v v v E ;.:.:.>.>.>.>.>.Q v k w % . X r.wX6XqX.XG.G.M.f.f.f.f.f.d.d.a.y.y.d.f.f.f.f.f.f.f.f.f.f.i.y.y.y.f.D.G.G.G.G.D.h.a.y.y.y.y.y.f.D.D.D.D.f.|.qX4X+X5 = 8 y.f.y.y.y.y.y.y.f.f.d.i.y.i.f.f.f.f.f.f.f.a.y.y.y.y.y.a.i.y.y.y.y.a.s.s.A.'.'.'.C.C.s.a.y.y.y.y.a.d.d.p.d.a.a.y.y.y.y.y.y.,.s . . Y zXNXNXNXNXNXNXNXMXMXMXmXbXbXMXMXMXmXMXMXMXMXMXMXMXMXMXMXMXMXMXMXMXMXmXkXdXdXaXaXwXwXaXwXwXdXaXaXaXwX6X9X4X4X4X9X9X9X9X9X9X9X9X9X9X9XqXkXbXzXhXwXqXhXMXMXMXMX_ O - ~.zXqX9XqX=XH.G.G.J.J.J.J.J.D.k.k.D.",
"wXhXw.= . @ & w w g v v v v v v E ;.:.:.>.>.:.;.J v u w @ . < |.6X4X Xg.H.G.f.f.f.f.d.i.y.y.y.y.y.i.f.f.f.f.d.f.f.f.f.f.y.y.y.y.a.f.D.G.G.G.G.f.y.y.y.y.y.y.a.f.D.D.D.h.J.4X9X=XV ; = *.d.y.y.y.y.y.i.f.f.f.f.d.f.f.f.f.f.f.f.f.d.y.y.a.i.f.f.d.y.y.y.y.y.a.s.C.S.A.C.s.a.a.a.y.y.y.y.i.D.F.M.f.a.y.y.y.y.,.;.$.E @ . @ !.NXmXMXMXMXMXMXMXMXMXkXwXqXwXkXmXMXMXMXMXMXMXMXkXkXzXMXMXMXMXMXMXbXlXwX6X4X4X0XqXqX4X4X;X9X9X9X4X4X4X4X9X9X9X9X9X9X9X9X9X4X4X4X9X9X9X9X9XqX9X4X9X9XqXkXMXMXMX_ O - ~.bXwX9XqX+XG.G.J.J.J.J.J.J.G.D.D.D.",
"9X9XdXw.; . @ 1 w w u v v v v v v ! :.:.:.:.:.@.A v r 1 O . Y 3X-XE.i.p.f.M.f.f.d.i.y.y.y.y.y.y.y.y.d.d.i.a.y.i.f.f.f.a.y.y.y.y.y.a.f.D.G.G.G.f.i.y.y.y.y.y.y.a.f.h.D.D.D.*X0X0X) : @ Y i.y.y.i.y.a.f.f.f.f.f.f.f.f.f.f.f.f.f.f.f.f.f.f.f.f.f.i.y.y.y.y.y.a.a.s.C.s.s.s.a.y.y.y.y.y.a.f.P.@XQ.F.u.y.,.+.E S A z e O O 7 tXMXMXMXMXMXMXMXMXMXlX0X4X4X4X4XwXkXbXMXMXMXmXhX6X9XqXhXzXmXzXkXdXqX4X6X9XqXqX9XqXqX4X9X4X9X9X4X4X4X4X9X9X9X9X9X4X*X+X}.J.F.G.J.}.=X9X9X9XqXqX9X9X9X9XdXMXMXMX_ O - ~.kXqX9X4XW.J.J.G.G.J.G.G.G.G.K.K.G.",
"qX9XqXkXl.= . O & w w r k v v v v C O.:.:.:.:.O.A z w % . o *.G.a.a.p.d.f.d.d.a.y.y.y.y.y.y.y.y.y.y.y.y.y.y.y.a.f.f.d.y.y.y.y.y.y.y.i.f.D.G.k.f.f.d.y.y.y.y.y.y.a.d.h.D.h. XqXqXl.5 @ d a.y.y.f.d.f.f.f.f.f.f.f.f.f.f.f.f.f.f.f.f.f.f.f.f.f.f.i.y.y.y.y.y.y.a.s.s.a.a.y.y.y.y.y.y.y.i.H.!.$XQ.f.,.@.F v v v v u % . . P zXmXMXMXMXMXMXMXmXhX9X9X9X9X9X4X4XaXdXhXkXkXwX9X9X9X9X9XqXqXqX9X9X9XqXqXqXqXqX9X9X9X4X9X9X9X4X4X9X9X4X9X4X*X+X}.H.D.D.f.f.f.h.h.f.}.9X9X9X9X9X9X9X9X9XwXmXmXmX_ O - ~.dX9X9X&XJ.H.D.D.D.G.D.D.G.G.G.G.K.",
"*X9X9XqXhXz.: . @ & w w w t z v v v F &.:.:.:.O.C j w # . ; ;.y.a.d.i.d.i.y.y.y.y.y.y.y.y.y.y.y.y.y.y.y.y.y.y.y.f.f.y.y.y.y.y.y.y.y.y.y.a.a.d.d.f.f.d.y.y.y.y.y.y.y.a.f.f.J.4XqXQ.7 @ < <.y.a.f.f.f.f.f.f.f.f.f.f.f.f.f.f.f.f.f.f.f.f.f.f.f.f.f.f.y.y.y.y.y.y.a.a.a.y.y.y.y.y.y.y.f.f.D.H.L.v.1.;.F v v v v k w # . @ w.mXMXMXMXMXMXbXkXaXwXqXqXqX9X+XJ.W.*XrX6X4X9X9X9X9X9X9X9X9X9X9X9X9XqXqXqXqXqX9X9X9X9X4X*X.XJ.H.J.J.E.W.J.J.D.M.g.M.M.D.D.D.D.D.D.D.D. X4X9X9X9X9X9X9X9XqXmXMXmX_ O - Q.qXqX=XJ.J.G.g.d.d.M.k.k.D.D.G.G.G.",
"J.+X9XqXqXwXr.= . @ & w w w w j v v v Q :.:.:.} v u & O . f y.a.p.d.p.d.a.y.y.y.y.y.y.y.y.y.y.y.y.y.y.y.y.y.y.y.f.a.y.y.y.y.y.y.y.y.y.y.y.y.y.y.y.y.y.y.y.y.y.y.y.y.y.d.d.d.W.qX3Xd @ = ) ;.4.f.f.f.f.f.f.f.f.f.f.f.f.f.f.f.f.f.f.f.f.f.f.f.f.f.f.i.y.y.y.y.y.y.y.y.y.y.y.y.y.a.a.d.i.y.y.y.y.,.O.C v v v k w 1 O o ; !.MXMXMXMXmXkXaXwXwXwXwXqXqX XH.H.G.J.+X9X9X9X9X9X9X9X9X9X9X9X9X9X9XqXwX9X&X4X9X9X9X4X|.D.b.b.b.f.d.d.i.d.f.D.D.D.D.D.D.Z.Z.D.h.D.D.k.D.J.W.}. XXX*X9X9XqXbXMXmX_ O - Q.9X9X}.D.g.d.a.y.a.f.k.D.D.D.D.G.d.",
"D.D.W.*X9X9X4Xr.< . @ & w w w w u v v A @.:.:.} v r % O . ~ d.d.i.d.y.y.y.y.y.y.y.y.y.y.y.y.y.y.y.y.y.y.y.y.y.y.y.y.y.y.y.y.y.y.y.y.y.y.y.y.y.y.y.y.y.y.y.y.y.y.y.a.a.i.d.d.i..XqXT . @ s A } f.f.f.f.f.f.d.i.a.i.f.f.f.f.f.f.f.f.i.i.d.f.f.f.f.f.f.i.y.y.y.y.y.y.y.y.y.y.y.u.V.f.i.,.,.>.>.,.,.Q v v v z e w 1 O . 7 rXMXMXMXbXdXwXwXqXqXwXwXqX*XJ.H.H.G.G.J..X&X*X-X&X&X-X=X9X9X9X9X9X9X3X+XJ.M.J.&X*XXXJ.M.f.f.d.a.a.y.y.y.y.y.i.f.D.D.D.D.D.D.D.D.D.D.D.D.h.D.h.D.D.D.}.=X9XkXMXmX_ O - H.9X&XD.g.a.a.y.y.y.f.D.D.D.D.D.h.a."
};
