/* XPM */
static char *_c368c9f1cf14488935934c23c52cfa3xPNp0wFyPMzAnmnG[] = {
/* columns rows colors chars-per-pixel */
"256 256 242 2 ",
"   c #1A0C0E",
".  c #170B0D",
"X  c #1C0E11",
"o  c #1E1114",
"O  c #1F1319",
"+  c #1F100F",
"@  c #200F12",
"#  c #221214",
"$  c #23161B",
"%  c #28171C",
"&  c #26191D",
"*  c #2A1A1D",
"=  c #281617",
"-  c #2C1819",
";  c #231721",
":  c #241922",
">  c #2A1C25",
",  c #2C1F29",
"<  c #271D28",
"1  c #311E23",
"2  c #311F2A",
"3  c #2E2125",
"4  c #2D202A",
"5  c #2E2A2F",
"6  c #322225",
"7  c #32242D",
"8  c #3A262B",
"9  c #35292D",
"0  c #3A2A2E",
"q  c #3B2425",
"w  c #2F2530",
"e  c #342631",
"r  c #392732",
"t  c #352933",
"y  c #3A2B35",
"u  c #362C39",
"i  c #3B2D3A",
"p  c #352639",
"a  c #3D3036",
"s  c #3D323C",
"d  c #373039",
"f  c #3A312B",
"g  c #432A2C",
"h  c #422D35",
"j  c #432E39",
"k  c #4A2F32",
"l  c #423236",
"z  c #42333C",
"x  c #4B343D",
"c  c #46393E",
"v  c #4A373A",
"b  c #54373B",
"n  c #603F3F",
"m  c #3D2E41",
"M  c #3D3542",
"N  c #3F3843",
"B  c #422F41",
"V  c #423542",
"C  c #4B3642",
"Z  c #443945",
"A  c #4A3C45",
"S  c #45344A",
"D  c #49364D",
"F  c #473B49",
"G  c #473B49",
"H  c #4A3D4B",
"J  c #543B44",
"K  c #5A3E45",
"L  c #533D47",
"P  c #4C3C52",
"I  c #4C3A55",
"U  c #523E5A",
"Y  c #513C54",
"T  c #613F44",
"R  c #4C414E",
"E  c #4C4147",
"W  c #52444D",
"Q  c #5C424A",
"!  c #58474C",
"~  c #4E4351",
"^  c #4F4658",
"/  c #524553",
"(  c #554956",
")  c #5A4C55",
"_  c #54455B",
"`  c #574B59",
"'  c #584C5A",
"]  c #584C5A",
"[  c #5A4555",
"{  c #5D515E",
"}  c #5C5157",
"|  c #63454C",
" . c #68474B",
".. c #644B54",
"X. c #6C4C53",
"o. c #634D5A",
"O. c #62525E",
"+. c #6B535C",
"@. c #65575C",
"#. c #7A555B",
"$. c #775358",
"%. c #714E54",
"&. c #5A4564",
"*. c #564961",
"=. c #5C4D63",
"-. c #5E4C6A",
";. c #584463",
":. c #5E5261",
">. c #5F5664",
",. c #614D6C",
"<. c #664D64",
"1. c #625563",
"2. c #6A5563",
"3. c #645A64",
"4. c #6B5B65",
"5. c #63536B",
"6. c #665C69",
"7. c #6A5D6B",
"8. c #725A66",
"9. c #745D69",
"0. c #7A5C65",
"q. c #644D73",
"w. c #665373",
"e. c #695675",
"r. c #6B5A74",
"t. c #6B547B",
"y. c #6D5A7B",
"u. c #675478",
"i. c #715E7D",
"p. c #715C76",
"a. c #6C626C",
"s. c #6B6268",
"d. c #72646D",
"f. c #7D626C",
"g. c #75686C",
"h. c #6E6471",
"j. c #6F6874",
"k. c #716673",
"l. c #746A74",
"z. c #7A6C75",
"x. c #756C79",
"c. c #7A6E7A",
"v. c #796475",
"b. c #7B727C",
"n. c #7A7278",
"m. c #504125",
"M. c #84595D",
"N. c #845C62",
"B. c #885F66",
"V. c #82636D",
"C. c #8B6268",
"Z. c #95676B",
"A. c #886973",
"S. c #966D75",
"D. c #84767D",
"F. c #99737B",
"G. c #A7757A",
"H. c #B37B7E",
"J. c #A16E71",
"K. c #957316",
"L. c #F2B104",
"P. c #AB8212",
"I. c #6F5781",
"U. c #725C84",
"Y. c #755B89",
"T. c #7A5F90",
"R. c #7B638C",
"E. c #796586",
"W. c #7E7481",
"Q. c #7F7488",
"!. c #7D6493",
"~. c #817683",
"^. c #847A85",
"/. c #867C89",
"(. c #8A7E8B",
"). c #8A7A86",
"_. c #997984",
"`. c #846A9C",
"'. c #826796",
"]. c #8A7798",
"[. c #8D7392",
"{. c #A77B84",
"}. c #B57D81",
"|. c #A47E95",
" X c #896DA4",
".X c #8D72A7",
"XX c #9377AB",
"oX c #9879B7",
"OX c #9E7EC1",
"+X c #A07FC4",
"@X c #8C838C",
"#X c #898288",
"$X c #93868D",
"%X c #8E8491",
"&X c #8F8A91",
"*X c #918592",
"=X c #948A95",
"-X c #968C9A",
";X c #998D9B",
":X c #96869A",
">X c #9C939D",
",X c #9A9397",
"<X c #AA848B",
"1X c #B78389",
"2X c #B98A93",
"3X c #A6949C",
"4X c #AD8F98",
"5X c #9C8CA5",
"6X c #9E93A1",
"7X c #9C83B4",
"8X c #A196A3",
"9X c #A39AA4",
"0X c #A69BA9",
"qX c #A99DAC",
"wX c #A494A9",
"eX c #AB91B4",
"rX c #ABA3AB",
"tX c #A9A3A8",
"yX c #AFA3B1",
"uX c #B3ABB3",
"iX c #BAB5B9",
"pX c #B2AAAE",
"aX c #C5898C",
"sX c #C78D92",
"dX c #C89598",
"fX c #D69597",
"gX c #E39C9D",
"hX c #CB96A6",
"jX c #E49FA1",
"kX c #C8B2B6",
"lX c #EBA2A3",
"zX c #F3A7A8",
"xX c #A483C8",
"cX c #B493C5",
"vX c #BCADC8",
"bX c #C3BAC6",
"nX c #C9C5C9",
"mX c #D1CDD2",
"MX c #DAD6D9",
"NX c #D0CCCF",
"BX c #E1DEE0",
"VX c #ECEAEB",
/* pixels */
"L.L.m.5 e t M G G G G G G G G G G G F ( ' ' ` ( ( ( ` ' ' ' ' ' ' ' ` R ~ 7 + # : : : : : : : : : : : : > > > 4 y e 4 : : : : $ X X V M G F G F ( ` ` ` ~ G F / H G G G G G G G G G G G G G G G G G G G G G G G G F ` ] >.3.:.' ' ( ~ t # > , , 4 4 4 4 > # 7 F G G / ` ' ' ' ' ' ' ' ' ' ' ' ' ' ' ' ' ' ' ' ' ' ' ' ' ' ` ' ] :.:.W s e e t G G G G F H ~ / ~ G y o X X o 3 7 4 4 t Z G F F F F G s u u t t e e e 5 4 4 4 4 4 4 4 e u s V s V s s s s s s s s s s s s s s s e , > $ X O : : : : > > > : : : : : : : : : : : : ",
"P.K.f e 5 5 V G G G G G G G G G G R ( ' ' ' ' ' ' ' ' ' ' ' ' ' ' ' ` R ~ 7   O : : : : : : : : : : : : : ; < 4 y t > : : : : $ X o s M ~ ~ G G G F / ' ( G G G G G G G G G G G H / / ~ F G G G G G G G G G G G G H ] :.:.1.:.' ' ( R t # & , > , 4 4 4 > # 9 R R H ( ` ' ' ' ' ' ' ' ' ' ' ' ' ' ' ' ' ' ' ' ' ' ' ' ' ' ' { :.3.:.( G M F ( F G G G / ` ' ' ` ~ s # # # # 3 e e e e t t t t t t e , , , > > > > > > > , , , , > 4 t t 7 e , , , 4 4 4 4 4 5 5 e e e t u t 5 , , > O X O < , , 4 4 4 4 4 , : : ; ; : : > , > : ",
"9 9 5 t 5 u G G G G G G G G G F / ` ' ' ' ' ' ' ' ' ' ' ` ~ ( ' ' ' ` R R >   O : : : : : : , , : : : > > 4 e e y t , : : : : $ X X u M G F F G G F ( ' ( F G G G G G F F F G F ( ' ' ` ` ~ G G G G G G G G G G F ( 1.1.:.1.{ ' ' ` ~ y # & , , 4 4 4 4 > # 9 ~ ` ` ' ' ' ' ' ' ' ' ' ' ' ' ' ' ' ' ' ' ' ' ' ' ' ' ' ` ] 3.1.:.:.' ' ` ` ' ` H G G H ` ' ' ' ( R s # # # # # = $ & * > > > > > > > : : : : : : < < > > > > > > 5 4 t t 7 , , , , , , , > > > > > > > > , > > > < : O X & , , , , , , , , , , > > > , , 4 , , : ",
"t t 5 e t V G G G G G G G G G ~ ' ' ' ' ( ~ ~ ( ` ' ' ' / G F ( ` ' ( ~ R >   O : : : : : : > : ; : 4 4 7 t y t t e > : : : : $ X X t M Z ( ` R G R ' ' ( G G G G G H ( ( ( ( ` ' ' ' ' ' ` ~ G G G G G G G G H ] 1.:.:.] ' ` ' ' ` ~ y # $ , 4 4 4 4 4 > # t / ` ' ' ' ' ' ' ' ' ' ' ' ' ' ' ' ' ' ' ' ' ' ' ' ' ' ' { ] 3.1.:.' ` ' ` ` ' ` ( R R ( ' ' ` ` / R s # # # $ $ $ $ $ & & $ $ $ O O X X X X X X X X X o X O O O O 3 > 3 $ # O # # O $ $ $ $ $ $ $ $ $ $ $ $ # # # # # # $ , , : : : : : : > , , 4 4 4 4 4 4 4 4 , ",
"5 e 5 t V G G G G G G G G G G ~ ` ' ' ' H G G G H ~ / ~ F G G F ( ' ( R G &   O : : : : : : : : : > 7 u t t t 7 4 , : : : : < : X X t M Z H / R G F ( ' ( R F G G G ( ` ' ' ' ' ' ' ' ' ' ' / G G G G G G G R ( 1.1.:.] ' ' ' ' ' ` ~ y # = , 4 4 4 4 4 > # y ~ ` ' ' ' ' ' ' ' ' ' ' ' ' ' ' ' ' ' ' ' ' ' ' ' ' ' ' 1.1.3.] ' ` ' ' ' ' ' ' ' ' ' ' ' ' ` / R R s # # # > , , , , : : : : : : ; & $ $ $ $ $ $ $ # O O O O O O # * # o X o X X X O O O O $ $ $ $ $ $ $ $ $ $ : > 6 6 , , > : : : : : : : : > , 4 , , , , , 4 , ",
"5 t u V G G G G G G G G G G G G F R ~ ( H G G G G G G G G G G G R ` ( R V O   O : : : : : : : > , 7 7 y y t 7 , , , : : > , 4 > # o u M G G G G G H ( ' ' ' ( F G G H ` ' ' ' ' ' ' ' ' ' ' / G G G G G G G ( :.3.{ { { { { { { ' ` ~ y # = , 4 4 4 4 4 > # 9 ~ ` ' ' ' ' ' ' ' ' ' ' ' ' ' ' ' ' ' ' ' ' ' ' ' ' ' ' ' :.] ' ' ' ' ' ' ' ' ' ' ' ' ' ' ` / R R R y # # $ 4 3 > & O O O O O O O O O O O o X X X X X X X X X X X X X X X X X X X X X X X X $ : ; : : : : : : : 4 7 t 7 4 4 , > > > , : : : : : : , , , : : > 4 , ",
"Z Z G G G G G G G G G G G G G G G F F ~ F G G G G G G G G G G G G / ( R s $ X O : : : : : : : : , y y u 7 4 , , , : : > 4 4 4 > # # u N G G F R ( ` ' ' ' ' ` R G G G R ` ' ' ' ' ' ' ' ' ' / G G G G G G G H ] 1.:.1.3.1.1.6.] ' ( R y # # > 4 4 4 4 4 > # 6 / ( ( ` ` ' ' ' ' ' ' ' ' ' ' ' ' ' ' ' ' ' ' ' ' ' ' ' ' ' ' ` ' ' ' ' ' ' ' ' ' ' ` ` / R H R F s > = = * 4 * # # X                       X X X X X X o O O O O # # # # O O X X X   X X   X : : : : : : : ; 4 t y y t 4 4 4 4 4 4 4 > : : : : : : : : : : : : : ",
"Z Z G G G G G G G G G G G G G G G ~ / H G G G G G G G G G G G G G F / R y # # $ : : : : : : : ; : > e 7 4 4 4 4 , : : : 4 4 4 , # # u Z G G / ` ' ' ] ] ` ' ` H G F H G ~ ' ' ' ' ' ' ' ' ' ( H F ~ ( F G G F ' a.7.a.k.k.c.3.{ ' ( R t # X > 4 4 4 4 4 > = 3 R / ~ ~ / ( ( ` ` ` ' ' ' ' ' ' ' ' ' ' ' ' ' ' ' ' ' ` ` ` ` ( ( ~ ( ( ( ( ( ( ~ R H Z s s s t 7 7 > * * > 6 = # $ 6 7 t y a z Z A A A A A E E E W ( ( } >.3.6.a.a.a.a.a.a.s.6.@.) E >   X X $ : : : : : : < 7 y e e 4 4 4 4 4 4 4 4 , : : : : : : : : : : : : : ",
"s M Z G G G G G G G G G G G G G G G G G G H H G G G G G G G G G G G G F t # # $ : : : : : : : : : > , 4 4 4 4 4 , : : : , 4 4 , # $ s Z G G / ` ] ] 1.] ] ` ` ~ G H / / / ' ' ' ' ' ' ' ' ' ' ' ( ' ` H G G F ' a./.*X,X,X^.6.>.] / H 6 # X > , 4 4 4 4 6 * 7 V ~ R R R R R ~ ~ / / ( ( ` ` ( ( ( ( ( ( ( ( ( ( / / / / ~ H Z M M N H R R R H M M M s u w 4 , 4 > * * % * $ # y c.b.b.l.6.>.' / R R G G Z Z Z G G Z Z Z Z G H R R ~ ~ ( ' { >.>.3.h.( . X X O : : : : : : > e e e 4 , 4 4 4 4 4 4 , : : : : : : : : : : : : : : ",
"t s s Z G G G G G G G G G G G G G G G H F ~ H H G G G G G G G G G G M s 4 # # : , > , , : : : : 4 4 4 4 4 4 4 4 4 , : : , 4 4 , # O s Z G G ~ { 1.1.1.:.' ` ' ` ( F G / ' ' ' ' ' ' ' ' ' ` ( H H ( / G G F ~ >.a.(.iXmXiXb.{ { ] ~ G > # # > , 4 4 4 7 9 1 > y t u i s V V V G G G G F F H F F G G H R R R R R R R H G V s s s s s V G G G s t e 5 4 , < < : & $ * * $ = $ = c.(.>.H M M M s M M M M M N G G G R R G Z G Z Z Z Z Z Z Z G G G G Z ' >.  X X O : : : > , 7 t y e , 4 4 4 4 4 4 4 4 , : : : : : : : : : : : : > : ",
", 4 u M M Z G G G G G G G G G G G G H / / / ~ F G G G G G G G G G G s u : o # > 4 4 4 , , , : : : , 4 4 4 4 4 4 4 4 , , 4 4 4 : X $ s Z G G ' :.3.{ :.' ` ' ' ' ` F F ( ' ' ' ' ' ' ' ' ' ' ( H G F F G G R ' 1.a.#XiXMXnX^.( { ' ~ z > # # > , 4 4 , 7 9 * % & 7 7 7 9 9 9 e t t t t t t y e 4 4 4 e u u i V u u u e 5 7 7 7 7 7 4 4 4 e t e 4 > & $ $ O o   # * > % # % $ * ).{ M M M N Z Z Z Z Z Z G G P _ *.=.=.' ^ H G G G G G G G G G G G Z ( 3.  X   O : : > , e y e 7 4 4 4 4 4 4 4 4 4 4 4 , : : : : : : : : : : : : : ",
"> > 4 e s M Z G G G G G G G G G G H ~ ( R ~ G G G G G G G G G G G G s e $   X : , 4 4 4 4 4 , > : > 4 4 4 4 , > > > , , , , < : o $ s Z Z G ' >.:.{ ` ' ' ' ' ' ( F H ` ' ' ' ' ' ' ' ' ' ' ' ( G G G G ~ ` ] >.7.W.tXrX9X#Xa.1.( R y * # # > , 4 , 7 y y > $ # 7 y # $ $ $ $ & & & $ & * & $ $ $ $ $ & > t V > > : : : : : > : : ; & $ $ & $ # # # X     X # * = % # # * $ * z.G M Z G G G G G G G A G D ~ *.U.Y.U.5.^ H G G G G G G G G G G G Z ~ 7.X     O : : > e t y e , 4 4 4 4 4 4 , , , , > : : : : : : : : : : : : : : ",
"X & , , 4 u s M Z G G G G G G G G H / ~ R G G G G G G G G G G G G G s 5 #   X $ : , 4 4 4 4 4 4 , , , 4 4 4 , > : : : : , , : : O # s M M Z ( { ] ` ` ` ' ' ' ' ( F F ( ' ' ' ' ` ` ` ( ( ( ( R Z Z Z ~ ` ' ' { 3.b.^.^.b.x.l.3./ V e & # # > , , 7 y e 7 6 > * & y > # # # # # # X     X         X X X X s i   X X X X X X X X X X X X X # # # # # X X   # $ * # X # = > $ * 6.Z Z G V 7 t G G G V u V H ~ -.!.oX`.,.( R F G G G G G G G G G G Z R k.o     o : : 7 y t y e , 4 4 4 4 , , : : : : : ; : : : : : : : : : : : , , ",
"O X $ > > , 7 u M Z G G G G G G H / / ~ F G G G G G G G G G G G G G s 4 O   X $ : , 4 , , , , 4 4 4 4 4 4 4 4 , : : : > , , : : O O u s Z G Z R ~ ~ ~ ~ / / / / ~ Z V Z F R ~ ~ ~ ~ ~ R R R H Z s s Z R ~ ~ ( ` 3.a.7.7.7.3.1.{ R y e $ # # > , 7 t y t 4 , , 3 : 4 i , > > > * $ O O O O O X X X X X X $ R y   # 6 > X X X X X o # # # # # o X X X X X $ & * 9 z 7 : > , $ $ 3.Z N G G z V G G G t , s H ~ =.R. X!.-.~ R F G G G G G G G G G G R ' ^.$ X   o > 7 t y e t 7 , 4 4 4 4 , : : : : : : : : : : : : : : : : : > , , ",
"} 3   O : > > 4 e s s Z G G G H / R H F G G G G G G G G G G G G G Z u > o X X $ : , > : : : : , 4 4 4 4 4 , , : : : : > , , : : O O e N Z H G Z R R R R R R ~ ~ R G s s s u u s s s s u u u u t e u M G F R R ~ ' ( ' ] { ] ' / V t e $ # # > e t t t t 4 4 4 4 > > e u , 4 4 4 : : > 7 > : $ $ ; ; ; $ t F y $ , I u ; ; ; $ $ > > > > > : ; ; ; : : > 4 4 u F ( u : < < # $ >.Z N G G G G G G G u t G H ~ =.5.w.5.=.P H G G G G G G G G G G / ` ' ^.% # # % y y t t 4 4 , 4 4 4 4 4 , : : : : : : : : : < : : : : : : : , 4 4 ",
"~ 6.A $ X $ > > , 5 u s N Z H ~ / ~ G G G G G G G G G G G G G G Z M e > # o # : : : : : : : : : , 4 4 4 4 , > : : : : : > , : : O $ e Z G H G M G H F F G G V s u u e 4 4 , , > > 4 9 t e e e t e t t t t y u s V V G G F F F V t e e $ # = 6 y y e t 7 4 4 4 4 > > > y t , 4 , < > l %.r : : : : : : : A s y $ < w , : : : : : : , , , , , , : : < e 4 4 s M M / e : : : O O { Z N G G G G G G G G G G F ~ / / _ ~ / ~ F G G G G G G G G G H ' ` ( ~.% # % * y y e 4 4 , , , , , , , : : : : : : : : > , , , > : : : : , 4 4 4 ",
"G G 6.3.7   O : > , , e s Z R R ~ ~ G G G G G G G G G G H F G Z M M e 6 # # o : : : : : : : : : , , 4 4 4 4 , > : : : : : : : : O & 9 s s G s t y y y t t e e , > 4 4 , , , , , , , , e e t t t t t t t t p e t t t t t t t t e e 7 > # = 6 t t t 4 4 , 4 4 4 4 4 , > 4 V e 4 , > > x $.h > : : : : : i R 7 y $ : : : : : : : : : ; : : : > , > , , 7 5 s y y u F 4 : : : O # } Z M G G G G G G G G G G H H H H H H H H H G G G G G G G G G / ' ' / b.* # > 3 y 7 4 , , : : : : : : : : ; : : : : < , 4 , 4 , , : ; : > 4 4 4 4 ",
"G G Z ' h.E $ X $ > , 4 e V G G G Z M Z G H H F G Z Z F ~ ~ H F G s e 3 # X   $ : : : : : : : : , , 4 4 4 4 4 4 4 , > : : : : < 3 > 7 7 4 , , > 4 7 9 7 7 7 7 > > > > > > > > > 4 > & & > > > > > > > > > > > > * > * * * * * $ $ = # % = > t e 4 , 4 4 4 4 4 4 4 , > > t G 7 , , > , 9 > : : : : : 7 H F 7 z ; : : : : : : : : : : : : : : : : 7 7 e u t t s & F > : : : # o } Z M G G G G G G G G G G G G G G F G G G G G G G G G G G H ( ` ' ' / c.> # # > 6 4 4 , , : : : : : : : : : > > , , 4 4 4 4 4 e 7 , : > 4 4 4 4 4 ",
"G G G Z G >.{ t X O > y 9 t s s M M M M H ~ ~ R F Z Z H R F G V y e 7 &   X X $ : : : : : : : : , 4 4 4 4 4 4 4 4 4 4 , : : 4 > 3 & & > > # O X X # $ = = $ # X X X X X # # # # # # X   X # # # # = * * # # # 0 3 # # # # # # # # # # * > 7 7 4 4 4 4 4 4 4 4 4 4 4 , > > F F 7 , , > : : ; : : : > L +. .h V : : : : : : : : : : : : : : : : ; : 7 u 5 4 s & : F > : : : O o ( G M G G G G G G G H F ~ / F G G G G G G G G G G G G G G H ` ' ' ' ~ k.> # # = 4 , 4 4 , : : : : < , , , 4 4 4 , , , 4 4 7 7 t 7 7 , 4 4 4 4 4 4 ",
"G G G G Z M Z G 7 * & 7 9 7 4 s M M M M M M Z G G Z V s u t 4 4 4 4 , #   X X $ : : : : > , , , 4 4 4 4 4 4 4 4 4 4 4 , : : 5 7 4 $ > S D & X X X   @ # # # X X X X X X X # # = $ $ O O O & & * > 8 b v 1 % * 6 i z 7 > > & & & $ $ $ $ 3 , , , 4 4 4 4 4 4 4 4 4 4 4 , > i ( V e , : : < : : ; : i L H.H.x G > ; : : : : : : : : : : : : : : : < t 4 , s > > > F ; ; : : $ o ) ~ H R ~ H G G H H ~ / ' ( F G G G G G G G G G G G G G G R ` ' ' ` ~ 7.> # # # , 4 4 4 , > > , , 4 4 4 4 4 4 4 4 4 4 4 e t y y t 4 4 4 4 4 4 4 4 ",
"M M N V Z N s s M z 9 > & > , w e e 5 4 4 4 , , 7 e e e e 4 > , , , > O   X X $ : : : : : > , , 4 4 4 4 4 4 4 4 4 4 4 4 , > : 4 : ; e q.u.p ; $ & $ $ $ : & $ $ $ & & & > , , 7 7 , , : : , 4 7 h  .H.C.j > $ > > e V V t 4 4 4 , , : : : , 4 4 4 4 4 4 4 4 4 4 4 4 4 , > 7 Z s y t e 4 e 4 4 4 t e j Z.C.x z 7 : : : : : : : : : : : : : : ; > t > : s , > & 7 A : : : , > # ) ( ~ ` ' ` F R ~ / / / / H G G G G G G G G G G G G G R ( ( R R R / R { > # # # , 4 4 4 , 4 4 , , , 4 4 4 4 4 4 4 4 4 7 y y e 7 , 4 4 4 4 4 4 4 4 ",
"u u s s s s s s s t t > O o & > , > > > > , , , 7 t t e e e , > & $ $ O X   X ; : : : : : : : > , 4 4 4 4 4 4 4 4 , 4 , , , : : : : , S m 4 : > , , > : > > > : : : : : 4 7 7 t 7 4 < : : : > 4 r K G.N.x 8 > # $ > , e V V e 4 , : : : < 4 4 4 4 4 4 4 4 4 4 4 4 4 4 4 > e 7 s 4 e e u y y 5 , : : y L 0 7 y y : : : : : : : : : : : : : : , 7 : : s 7 , > , u G > : : : : # W ( ~ ` ' ` / / / R R G G G G G G G G G G G G G G F ( ` ' ( F G G G V F * # # # , 4 4 4 4 4 4 4 4 4 4 4 4 4 4 4 4 4 4 e t e 7 4 , 4 4 4 4 4 4 4 4 ",
"> > > 4 4 4 4 4 4 < > > $ X X # & : : > > > > > 4 6 3 > > & = # = = * # o   O : : : : : : : : > , 4 4 4 4 4 4 4 , < > , , : : : : : : , , : : : , 4 , , 4 4 4 , 4 , > , e t y y t < : : : : > , 7 y K l 9 4 , > & # & > , y G z 7 : ; : , 4 4 4 4 4 4 4 4 4 4 4 4 > , 4 > u & 3 i t e , , : ; : : & t 9 > : > V : : : : : : : : : : : : ; 4 t : : y e : : > Z ` A > > : : $ # A ~ ~ ` ' ' ] ` ~ H G G G G G G G G G G G G G G G / ' ' ` / G G G G Z V $ # # # > 4 4 4 4 4 4 4 4 4 4 4 4 4 4 4 4 , e y y e 4 4 4 4 4 4 4 4 4 4 , ",
"X O O O o o o o o X X X X X X   X X X X X X X X X X X # # # # % * > > $ X X $ : : : : : : : > , 4 4 4 4 4 4 4 4 > : : : : : : : : : : : : : : : , 4 4 4 4 4 4 4 4 4 , 7 t y e e 4 > , , , , , 4 4 7 y 7 4 4 4 4 , > $ # & > 4 y Z s 4 > 4 4 4 4 4 4 4 4 4 4 4 4 , : : , 4 s * > s 9 4 , , : : : : $ s > & : $ s e : : : : : : : : : : : 7 s : : t t : $ $ t 6.y.H , , > > : # z R R ( ' { 1.1./ G G G G G G G G G G G G G G G R ` ' ` R F F ~ ( ( ~ G $ # # # > 4 4 4 4 4 4 4 4 4 4 4 4 4 7 y 7 e y e 7 4 4 4 4 4 4 4 4 4 4 4 4 ",
"X # # # # X                                       X   # # # = * 6 % & O O $ > , , , > : : : , 4 4 4 4 4 4 4 4 4 , : : : : : : : : : > > > , , , 4 4 4 4 4 4 4 4 4 4 , e t t e , 4 , , , 4 4 4 4 4 4 4 4 4 4 4 4 4 4 , > $ $ > , , i G s e , , 4 4 4 4 4 4 4 4 4 4 : : , y u > 3 z Z 6 > e > : : > e H : : : $ > V : : : : : : : : : : e V > ; 4 u : & $ : 7 V ] z , 4 4 4 > # 9 R R ( { 1.{ ] R G G G F G G G G G G G G G F H ( ` ( H G H ( ' ' ' / G = # # # > 4 4 4 4 4 4 4 4 4 4 4 4 9 x  .C y y t , , 4 4 4 4 4 4 4 4 , , < ",
"& & $ $ $ $ # O O X X X X X X # O o o o O O O O O O # $ : > > 9 9 7 : & : : , 4 4 , > : : > 4 4 4 4 4 4 4 4 4 4 4 > : : : : : : : , 4 4 4 4 4 4 4 4 4 4 4 4 4 4 4 , 7 t y e 4 4 4 4 4 4 4 4 4 4 4 4 4 4 4 4 4 4 4 4 4 4 , 6 g 6 > > > t G z 7 , 4 4 4 4 4 4 4 , , : : 4 z 4 , 7 7 R s e i p w , 4 i y $ $ $ $ O e V > ; : : ; : : < u V 4 : < y : & $ : : , 4 G y , 4 4 4 > # 6 R H ' :.3.:.' R G G / ( / G G G G G G G ~ ( ` ( ~ F G G ( ' ' ' ' ( G # # # # > 4 4 4 4 4 4 4 4 4 4 4 7 h #.}.#.x y t , 4 4 4 4 4 4 4 4 , > : : ",
"4 4 4 4 4 4 , , , > : : : : : , < : : : : : : : : : : : , 7 t y e > : : : , 4 4 4 , > : : , 4 4 4 4 4 4 4 4 4 4 4 , > : : : : : : , 4 4 4 4 4 4 4 4 4 4 4 4 4 4 , 7 y e 7 4 , 4 4 4 , , , 4 4 4 4 4 4 4 4 4 4 4 4 4 4 4 7 x #.K * $ $ ; 4 z A s 7 , , 4 4 4 4 4 , : , i e 3 4 7 4 z G G U ;.D M u & X X X X X   $ e s t 7 4 4 y V G s 4 > > s 4 < & > > , 4 , G 7 , 4 4 4 > # 3 R / ] 1.1.:.' ( / ( ` ' ` H G G G F R ( ` ( ~ F G G G ~ ` ' ' ' ' ( G # # # # > 4 4 4 4 , 4 4 4 4 4 4 7 y X.Z...j y 7 , 4 4 4 , 4 4 , > > : : : ",
"4 4 4 4 4 4 , , , , > : : : : : : : : : : : : : : : : : , t e 4 > : : : , 4 4 4 4 4 , , , 4 4 4 4 4 4 4 4 4 4 4 4 , , : : : : : : 7 7 7 4 4 4 4 4 4 4 4 4 4 4 , 7 e y t 4 4 4 4 4 , : : < 4 4 4 4 4 4 4 4 4 4 4 4 4 4 4 4 y K l 4 > $ $ : 4 e V F s 4 , , 4 4 , > , y e 9 6 e p t u i D u.`.u.D p $ o 7 $ O $ $ $ & < 5 y s F / F e , , & y y , > > 4 4 4 4 4 A 6 , 4 4 4 , # 3 ~ ( { :.:.] ` ' ' ' ' ' ' ( ~ ~ / ( / H F F G G G F ~ ` ' ' ' ' ' ( Z = # # # > 4 , > : : : , 4 4 4 , 7 s z J z 7 4 4 4 4 4 4 , , : : : ; : : : ",
", 4 4 4 4 4 4 4 4 , , : : : : : : : : : : : : : : : : > 4 5 5 : : : : : , 4 4 4 4 4 4 4 4 4 4 4 4 4 4 4 4 4 4 4 4 4 , , : : > > 4 l l i y e 7 4 4 4 4 4 4 , , 7 t t y t , , , 4 , , : : : > , 4 4 4 4 4 4 4 4 4 4 4 4 4 4 4 7 4 4 4 > & $ > > , e V A t 4 4 7 e t e , 7 7 9 e t i y p ;.I..Xt.m 4 $   > X . X $ $ $ : 4 y z s V 7 , , & 6 z , > > , 4 4 4 4 4 A > , 4 4 4 , $ y ( ( ' ' ` ' ' ' ' ' ' ' ' ' ' ' ` / G G G F F H ( ` ` ' ' ' ' ' ` / Z # # # # > 4 , : : : : < , , 4 e e y y t 4 4 , , 4 , , > : : : : : : : : : ",
"> , 4 4 4 , , 4 4 4 4 , : : : : : : : : : : : : : ; > 4 4 4 4 : : : : > 4 4 4 4 4 4 4 4 4 4 4 4 4 4 4 4 4 4 4 4 4 4 4 4 , 4 4 7 r  .0.@.W Z t 4 4 4 4 4 4 7 7 e y t t 7 , > > 4 > : : : : : > , 4 4 4 4 4 4 4 4 4 4 4 4 4 4 4 4 4 4 4 , > & $ > > : 4 V R V y 7 4 , 9 9 7 t 4 7 G 4 & i I -.S > $ X     X 4 $ . O & 7 z y 4 s 9 > * & > s e > > , 4 4 4 4 4 7 F > , 4 4 4 t * 7 / ( / ` ' ' ' ' ' ' ' ' ' ' ' ' ' R G R ( ( ( ` ' ` ' ' ' ' ' ' ` / V # # # # > 4 4 > : : : > 4 , 4 y y y 7 4 , 4 , , , > : : : : : : : : : : : ",
": : : : : : : > , , , > : : : : : : : : : : : : : > 4 5 4 4 > : : : : > 4 4 4 4 4 4 4 4 4 4 4 4 4 4 4 4 4 4 4 4 4 4 4 4 4 4 4 7 l V.4XF.).} y 4 4 4 4 , 7 i t t t 4 4 4 4 , , , < : : : : : , , 4 4 4 4 4 4 4 4 4 4 4 4 4 4 4 4 4 4 4 4 4 , > $ $ $ ; : e V s s s e 7 4 4 , 7 V t o X & 7 p , O X       X $ 4 s 7 O e > & > 9 $ # & > 4 s > & > , 4 4 4 4 4 7 G > , 4 4 4 y 6 6 F R ~ ' ' ' ' ' ' ' ' ' ' ' ' ' ' ( / ` ' ' ' ' ' ' ' ' ' ' ' ' ` ~ z # # # # > 4 4 , : : : , 4 4 , 4 t 7 4 4 4 4 , > : : : : : : : : : : : : : ",
": : : : : : : : : : : : : : : : : : : : : : ; : e 4 4 4 : : : : : > > > 7 7 4 e 7 4 4 4 4 4 4 4 4 4 4 4 4 4 4 4 4 4 4 4 4 4 4 e l ) f.3XtX6.s 4 4 4 4 e e y y e 4 , 4 4 4 4 4 , : : : : : : , , 4 4 4 4 4 4 4 4 4 4 4 4 4 4 4 4 4 4 4 4 4 , 4 , > $ # $ : < u 7 z G A s s V Z t X O : O O # & X     .   . . X 7 W 7 ; : ; 4 > $ $ : : , u $ & : > 4 4 4 4 4 e V > , 4 4 , 4 > $ i R ~ ` ' ' ' ' ' ' ' ' ' ' ' ' ' ' ' ' ` ' { ] ` ' ' ' ` ' ' ' ` R s # # # # > 4 4 > : : : > 4 4 , , 4 4 4 , , > : : : : : : : : : : : : : : : ",
": : : : : : : : : : : : : : : : : : : : : : , , 7 4 , < < : : > , 4 4 5 t e y u 4 4 4 4 4 4 4 4 4 4 4 4 4 4 4 4 4 4 4 4 4 4 6 4 t s ! g.l.( y 4 4 4 4 y y y y e 7 7 4 4 4 4 , : : : : : : : , 4 4 4 4 4 4 4 4 4 4 4 4 4 4 4 4 4 4 4 , , 4 4 4 4 , > $ # $ $ > t 4 t 4 i H G t # X O # O O X O       . . . > > X t 9 4 & $ 7 : $ : : : , t & : : : , 4 4 4 4 t z > , 4 4 4 , $ # 7 G R ( ` ' ' ' ' ' ' ' ' ' ' ' ' ' ' ' ] ] :.{ ] ` ' ' ( ( ` ` / ~ y # # # # : , 4 , > : : , , , > > : : : : : : : : : : : : : : : : : : : : : ",
": : : : : : : : : : : : : : : : : : : : : : 4 7 7 > : : 4 7 , 4 7 t t y u s E u 5 4 4 4 , 4 4 , , 4 4 4 4 4 4 4 4 4 4 4 4 9 9 7 4 e y z z u e 4 4 4 , 4 t e e l y y 7 4 4 4 > : : : : : : > , 4 4 , , 4 e 7 , , , > > < < , 4 4 , > : : > , , , > < : : & $ & 7 7 9 > > e u & # 3 X . .   . X       . . .   # 3 $ > > > : e $ $ : : : 4 t & : : : , 4 4 6 6 y y > , 4 4 4 4 & # 7 u H ~ ( ` ` ` ' ' ' ' ' ' ' ' ' ' ` :.1.1.1.:.' ` ' ( s M ` ( R R t # # # # > 4 4 , , , , , : : : : : : : : : : : : : : : : : : : : : : : : > ",
": : : : : : : : : : : : : : : : : : : : : : : 4 > : : : : 7 z s y z A A G ( E u 7 7 4 4 , , 4 7 7 , 4 4 4 4 4 4 4 4 4 4 y L A y 4 4 7 7 7 4 4 4 4 4 4 4 6 e h |  .C y e 7 4 > : < > , , , 4 4 4 4 4 7 7 e 7 4 : : : : : : : : : : : : : : : : : : : : : : : : > y 8 2 > > 9 > $ : X > & . . . .     . .     $ z 9 * 7 6 > 7 $ : : : : , t : : : : , 6 4 9 6 i y > 4 4 4 , , & # 6 t s H R ~ R ~ / ( ( ( ` ` ` =.:.] ] 1.1.{ { ' ` ' ' G i ~ ( R R F 7 # # # # > 4 4 4 4 , > : : : : : : : : : : : : : : : : : : : : : : : : : , ",
": : : : : : : : : : : : : : : : : : : : : : : : : ; : : < , t ( } ' 6.a.l.a.A s t 7 4 : : , 4 t 7 7 , 4 4 4 4 4 4 4 4 9 L A.N.x 9 4 4 4 4 4 4 4 4 4 4 4 7 y C N.H.N.J y 6 4 4 4 4 , , , 4 4 4 4 , e y y t t 4 > > , , , , , > > > , 4 , , , > > , , , , , 4 4 2 x x h 6 1 1 y : $ O $   .     .     . .   o $ z 9 4 , , > 5 : : : : : > s : : : > , 7 7 y 7 V 0 , 4 4 4 4 4 & # 4 t t i V s u u s G F R R ~ / ,.U.-.` ] ' ` ( ( ( ( ( ( ( ( ~ R R V 3 # # # # > 4 4 4 4 , : : : : : : : : : : : : : : : : : : : : : : : : : 4 4 ",
": : : : : : : : : : : > > : : : : : : : : : : : : : : : > 4 t Z j.=X9XtXtXj.E a 7 , < : 4 t t y t 4 , , , , , , , , 4 e W C.C.x 7 4 4 4 4 4 4 4 4 4 4 4 7 y Q S.aXN.x 9 4 4 4 4 4 4 4 4 4 4 4 4 7 t y e e 4 , 4 4 4 4 4 4 4 4 4 4 4 4 4 4 4 4 4 4 4 4 4 4 7 e y J |  .x j 8 z > O O O   & X   . . .       O $ 9 t > , > : 4 > : : : : : z , > > > 4 9 y x 9 A 9 2 4 4 4 4 4 & # > t e e e e e e e e t u s V G =.y.-.` ` ( R R R R R R R R R F G s t 3 # # # # > 4 4 , > : : : : : : : : : : : : : : : : : : : : : : : : : , 7 , ",
": : : : : : : : : : : : , > : : : : : : : : : : : : : : > 4 u A 3.9XmXMXiXD.W 9 * # o # % > $ $ # # # # # = $ $ & & & > 7 x x 7 > > > > > , 4 4 , , 4 4 e s x  .M. .h 7 4 4 4 4 4 4 4 4 4 4 4 4 7 t t e , 4 4 4 4 4 4 4 4 4 4 , , , , , 4 4 4 4 4 4 4 4 4 7 y z ! #.C.$.K h V 7 # $ $ $ y X     . . .   # $ * > e : : : : > 4 ; : : : : s y > 6 7 7 r x x e W 0 6 , > > , 4 & # & 7 4 4 7 7 e e e 7 4 , > > 4 u F R F F G G F G G G Z Z V s y y e t > # # # # > 4 , < : : : : : : : : : : : : : : : : : ; : : : : : : ; , 4 7 4 ",
": : : : : : : : : : : : , , : : : : : : : : : : : : : : , 5 y c 4.9XMXBXNXtXD.s.{ ) W } @.@.} ! ! W E A c l y 9 9 0 9 7 6 6 > % * $ $ $ = $ $ & > , 4 4 4 7 y h x x e 7 4 4 4 4 4 4 4 4 4 4 , 7 t y e 4 4 4 4 4 4 4 4 4 4 4 4 4 , , , , 4 4 4 4 4 4 4 4 7 9 r x d.S.1XG.#.Q ! h 6 y 7 O $ X   .     X # & $ 7 t e t : : : : t : : : : > 6 V 7 8 r r h Q x 9 W y > : : : : : # X O : > > > > 4 , , , , , , 4 7 y s z s t t t t t t t y y y y y y e e > # # # # > 4 , : : : : : : : : : : : : : : : : : : : : : : : : : , 4 4 5 4 ",
": : : : : : : : : : : : : : : : : : : : : : : : : : : : , 4 u z 4.uXNXnXiXpX@Xc.l.l.c./.>X6X-X%X#X#X%X=X*X^.W.W.W.#X@Xb.c.x.l.k.~.~.b.l.k.6.} E y 4 , , 4 4 7 e 9 y 7 4 4 4 4 4 4 4 4 4 4 , 7 y e 7 4 4 , > > > > > > > > > > > > > > > , 4 4 4 4 4 4 4 7 e l Q C.2X2X1XN.! C x V t > X > & X   X   $ > 4 7 , u G R G 4 : $ > t : : : > > A z h x J K $.x r W z > > > < > > # # # # # # # $ & : : : : > > 7 y i s s i e e e e e y y y l x l x 8 7 6 * # # # # > 4 , : : : : : : : : : : : : : : : : : : : : : ; : : , 4 7 , 4 : ",
": : : : : : : : : : : : : : : : : : : : : : : : : : : : > 4 e y d.tX=X=X#Xb.b.>.R R R E A G G Z Z G G G G G H G G H H H H H H H ( ( ` { :.1.3.7.a.1.e , , , 4 4 4 4 6 4 4 4 4 4 4 4 4 4 4 7 e y t 4 4 > $ > c A A W W W W W W W A c a 6 $ & > , 4 4 4 7 y h x K 0.Z.<XA.X...[ z 7 , > X & 9 4 o O > 4 e i i m D u e t u s y 4 t y > > , 6 h [ K X.#.C.Z.| x L L 6 7 4 , , > # # # # # # # # # # X X X # = * * 6 > > % = = $ $ $ > g k b K  .k 1 $ # # # # # # > , : : : : : : : : : : : : : : : : : : : : : : : > e 5 4 4 : : : ",
": : : : : : : : : : : : : : : : : : : : : : : : : : : : : , 5 7 l.b.s.h.3.( ' >.{ ( ~ E Z G G Z Z Z Z Z Z Z G G Z Z Z Z Z Z Z Z Z Z Z H ( / / R H R 9 * > , 4 4 4 4 4 4 4 4 7 4 4 4 , 4 7 t t y t , 4 $ # c.-Xh.a.k.x.c.b.W.^.(.@X*X*X;XA @ > , 4 4 4 4 7 7 r x ..| #.d.O.W z V z 7 : $ > s 4 > > i ] I ;.;.-.u , : : : , t s V W Z y h x b %.N.Z.H.aXH.M.Q J ) y 9 7 4 , > # # # # # # # # # # # # # $ 6 * * * # # # # # # # # = q T Z.H.J.b 1 # @ X # # # $ < : : : : : : : : : : : : : : : : : : : : : : : 4 , 7 4 > : : : : ",
": : : : : : : : : : : : : : : : : : : : : : : : : : : : : > 4 t 6.>.( { ( ( ' ( ' ( s s A G G G G G G G G G G G G G G G G G G H ~ H H ( ` ` ( ( ` / y # # $ > , 4 4 4 4 4 4 e 6 4 7 7 e t y t t 7 4 4 # y =X:.( ( ` ` ` ` ` ` ` ` ( ( ~.6.@ > , 4 4 4 4 4 7 9 A x x ....z 9 > > > y 4 : < s : t e y =.U.'. X,.i , & & > , 7 y s Z F F z C | M.{.sXgXzXfXG.$.K ..z 9 7 4 4 4 > $ = # # # # # # # # # * % * * % # # # # # # # # # = q b H.zXaXn 1 # X   X X O & : : : : : : : : : : : : : : : : : : : : : : : : 5 4 4 : : : : : : ",
": : : : : : : : : : : : : : : : : : : : : : : : : : : : : : , 9 ( ] R ( ] 3.3.{ / A y V A G G G G G G G G G G G F G G G F F ~ ` ] ] ] ' / G e G ' ( ~ ) c * # & 4 4 4 4 4 7 y 9 7 e s y y y 4 , , 4 4 # A W.( ' ' ' ' ' ' ' ' ' ' ' ` ( 3.# > 4 4 4 4 4 4 4 s H A z j x y 6 * $ : , u , 4 s > y y y D U.oXoXu.B , : & & t i 7 > & : , y C Q X.Z.sXzXzXlXaXC.Q ! A 9 7 4 4 4 , , > > > > > > > > > > 9 9 9 > & & & & & & & & & * > 7 b C.1XS. .q $ O O O O & : : : : : : : : : : : : : : : : : : : : : : : : : : 4 : : : : : : : ",
"> , > > : : : : : : : : , , , > : : : , 6 7 7 7 > : : : : : 4 $ R ( R ' { 6.3.1./ F G G A G G G G G G G G G G G G H R H H ( ] =.=.=.=.` / u u ( ` ~ R ( k.z.> * 9 4 4 7 7 7 j h i y j y y 7 4 4 4 4 4 # A a.( ' ' ' ' ' ' ' ' ' ' ' ` ~ W = & 4 4 4 4 4 , s ( R s s i z 3 & $ $ : , 7 t t i y F V Z Z t. X'.q.B 4 , > u 7 & $ $ $ & > 3 9 x  .C.1XgXlXfX}.Z.#. .o.y 7 4 4 4 , , 4 4 4 4 , , , , , 4 4 t 7 4 4 4 4 4 4 4 4 4 4 4 , 6 h  . .K j y 6 : : 4 < : : : : : : : : : : : : : : : : : : : : : : : : : : : : : : : : : : : ",
", 4 4 , , : : : : : : : , , 4 , : > 4 7 e l r r 4 > > : : < : O ) { ( >.:.3.1.{ R G G G G G G ~ F G G G G G G G G H 2.2./ =.:.5.5.5.5.5.` ` ' ' ( R R R R ] 0 b x 7 7 7 e y x J x x z y y t 7 4 7 7 4 $ z 1.( ' ' ' ' ' ' ' ' ' ' ' ` ~ V # & 4 4 4 4 t V F i e 4 4 7 y y 6 , , > & > u s s H z u s F 5.e._ S S t , u 4 ; : ; $ # # & > 9 x ..0.S.sXsX1XS.$.K k ..A y 9 4 4 4 4 4 4 4 4 4 , , , , 4 4 4 4 4 4 4 4 4 4 4 4 4 , : : > r r r 8 6 > > , > 4 , : ; : : : : : : : : : : : : : : : : : : : : : : : : : : : : : : : : : ",
"4 4 , , , : : : : : : : : > 4 4 , 4 7 9 y J x x r 6 > > : : : o ! ( ~ 1.1.1.] ' / G G G G G G G G G G G G G G G G F o.2.] _ =.,.r.r.y.r.=.] ] ' ( / ~ R R H 6 g h 7 9 e y j A Q x C C D _ S e 7 l x 4 $ 7 ( ` ' ' ' ' ' ' ' ' ` ' :.] / G = $ 4 7 s Z z t 4 4 > > > > 7 e y e , , , : u / y 4 , 4 , u i _ D y e e u t ; ; $ $ ; & : : t A L Q X.#.J.Z.B.0.+...C V G 7 7 6 4 4 4 4 4 4 4 > : : : : > 4 4 4 4 4 4 4 4 4 4 4 , < : : : 4 > > > > : 4 4 7 4 4 : : : : : : : : : : : : : : : : : : : : : : : : : : : : : : : : : : : ",
", , : : : : : : ; : : : : : 4 4 4 4 7 y j | #.X.J h r y 9 , : X Z Z A ' :.] ' ' ` H G G G G G G G G G G G G G G G F P ~ -.e.w.y.R.R.R.5.5.=.] ' ' ' ' / H F > = , 7 9 y h x Q d.Q K K <.R._ y 7 y y 4 & * R ` ' ' ' ' ' ' ' ' { ] :.] ( G 3 3 s V s e 7 7 4 * $ > , 2 6 7 4 y e , 4 > s Z > , , , 6 e , e F t 4 < s < & $ $ : : : > s Z s z x C T #.K K J x x L / / t 4 , 4 4 4 4 4 4 4 > : : : : : , , 4 4 4 4 4 4 4 4 , , : : : : : : : : : > 4 7 , , : : : : : : : : : : : : : : : : : : : : : : : : : : : : : : : : : : : : ",
", , : : : : : , > : : : : > 4 4 4 4 9 y J #.}.H.C.X.K y 7 , : X V N Z ` ' ' ' ' ' ( F G G G G G G G G G G G G G G F ~ / =.e.!..XXX.XR.r.5.:.] ] ' ' ` F N s > # : , 7 r x K X.S.A.+...o.<.Y y 7 4 4 4 * * F ` ' ' ' ' ' ' ` :.1.1.1.:.( V y W R Z V V s 7 > > > 4 3 > > > , 4 y 7 , , V 7 > : ; > > > * & y i , 5 u & $ : : : : 4 G E z z y j r b b g g g h y D / V F V 7 , 4 4 4 4 4 4 , > : : : : , , 4 4 4 4 4 4 4 4 , > : : : : : : : : : , 4 4 > : : : : : : : : : : : : : : : : : : : : : : : : : : : : : : : : : : : : : ",
"4 , , : : < < 4 > > ; : : , 4 4 4 7 9 h Q Z.fXlX1X%.l e 7 , ; X s N H ' ' ' ' ' ' ' ( F G G G G G G G G G G G G G ~ _ ] -.e.'.OXxXoX'.i.5.:.] ] ' ` ` H Z u & X > 7 y j K %.C.}.aX_.#...L x h y y y 7 > $ F ` ' ' ' ' ' ' ] :.3.{ { ' ( Z $ y V s s z A Z V s t 7 7 7 4 , > 6 7 u 4 7 s $ $ > > > 4 , > $ * V 4 u 5 $ & : : : , s G s.W y 7 2 7 b h 8 8 7 7 A ,.&.7 7 i F z 7 , , 4 4 4 4 , , : : > , 4 4 4 4 4 , , , , 4 > : : : : : : : ; 4 e t 7 > : : : : : : : : : : : : : : : : : : : : : : : : : : : : : : : : : : : : : ",
"4 4 , , 7 5 7 5 4 : ; : : : , 4 4 6 9 j  .J.fXgXG.| j e 6 > ; X s M ~ ` ' ' ' ' ' ` ( H G G G G G G G G G G G G H / ` ( =.w.!.oXxXoX'.y.5.:._ ( R H H G Z s : # > r y x Q N.G.fXlXfX$X0.$. .J j e 4 4 * $ F ` ' ' ' ' ' ' { 1.:.{ ' 2.2.A % 6 E y 9 9 y s z Z A s e 7 7 e y , > y 7 t y # > t y i s s s t & t y s > $ : : ; : t , u A a 4 3 4 e x r r r z Z u y y * > , 7 s F z 7 , , 4 4 , , : : : > , , 4 4 4 > : : > 4 , > : : : : : : 4 7 e 7 4 , > : : : : : : : : : : : : : : : : : : : : : : : : : : : : : : : : : : : : ",
"4 4 , 7 t y , , : : : : : : > 4 , 7 y x J X.C.J.M.J y 9 4 < $ X u M ~ ` ` ` ` ( / H G G G G G G G G G G G G G G H ( ( _ _ -.!..X.X X'.y.5._ P H G F H / ( G > # > 8 h x X.Z.aXlXzXjX1Xf.Q x r 9 7 4 4 > = G ` ' ' ' ' ' { :.1.{ ' ' 8.A.L % * l ! z z Z Z V z z Z Z y s s 7 4 > 7 u i 4 > i y 7 4 4 4 7 y i t z s > : : : : 7 4 4 7 4 > : : : , r 7 y V i 7 7 7 > $ $ > > , 7 s G s 7 > , > : : : : : : > 4 4 , : : : : , , 4 , > : : : 4 e t 4 > , > : : : : : : : : : : : : : : : : : : : : : : : : : : : : : : : : : : : : : ",
", 4 4 7 t e 4 : : : : : : > 4 4 4 6 6 , 9 l J K  .h r 7 4 < $ X e M G H H H R F G G G G G G G G G G G G G G G R / ( / P / -.E.E.R.E.i.y.=.~ H / / ( ' 4.f.W > = 6 h J X.N.J.1XfXzXfXZ.X.Z y r e 7 4 , > # u ( ( ( ` ` { 1.{ ' ` ( ( ' O.y * 6 y ) } A E W E A Z z F { A e 4 4 , > V s e i 7 , , 4 4 4 4 , 4 t Z A 7 , , > , e > 4 5 4 : : : : > , y z e 4 6 > * > , > * $ : > > 4 s V t : ; : : : : ; : , , 4 , < : : : > , 4 4 4 , , e t t y 4 : : : ; : : : : : : : : : : : : : : : : : : : : : : : : : : : : : : : : : : : : ",
"4 4 e t y e < : : : ; > , , , , : : : > 4 9 y h x h 7 4 4 , $   7 s Z G G G G G G G G G G G G G G G G G G G H / ~ H H H _ e.e.r.r.e.5.=.=._ ] ] ' ' ' O.8.H 6 * 8 l x x Q $.Z.H.aXH.#.K z t 7 9 7 4 4 > # 4 u s V G F R / R G Z V V z i > > 7 z ! b.l.s.a.4.} W ) 1.R G e 7 4 4 > V G y , , , , > > > > , , > 7 R i , 4 , t t 4 4 5 4 : : : : , y y 4 , > * > > , , > : $ $ $ & : : , u V t : ; : : : , 4 4 4 4 , > : > 4 4 4 4 4 7 e e y e t 4 , > : : : : : : : : : : : : : : : : : : : : : : : : : : : : : : : : : : : : : : ",
"4 7 y e 7 > : : : : : : , 4 , : : : ; : > > 7 9 e y 4 4 4 4 > # 7 s Z G G G G G G G G G G G G G G G G G G R ~ / ~ G F H 5.5.5.5.5.=.] ] ] 7.7.{ ] ' ( F G u > # > 9 y h x Q %.N.Z.C.Q x y e 7 7 4 4 4 > $ $ $ & * 6 7 7 9 7 * * * * % % * 6 0 A ) l.9X,X,X@Xb.D.l.A s z z 7 4 4 , Z A > , > > > > > > > > > > > t V 4 4 7 s t 7 4 4 : : : : > y 4 , 4 , > > 2 , : : : ; : : $ $ # $ : ; , s V t : : , 4 4 4 4 4 4 4 , 4 4 4 , , 7 u t t t 4 , , 4 , : : : : : : : : : : : : : : : : : : : : : : : : : : : : : : : : : : : : : : ",
"7 t y e > : : : : : : > 4 , : : : : ; : , , 4 7 4 9 4 , , , : X 4 s Z G G G G G G G G G G G G G G G G G R ~ / / ~ G F ~ ` ] ] ] :.6.a.a.h.l.3.:.] ' ( ~ G u > # > 9 9 y h x K Q  .$.x y e 4 4 7 , > > > > > > 4 6 7 9 7 7 4 > > > > > 6 9 y z / 3.D.rXnXnXiXpX$X@.A y y V y 4 4 , F y > > > , , : , 4 , , > & & $ y 7 7 s V e e 4 < : : : , t < > , > > , , , , : : : : ; : : : $ $ $ $ : : 4 z Z y 4 4 4 4 4 4 4 4 4 4 4 4 4 t 4 7 4 4 > , 4 4 4 > : : : : : : : : : : : : : : : : : : : : : : : : : : : : : : : : : : : : : : ",
"t t 7 4 : : : : : : > 4 , : : : : : ; : , 4 4 4 4 4 4 4 , , $   4 M Z G G G G F G G G G G G G G G G F H ~ / R ~ H G H ~ R ( 3.6.a.W./.^.#Xl.3.:.{ ' ' ' ~ z > # > 6 7 e r h l x l | y e 7 6 > < : : ; : : : , u y t t 4 , , 4 4 4 4 7 e y s A ) d.=XiXMXMXMXiX#X6.W z t y V 7 4 7 Z > > > 4 , 4 6 7 4 4 4 : ; $ # * s 7 i z 6 , 4 > : : > t : < > > > , 4 4 4 4 , , , , : : : : : : $ $ $ : 4 , e Z G y 4 , 4 4 4 4 4 4 4 4 4 t 7 7 : : : , 4 , 4 , > > : : : : : : : : : : : : : : : : : : : : : : : : : : : : : : : : : : : : ",
"y e 4 > ; : : : : > 4 , : : : : : : : : : , , > > , , > : : # X > Z ~ ( ( ( ( ( R G G G G G G G G H ( / / ~ F G G G H H R ~ ' c.@X,XtXrX,Xx.7.1.{ ' ' ` R s > # > 6 7 9 9 y r r 9 C y 9 a s 7 > : : > > 4 e 9 t t e 4 4 4 4 4 4 4 4 7 e y s A ) l.,XiXMXBXMXiX&Xs.W Z y 6 z t 4 y a # > , 6 y z A C z z V s e < $ $ u u i t > , 4 , , 4 y 4 > > > , , , , 4 4 4 4 4 4 4 , : : : : : : : & & & > > > e V G y 4 , , , , , , , , , 4 : : : ; : > , , , , , , : : : : : : : : : : : 4 < : : : : : : : : : : : : : : : : : : : : : : ",
"t 4 > ; : : : ; > 4 , : : : : : : : : : : : : : : : : : : : $ o > G ( ` ' ' ' ` R G G G G G G G R R / / R G G G G H ~ H R / ' a.,XbXmXnX9X~.a.3.{ ] ' / R u > # > 4 4 7 7 7 7 4 , y y i 3.l.A 4 : : 4 y J Q z u 7 4 4 4 4 4 4 4 4 4 7 e t s A ( a.,XkXNXMXmXuX#X6.W V i 7 e s 4 V 7 # 4 t x L X.%.l 6 , 4 e s V y : : M e 7 , 4 4 4 , u 9 , > > , 4 4 4 4 4 4 4 4 4 4 e 7 , : : : ; : : > 4 > $ $ $ : , t G Z t > & $ $ $ $ $ $ $ O O O O O O $ & & & & & & O O O O O O O $ : : , < : $ ; ; ; ; ; ; ; : : : : : : : : : : : : : ",
"4 , > : : : : > , : : : : : : : : : : : : : : : : : : : : : $ X > t ~ R ( ' ( H G G G G G G G G ~ / / F G G G F / ` ' ( R / ' a.*XnXBXmX9Xb.7.>.] ` ( H G t > # > > : : > > > > > 4 y s x.&X) t , : 4 W Z.$.x e , , 4 4 4 4 4 4 4 4 7 7 t y Z / x.>X3XtXuXuXpXb.{ E z i t 4 V 7 G > > s y 9 x S.G.K 9 4 4 4 t M M s 4 e 4 7 , 4 4 , t u , > > , , 4 4 4 4 4 4 4 4 e 7 e e 7 , : : : , , , 4 , , > & & > , 4 7 a 3 o # # # # # # # o X o # X X     X # # # # X         o   $ $ & & $ o X X X X X X o o o o o O O O O O O O O $ $ ",
": : : : : : , > : : : : : : : : : : : : : : : : : : : : : : $   $ 4 H F R R G G G G G G G G G Z Z R G Z N M M R ~ / ( / G R ( 3.^.uXnXiX9Xx.{ / R R Z M s , $   $ : : : : : : : : > 6 7 E 6.a.( u 4 , x +.Q r 7 4 4 4 4 4 4 4 4 4 4 4 7 t y Z 3.l.a.n.#X&X@X,Xb.) G s y e 4 i y c > s e , 7 h %.$.x 6 > > , E 5.m , t y t e > , 4 4 V 7 > > , 4 4 4 4 4 4 , , , e y y y e 4 4 , , 4 4 4 4 4 4 , , , > & * > # # * @.3.@.} ) ) ! W W W W W E A A c A A A c c z z z z l a l a y 7 7 > > > > > * * * & & & $ $ $ O O X X       X X ",
"> > > > , , , : : : : : : : : : : : ; : , > : : 6 6 : : : : $   $ 4 F ~ R M Z Z Z G R / H Z M M M M M M M M M G R R R R Z Z R ( l.&X@X^.b.c.>.~ G G Z M e > #   $ : : : : : : : : : > , u 3.>X/.V , > 9 t e 7 7 4 4 4 4 4 4 4 4 4 4 4 7 t s ) ( R ( { s.l.d.s.n.( z y 7 4 4 t V s i 7 , , > 6 r r 7 , > > > e Z e : : 7 Z u : , , t s , > , , 4 4 4 4 4 , > < 4 7 e 4 7 4 , 4 4 4 4 4 4 4 4 , , > > 4 , > $ # # ( =X6XqXqXqXqX0X0X0X9X8X0X0X0X9X9X0X0X9X9X9X9X9X9X9X9X>X=X#X/.^.W.b.b.b.b.b.b.c.c.c.c.x.x.l.h.a.6.1.} W s * X X ",
"4 4 4 4 4 4 4 > : : : : : : : : : > > > 4 > > : j x : : : : ; X > e R G Z G s s s s W C.+.V u u t t e e e e 7 t i z V G G V V R a.>.>.{ ( ( f.3.R E A u , > # X $ : : : : : : : : : : > e ( b.g.s < < : > , 4 4 4 4 4 4 4 4 4 4 4 4 4 7 s A z s z A W ) } ( W R } y 5 , > > t R V 7 , > > > 4 7 7 4 , , , , , : : $ $ $ e H 4 : 4 G t > , , , , , , , 4 , : : , 5 4 > : , 4 4 4 4 4 4 4 , , < : : : > , 4 > # # ! W.^.(.b.l.k.a.7.6.] ( :.3.3.3.3.3.3.6.6.6.7.7.a.a.3.6.3.6.3.3.6.7.a.h.h.j.l.l.c.c.b.W.W.W.W.Q.^.^.^./.^.b.{ > ",
"4 4 4 4 4 4 4 4 , , , , , > : : , 4 4 7 4 4 : : , , : : : : : # > e R s e 7 4 4 4 7 x #.Q 7 , , , > , 4 e 7 4 e e e t t t y y A Z s z z s V ! W V s e , , 4 $ # > , , < : ; : : : : : : , y ! ! i , : < , 4 4 4 4 4 4 4 4 4 4 4 4 4 4 t s t t y u s G E E A s y G Z 4 > < > y ( t > > > , 4 4 4 4 4 4 4 4 , : : : $ $ $ $ u y : y H > > , , : : : : : , , : 4 4 e , : : , 4 4 4 4 4 4 4 , , : : : : : , 4 > X $ 3.' / R R R ( _ ' ` G Z M F ~ ~ ~ R G Z Z G H H G M Z H R Z M s M M M M M M M M N Z Z G G H R ~ ^ ` ' :.6.c.%X6.",
", 4 4 4 4 4 4 4 4 , , , , , , , , 4 7 > , : : : : > : ; : : : $ o $ A 6 # $ $ $ & * > 7 8 > : : : > 4 7 7 7 7 7 7 7 9 9 e t i u 7 e e 9 7 t y e 7 4 > > 6 > # $ > , , , : : > < : : : & : y N.%.r , , , , 4 , , 4 4 4 4 4 , , 4 4 4 7 7 7 7 7 e y z Z G V i u t 5 s e < : : t H > > > > 4 4 4 4 4 7 4 4 4 : ; : : > > * & > z 7 E z : > , , : : : : : < 4 4 e w , : : > 4 4 , , > > , , , : : : : : : : > & X & 3.~ ~ ( ` ' :.r.E.i.5.~ G ~ ' ' ' ~ G G G G G F G R R / ( R G G G Z G Z Z Z Z Z Z Z V V M Z Z Z M M M M M G c.W.",
"4 4 4 4 4 4 4 4 4 4 4 4 4 4 4 , , 4 4 , : : : : : 4 , : : : : ; O $ F 4 O $ & > * & & & * $ # # # = = = = = = = = $ = $ $ $ > * $ & $ & 6 6 6 * O O o # = # # # $ O # $ # o o o o O O o O * k g $ $ $ $ $ $ $ $ $ & & & & & & & & > > > 4 6 7 7 y z y t 9 7 6 > & : 4 $ O # * 3 # # # # # # # = % 6 $ # O X     o # # # # # 9 F V > : : : : : : , , , > i t i u 4 , , 4 4 4 , : : : : : : ; : : : : : ; : $ X & 1.~ / ' ( ( :.r..X.Xr.] ` ` ' ' ' ( F G G G G G ~ ~ / / R G G G G G G G G G G G G G G H / ` ` ( ( H G Z M M ( ^.",
"& & > 4 4 4 4 4 4 4 4 4 4 4 4 7 4 5 4 : : : : : : > > : : : : : : : R 5 : , , , , , , , , , , , , > > > > > > > > > * = # # o X # # $ 6 k k 1 $ # O # # = = $ = # # # = # O X X X   X # X X O # o # # # # # # # # # # # # # # # # # # # > 4 4 t 9 7 6 * * > > > 3 7 9 9 3 7 y $ 6 c A A W W W ) +.0.+.) ! A c E W A z 0 * X > G 4 $ > > : : : , 4 7 e t S D S H V u p e 4 4 4 > : : : : : : : : : : : : : $ X & ' R ( ( i u ` k.R.'.5.] ' ` ` ' ' ` / G G F R / ( ` / ~ F G G G G G G G G G G G H / ( ` ' ' ' ' ' ' H G Z M M h.",
") # * , 4 4 4 4 4 4 4 4 4 4 e t 4 > : : : : : : : : : ; : : : : : > W e , 4 4 , > : : : : : , 4 4 4 4 4 4 4 , , 7 6 * A } 3.6.6.3.{ s.D.<X2X_.c.c.c.c.c.c.c.c.c.l.z.z.z.x.a.3.1.1.6.{ } ) ( ( ( @.@.@.} ) ) ! W W E A c z a 0 6 3 * # # * 4 t y 6 9 @.D.@X$XD.*X9X3X>X%X#X#X,Xy n.yXyXrXqXqXqXqXhXjXpX0X8X-X=X6X6X>X8X6Xn.$ i 5 & $ > , 4 4 4 4 7 e u i D ,.<.S.B.Y S S i t 4 , : : : : : > , , , > > < < : # * { ~ ( ` R ( =.6.7.5.5.' R H ~ ` ' ' ` H G ~ 3.1.1.:.' ~ G G G G G G G G G G G G ~ ' ' ' ' ' ' ' ' ' ( F G Z M ( ",
"@X* $ , 4 4 4 4 4 4 4 4 , 7 t y 4 : : : : : : : : : : : ; : : : > e / e 4 4 4 , > : : : : : > 4 4 4 4 4 , > : : 7 0 O.8X(.h.3.{ { 3.7.z._.<Xz.a.7.a.h.h.h.h.h.h.k.k.k.k.k.k.h.j.l.l.k.6.3.3.3.6.W.~.~.^.^.^././.(.(.#X#X@X%X*X*X*X*XA # * e t t 9 x.>XyX;X#X^.b.b.a.a.a.3.>.7.s 3.h.7.7.6.3.4.d.{.sXS.4.O.' ' ` ' ` x.0X-Xs z > $ : < : > > > > 7 i V S _ U.[.2X{.E.E.=.i 7 4 , : : : : : , 4 4 4 , , , , > # * / ~ ( ' ' ` ] ] { :.] ( G G G ( ' ' ' ~ / / 1.:.] ' ' ` H G G G F G G G G G G G H ` ' ' ' ' ' ' ' ' ` ( ~ H Z G ",
"l.7 $ > 4 4 4 4 4 , , , e t t t t : : : : : : : : : : : ; : < 4 e S ( e 4 4 4 4 , , : : : : : , , 4 4 4 > : & & l D.yX=X{ / R ~ / ( ` ) O.O./ H ~ ~ ~ H H H H H H H H H F M s M G F H G Z s s Z H H H H H H H H H R H R R / ( ' { c.l.* 6 t y > z @X#X>.G Z Z Z Z M Z G Z H / / / / ( ( ( ( ( ] 8.V.2.' ( ( ( ( ~ R / (.6Xc t 7 9 u > : : : : 4 4 t i P i.XXoXXX'.E.XX5.u 7 , : : : : : > 4 4 4 4 4 4 4 4 > # $ G ~ ( ' ' ' ' ' ' ' ' ( R F H ( ' ' ` H / ( { ' ' ' ' ' ( / / ( ( / F G G G G F / ' ' ' ' ` ' ' ' ' ' ' ' ` ( R ",
"' 0 # > 4 4 4 4 4 4 7 7 t y e t 7 7 l r : : : : : : : : > , e m U ;.] e 4 4 4 4 4 4 , : : : : : : > > > : $ O * D.nXNX@X{ / / ' ` ` ( ~ ~ / ~ ~ =.y.5.( R R ~ ~ ~ ~ ~ ~ R Z M M N R ~ ~ G M Z R ~ ~ ~ ~ ~ ~ ~ ~ ~ ~ ~ ~ ~ R R H N Z x.y 6 e t & W >Xc.Z Z Z Z G G / ` ( ( ' ' ' ' ' ' ' ' ' ' ] O.2.] ` ~ ~ ( ` ` / R 1./.z c ( 3.F 4 : : : : 4 e t u P E.7XoXXXu.5.] S p , : : : : : : , 4 4 4 4 4 4 4 4 > # $ G ~ ( ' ' ' ' ' ' ' ' ' ` ` ` ' ' ' ` R F / ` ' ' ' ' ' ' ' ` ` ( H G G G F R ( ' ' ' ' ' { ] ' ' ' ' ' ' ' ( R ",
"R 6 = 6 7 4 4 4 , 7 i y t t 4 > > x C.| , : : : : : : : : , S u. XU.5.y 4 4 4 4 4 4 , > : : : : : : : : : O # 0 9XiXpXb.{ ] ' :.{ ' ( ( ( ( ( ` 5.!.y.] ( ` ` ` ` ` ` ` ` ` ( R ~ ` ` / H ~ ( ' ' ' ' ' ' ' ' ' ' ' ' ' ` ( R M M s a.) y e p > O.uXx.~ ( / / / ( ' ( s F ' ' ' ' ' ' ' ' / R ( ' ] ` H G G / ` ( H F R W.c ) 9XrX{ t < : : < < e 7 i U u.'.'.T.5.H p e , : : : : : : , 4 4 4 4 e 7 , 4 4 > # $ G ~ ( ' ' ' ' ' ' ' ' ' ' ' ' ' ' ' ' ` ( ( ' ' ' ' ' ' ' ` / H G G G H ~ ( ' ' ' ` ' ] { :.{ ] ' ' ' ' ' ` ( R ",
"R 3 $ i D i 4 4 t e y t e , : : : r  .x > : : : : : : : : , u q.XX!.w.u 7 4 4 4 4 4 , , < : : : : : , , > # = z 8Xb.l.7.{ 3.3.1.{ ] ' ' ' ' ' ' :.5.5.] ' ' ' ' ' ' ' ' ' ' ' ' ` ' ' ` ` ' ' ' ' ' ' ' ' ' ' ' ' ' ' ' ' ' ( Z Z G 3.7.7 S D B 7.yX6.` ( Z ( ' ' ' ( ~ ` ' ' ' ( ( ' { ] H G ( ' ' ( G G G F H F ~ / H x.E W ,X3X6.i 4 , , , 4 e u m S D ;.;.e.( u w , : : : : , , , 4 4 4 e 7 t e 7 4 4 , = $ G ~ ( ' ' ' ' ' ' ' ' ' ' ' ' ' ' ' ' ' ' ' ' ' ' ' ' ' ' ~ G G G F ~ ` ` ' ' ' ' ` :.1.1.1.{ ' ' ` ( ( ` ' ( R ",
"R 3 $ Y I.P 7 4 t y y 4 > : : : : > , > : : : : : : : : : < p U ,.;.-.u e 4 4 4 , , , , > : : : : : , , > # # A @X( ' 1.] ] 3.:.] { ] ] ' ' ' ' ' ' ' ' ' ' ' ' ' ' ' ' ' ' { ] ' ' ' ' ' ' ' ' ' ' ' ' ' ' ' ' ' ' ' ' ' ' ' ( R ~ ` v.7 U Y.U.'.qX5.] Z G ' ' ' ` ( ( ' ' ' ' ( ( ] :.] ( / ` ' ' ( G G G G G H ` ( G ( z c { ( A s 7 4 , 4 7 e 7 e t i S G F D e , : : : : : , , 4 , 4 t y y y t 4 4 4 , = $ Z H R ~ ( ` ' ' ' ' ' ' ' ' ' ' ' ' ' ' ' ' ' ' ' ' ' ' ' ~ G F H ( ' ' ' ' ' ' ' ] 1.1.] ] ( ` ( / F G H ( ( R ",
"M * $ S ;.S 4 , 4 e 7 : : : : : : : : : : : : : : : : : : > e S m D _ 7 4 4 4 , , , , < : : : : : , , 4 > # # W 7.R ( ' ( ' 2.4.4.2.2.2.{ ' ' ' ' ' ' ' ' ' ' ' ' ' ' ' { ] :.{ ] ` ' ' ' ' ' ' ' ' ' ' ' ' ' ' ' ' ' ' ' ' ' ' ( R / v.i ;.XXoX'.wX=.~ u H ~ ( ' ~ F F ~ ( ` ' :.1.1.1.:.' ' ' ' ' ( F G G G G G ~ ( G R y y y y t 7 4 4 4 4 4 4 4 4 e p u u p i 4 : : : : ; ; > , 4 4 7 t y 7 7 , , 4 4 , = $ V V Z G G H ` ' ' ' ' ' ' ' ' ' ' ' ' ' ' ` ( ( ` ' ' ' ` ` ( ] ] ' ' ' ' ' ' ' ' { 1.{ ( R F F F G G G G F / R ",
"G > # 7 p e 4 , 4 , : : : : : : : : : : : : : : : : : : : , 7 u p F / 7 4 4 4 , : : : : : > : : > 4 4 4 > #   s H ~ ` ' ' ] O.f.D.z.f.2.] ' ' ' ' ' ' ' ' ' ' ' ' ' ' :.1.1.1.:.' ' ' ' ' ' ' ' ' ' ' ' ' ' ' ' ' ' ' ' ' ' ' ' ` ~ ~ h.V &.'.'.R.5X] H G G H _ w.] ( H G F / ] :.1.] ] ` ' ' ' ' ( ~ F G G G G G G / R R 9 > 4 7 4 4 4 4 4 4 4 4 4 4 4 7 e e , , 4 : : , > ; ; : : > 4 7 y e e , 4 4 4 4 , $ $ V V Z G G H ` ' ' ' ' ' ' ' ' ' ' ' ' ' ` ( F R ` ' ' ' ' ' =.i.y.` ( ' ' ' ' ` :.:.] R G G G F F G G G G G R R ",
"R > # > , 4 4 4 4 > : : : : : : : : : : : : : : : : : : : , t y y F R 4 4 4 4 4 : : : : , > : : , , 4 4 > X   4 M R ' ` ' ] 2.V.1X4XA.2.{ ' ' ' ' ' ' ' ' ' ' ' ' ' ] 1.3.{ { ' ' ' ' ' ' ' ' ' ' ' ' ' ' ' ' ' ' ' ' ` ( ( ` ' ` ( R 3.( [ <.Y p.6X] ( ~ ~ ( e.'.y.=.` ( / ( ] 1.:.{ ` ' ' ' ` ` ~ G G G G G G G G / R R 6 * 4 4 4 4 4 4 4 4 4 4 4 4 4 4 7 4 , : , : : 4 , : : : : : 4 e y e 4 4 4 4 4 4 , $ $ Z H R F ~ ` ' ] ' ' ' ' ' ' ' ' ' ' ' ' ` ` ( ` ] ' ' ' ' ' :.U.y.P F ( ' ' ' :.1.` F G G G G ~ ` ( R F G G H R ",
"F > $ > , 4 4 4 4 > : : : : : : : : : : : : : : : : : : ; , e y 7 G Z , 4 4 4 4 , > < > , : : < 4 , 4 4 > # # 4 M Z ( ` ' ] 2.V.<X<XA.4.{ ' ' ' ' ' ' ' ' ' ' ' ' ' 1.f.4.{ ' ' ' ' ' ' ' ' ' ' ' ' ' ' ' ' ' ' ' ' ' / G F / ' ' ( ~ ] W +.X.r } -X] ] ' ` ] 5.i.5.] ' ' ' :.:.1.{ ` ' ' ' ( ~ ( ` ( R H F G G G H ( R R > * 4 4 4 4 4 4 4 4 4 4 4 4 4 4 4 4 4 , , : : , , : : : : 4 5 5 4 4 4 4 4 4 4 4 , $ = G R R F Z H ] 1.{ ] ' ' ' ' ' ' ` ( / ~ R F ~ :.h.1.' ' ' ' ] =.] H G F ( ` { { :.~ G G G G G H ` ` ` ` ( / ~ R ",
"V $ > 7 , , 4 4 4 4 , , , : : : : : : : : : : : : : : : : , 7 7 7 V V , 4 4 4 4 , , 4 > : : : : , , 4 p > * * y H H ( ' ' ] 2.9.V.A.f.2.{ ' ' ' ' ' ' ' ' ' ' ' ` :.3.V.2.` ' ' ' ' ' ' ' ' ' ' ' ' ' ' ' ' ' ' ' ' ' ( ( ( ` ` ' ` / / r h l > E %X=.' ' ' ' ] =.] ' ' ' :.1.:.` ` ' ' ' ' ` ( ` ' ' ` ` ` ( / / ` ( R R > & , 4 4 4 4 4 7 4 4 4 4 4 4 4 4 4 4 4 4 > : , 4 , > < 4 4 t e , 4 4 4 4 4 4 4 , $ = Z R / G e Z 2.v.9.1.] ' ' ' ' ` ~ F G G G G H 3.#X3./ ~ ( ` ' ' ( F G G R :.1.1.' R G G G F R ( ` ' ' ' ' ` ~ R ",
"7 # # t t , , 4 4 4 4 4 , , : : : : : : : : : : : : : ; , 4 4 4 : V V , 4 4 4 4 4 > : : : : : : > 4 4 u i r 7 z _ ^ ` ' ' ] O.O.2.2.2.2.] ' ' ' ' ' ' ' ' ' ' ' { 1.:.] ' ' ' ' ' ' ' ' ' ' ' ' ' ' ' ' ' ' ' ' ' ' ' ' ' ' ' ' ' ` ~ ~ 9 $ > = z W./ ( ` ' ` ( H F F / { :.3.:.( ' ' ' ' ' ' ' ' ' ' ' ' ' ' ' ' ' ( R R > & , 4 4 4 4 y K j 7 4 4 4 4 4 4 4 4 4 4 4 : > 4 , 4 e t t y e , 4 4 4 4 4 4 4 4 $ = Z ~ ' ` ( 1.A.2X_.7.] ' ' ' ` ~ G G G G G G F ~ { / F G G F R H F G F H ~ ] 3.] / F G G R ( ` ' ' ' ' ' ' ` R R ",
"# # # > y u , 4 4 4 4 4 , , : : : : : : : : : : : : : , 5 4 < : ; V z , 4 4 4 4 4 : : : : : : > , 4 e u P ;.U Y / ( ` ` ' ' ' ] ] ] ] O.] ' ' ' ' ' ' ' ' ' ` { { 1.:.` ' ' ' ' ' ' ' ' ' ' ' ' ' ' ' ' ' ' ' ' ' ' ' ' ' ' ' ' ' ` ~ ~ 7 # % # 9 a.G F ~ ` F y t e t z { 1.1.:.` ' ' ' ' ' ' ' ' ' ' ' ' ' ' ' ' ' ( R H > $ 4 4 4 4 4 l #.J 7 4 4 4 4 4 4 4 4 4 4 4 , , 4 7 e e y e e 4 , 4 4 4 4 4 4 4 4 & = G ( { :.5.r.~.2X{.9.1.] ' ' ` H G G G G G G G G H F G G G G G G G G H ( ` 1.{ R G G F / ` ` ` ' ' ' ' ' ' ( R R ",
"& & > > > y s 4 4 i D e 4 , : : : : : : : : : : : ; , 4 7 4 : : ; G s , 4 4 4 4 4 < : : : , , , 4 4 e m U !.T.Y P ( ` ' ' ' ' ' ' ' ' ' ' ' ' ' ' ' ' ' ( ( { 1.1.1.:.' ' ' ' ' ' ' ' ' ' ' ' ' ' ' ' ' ' ' ' ' ' ' ' / ~ ` ' ' ' ` ~ R 7 # $ # 7 6.G F R ( u t t y s W 3.{ :.] ' ' ' ' ' ' ' ' ' ' ' ' ' ' ' ' ' ` ~ R G * $ 4 4 4 4 4 9 j y 4 4 4 4 4 4 4 4 4 4 4 4 4 4 7 i y y e 4 , 4 4 4 4 4 4 4 4 4 4 > % F ( ' ] 5.i.[.XX~.r.5.] ' ' ` F G G G G G G G G G G G G G G G G F / ~ ' { ] ( F G F ( ` ' ' ' ' ' ' ' ' ` / R R ",
", , 4 , , & s V 4 u S e 4 , : : , > : : : : : ; : 4 5 5 4 4 : : : F y , 4 4 4 4 , , : > , 4 4 4 4 4 e i U t.u.D Z ~ ( ' ' ' ' ' ' ' ' ' ' ' ' ' ' ' ` ' ` / ' 1.:.:.] ` ' ' ' ' ' ' ' ' ' ' ' ' ' ' ' ' ' ' ' ' ' ' ` F G R ` ' ' ` ~ R > # & # 7 l.R ( ` ( s t u R ' 1.:.' ' ' ' ' ' ' ' ' ' ' ' ' ' ' ' ' ' ' ' ` ~ R F * $ 4 4 4 4 4 4 4 4 4 4 4 4 4 4 4 4 4 4 4 , 4 y t y t 7 4 4 4 4 4 4 4 4 4 4 4 4 7 3 3 E :.:.-.w.!.oXoX'.r.:.=.' ' ` F G G G G G G G G G G G G G F R / / ' { :.' ' ` H H ( ' ' ' ' ' ' ' ' ' ' ` ~ R R ",
"4 4 4 4 4 > $ z Z 7 4 4 4 , : , 4 4 > : : : : > > 4 t e 4 : : : , H y > 4 4 4 4 , 7 4 4 7 4 4 4 4 4 7 m B j i S i G / ' ' ' ' ' ' ' ' ' ' ' ' ' ' ' ' ] 3.1.1.:.' ' ` ' ' ' ' ' ' ' ' ' ' ' ' ' ' ' ' ' ' ' ' ' ' ` ( F F H / ' ' ` ~ H > # > # 6 l.( ' ' ' ' { { 3.1.] ' ' ' ' ' ' ` ` ` ' ' ' ' ' ' ' ' ' ' ' ' ( R R G & $ 4 4 4 4 4 4 4 4 4 4 4 4 4 4 4 4 4 4 4 4 , t y t 7 , , 4 4 4 4 4 4 4 4 4 4 5 e 9 9 ( h.>.3.,.!.OXOX XE.w.5.] ] ( G G G G G G G G G G G G Z R / ( ( / ( ' ( ( ( ` ( ( ` ' ' ' ` ( ` ` ( ( ( / R R R ",
"4 4 4 4 4 4 > $ Z F 7 4 4 4 , 4 4 4 > : : ; : t 7 7 e > : ; : : 4 R t , 4 4 4 , 6 y J J y 9 4 4 4 4 e p , > > e i i R ~ ( ' ' ' ' ' ' ' ` ` ' ' ' ' 1.:.3.:.{ ' ` ( R ( ' ' ' ' ' ' ' ' ' ' ' ' ' ' ' ' ' ' ' ' ' ' ' / / ) ' ' ' ` ~ G & # > $ 3 k.( ' ' ' ' >.3.:.' ' ' ' ' ' ' ` R H H ( ' ' ' ' ' ' ' ' ' ' ` ( R R Z & # 4 4 4 4 4 4 4 4 4 4 4 4 4 4 4 4 4 4 4 4 4 4 e 7 , : < , 4 4 4 , 4 4 4 7 t y s z E l.@Xh.6.5.U.`.!.y.5.:.=.] ] ( G G G G G G G G G G Z M Z R R R R R R R R R R R ~ / ( ( ( ( ( R ~ ~ R R R R R R ~ ",
"4 4 4 4 4 4 , > $ Z F e , 4 4 4 4 , : : : 4 4 7 4 , : : : : : : , / 9 , 4 , > , 7 j B.G. .y 4 4 4 4 4 4 > = $ > t t G R ~ ( ` ` ' ' ' ' ` ~ ( ' ' ' :.1.:.' ' ` ( G G / ' ' ' ' ' ' ' ' ' ' ' ' ` ' ' ' { ' ' ' ' ] O.2.8.9.2.{ ] ` ~ V $ # > $ > s.( ' ' ' ' ' :.] ' ' ' ' ' ' ' ` / ~ ~ ` ' ' ' ' ' ' ' ' ` ' { ( R R V $ # 4 4 4 4 4 4 4 4 4 4 4 4 4 4 4 4 4 4 4 4 4 4 4 , : : : , 4 4 4 4 4 4 4 , 7 y Z ( s.>XpX#Xa.:.5.y.5._ ~ ~ ~ ( ` ( G G G G Z Z Z N M M M M Z R R R R R R R R R R R R R R R R R R R R R R R R R R R ( ",
"4 4 4 4 4 4 4 4 & & A H 7 4 4 4 4 , > : : 4 7 4 : : : : : : : : 4 / y , 4 > : : > x C.H.K 9 4 , 4 4 4 , & # # # > e t Z R ~ ~ ( ` ' ' ' ' ` ` ' ' ' ' ' R H H R F G G R ` ' ' ( ( ' ' ' ' ' ' ` ' ' ] 2.4.{ ] ] ] { 2.f.F.F.f.3.{ ` R s = # > & * 3.( ' ' ' ' ` ` ' ' ' ' ' ' ' ' ' ' ' ' ' ' ' ' ' ' ' ' ' { { { ( ~ R s $ # , 4 4 4 4 4 4 4 4 4 4 4 4 4 4 4 4 4 4 4 4 4 4 , : : : , 4 4 4 4 4 4 < : > 4 t Z @.,XtX*Xb.7.:.-.~ G Z N M Z ~ R Z M M M M M M s s s s s M R R R R R R R R R R R R R R R R R R R R R R R R R R / / ",
"4 4 4 4 4 4 4 4 , & * H F 4 4 4 4 4 4 , , , 7 , : : , : : : : > e / V , , : : : > 7 j K j 7 e 7 , , , , & # # 6 3 $ 4 t s F R R ~ ( ` ' ' ' ' ' ' ' ' ( G G G G G G G G H ( ` ( H ( ' ' ' ' ' ` ] 1.2.9.f.4.1.O.1.2.f.F.fXfX).4.O.( H y # # > & $ ' ~ ' ` ' ` ' ' ' ' ' ' ' ' ' ' ' ' ' ' ' ' ' ' ' ' ' ' :.1.1.' ( ~ R M * $ , 4 4 4 4 4 4 4 4 4 4 4 4 4 4 4 4 4 4 4 4 4 4 , < : > , 4 4 4 4 4 4 < : : > 7 a E g.^.x.6.:.( _ H Z Z M M Z R H M M M M M M s s s s s s s Z R R R R R R R R R R R R R R R R R R R R R R R R R ( / ",
"4 4 4 4 4 4 4 4 4 , $ > W i , 4 4 4 4 4 4 , , > : : : : : : : , t F G 4 , , , > , > > 4 y 7 t e 7 , 4 4 & # # ) D.9 # 3 9 y G R R R ~ ( ` ` ' ' ' ' ' ` R G G G G G G G G G ~ ` ( ` ' ' ' ' ' ' 1.4.f.F.{.f.4.4.4.d.A.1XlXkXF.f.2.] H 7 # # > > = R ~ ` ` ~ H / ` ' ' ' ' ( / ` ' ' ' ' ' ' ' ' ' ' ' ` ] :.1.' / R ~ _ _ e $ , 4 4 4 4 4 4 4 4 4 4 4 4 4 4 4 , , , , , , , , , > > , , , , , , , , , > 3 5 9 0 W } >.{ { ~ H M M s s s G F G s u t t t e e 7 9 7 7 7 7 e u s s s z z V G F H R R R ~ ~ ~ R ~ R R ~ R R R ( ( A ",
"4 4 4 4 4 4 4 4 4 , > = 7 ~ e , 4 4 4 4 4 4 4 : : : : : < 4 e , s Z z t , 4 4 , , > : 7 y y y t 4 , 4 4 & # $ F 6.D.z # > 7 t s F R R R G G R ~ ( ` ` ' ( H G G F G G G G G G / ` ' ' ' ' ' ' 1.4.f.S.2XsX_.z.c.b.z.9.A.4XF.f.2.] ( G 6 # $ 4 > = Z ~ ( ` ~ H R ` ' ' ' ' ( F / ' ' ' ' ' ' ' ' ' ' ' ' { 1.{ ( R R / 5.U.D > 4 4 4 4 4 4 4 4 4 4 4 4 4 4 4 4 , , , , , , , , , , , , , , , , , , , , 4 7 e 9 7 c y a 9 6 7 4 & $ $ $ % $ $ $ $ O X X X X X X X X X X X # # # # # # # $ $ & > 3 7 9 y i s z V V G G G Z A A y * ",
"4 4 4 4 4 4 4 4 , : : > $ z H 4 , , 4 4 4 4 , : : : : > e ` U p F z 7 V , 4 4 , > : 4 t y 7 e , 4 4 , 4 & # i / H ] W.c # & 6 e y Z G M s s M Z G H ~ ` ' ( ( ( ( ~ G G G G G / ` ' ' ' ' ` ' { 3.9.A.1XsX{._.pXpX~.a.d.f.9.2.O.] ( Z 6 $ * 9 6 = y ~ ( ' ' ' ' ' ' ' ' ' ' ( ` ' ' ' ' ' ' ' ' ' ' ` :.:.1.` R R R ~ ] *.z 6 e e 4 4 4 4 4 4 4 4 4 4 4 4 , > > > > > > > > > > > > > & > > > > * > > > > > 3 9 a 3 $ # o # # # # # # # # # # # # o X X X X X # # # # # # # # # # # # # # # o       X # # # # # $ $ $ * % 3 > > ",
"7 4 4 4 4 4 4 4 , : : : > * H M 4 4 4 4 , , : : < , 4 4 p _ ] t E z > Z 7 4 4 4 , , e y e 7 > : > , 4 4 & 6 z s F H ( h.W $ = > e 7 7 u s M M M M Z Z ~ ' ' ' ' ` R G G G G / ` ' ' ' ' ' ' { 1.3.2.9.A.S.f.D.pXiX/.7.1.4.2.{ ] ' / s 9 a A E y $ 9 R / ' ' ' ' ' ' ' ' ' ` ` ' ' ' ' ' ' ' ' ' ' ' :.1.{ ( R R R R R H i > e ;.D 7 4 4 4 4 4 4 4 4 4 , > > # # # # # # # # # # # # o     o # # # # # # # # % 3 6 * o o X o # # # # # # # # # # # # # # = $ & & & & & & & & & * & & > > > : & # # # $ & > > > > > > 9 9 9 t e 4 ",
"p 4 4 4 4 4 4 4 4 > : , , > 7 / t , 4 4 , , : : , 4 4 4 4 e t y V z > y s , 4 4 , e t y e > : : : : , , 6 7 t y F / / ~ 7.s.0 # $ > > , e s M M M M Z ~ ` ' ' ` R G G G F ( ' ' ' ' ' ' ' :.1.:.' ' O.8.8.4.k.^.~.c.3.{ O.] ' ' ` ~ s y } $XD.A * 6 H / ` ' ' ' ' ' ' ' ( H H ( ' ' ' ' ' ' ' ' ` { :.3.` F R R R R R G t * p w.I 7 4 4 4 4 4 4 4 4 4 , > # # # * z ) ) ) ) ) ( W W A z s y a a y y y 9 y z a z a y 3 4 3 3 9 0 9 7 7 7 7 7 7 7 6 > % = # = > , , , , 4 4 4 4 4 4 4 4 4 4 , , , : : : : , 4 , 7 e e e y e e 4 4 ",
"m e 4 4 4 4 4 4 4 4 4 4 , , * Z W e , 4 , , , 4 4 4 4 4 4 4 4 s t s > , G e 4 4 e y t 7 , : : : : ; : 4 z = y y / ` ` ` ( :.c.) % O : , > 5 s F H R R R ~ ( ` R G G G G / ' ' ' ' ' ' ` { :.3.{ H F R ) O.1.6.3.3.:.{ ] ] ' ' ` ` ~ Z y @.3X@XE * 3 H ~ ` ' ' ' ' ' ' ( G G G ~ ' ' ] ' ' ' ' ' :.1.>.( G M R R R R R V e $ > u t 7 4 4 4 4 4 4 4 4 4 , $ # $ / (.8X0X0X0X0X9X8X8X>X;X*X/.b.b.b.b.c.b.b.W.W.W.b.W.b.c.c.b.*X-X-X-X-X-X-X-X;X-X;X-X=X(.c.) 3 # > , 4 4 4 4 4 4 4 4 4 4 4 4 , , 4 , , : : : , , 7 u y y 9 4 , , 4 ",
"S w , 4 4 4 4 4 4 4 4 4 4 , > 3 ( G 4 , > > > , , 4 4 4 4 , e i 3 s > > y z , e t y t 4 > : : : : : : V 7 X y y / ' ' ' ' ` ` x.c.y o & 7 e t s G G G G G G Z N Z Z G G ( ` ] ] ] ' ' { 1.1.1.:.~ G G H H ( { { { ] ' ` ` ( ( / / -.&.y c @.} Z * & G R / ( ( ( ` ` ( G Z Z Z ~ ' ' ] ' ' ] { :.{ :.( G N G R R R R R s e $ # 4 4 4 4 4 4 4 4 4 4 4 4 > # # A 9X>X/.b.k.7.6.1.:.] ` ( ( ( G Z Z Z Z H ( ~ ^ ^ ~ ( ^ R ~ ( ' ' ] ' ] ] { :.1.3.3.6.7.c.8X0X^.> $ , 4 4 4 4 4 4 4 4 4 4 4 4 4 4 4 4 , : ; : , y t y e 7 , , , > , ",
"e 4 4 4 4 4 4 4 4 4 4 4 4 , > & z ] s : : : : : : > , , , e s 4 4 s > , & Z z t y t e : : : : : : & u V & o y y ( ] ' ' ' ' ` ` 3.~.3.0 6 6 t 4 4 t s s M M M M M M M M R / ` 5.5.=.` ` ' ` ` ( ~ Z M Z Z G ~ ( ( ( ^ ~ ~ R R F V S S > > 6 y t * $ s F M M M V V Z V M M M N G / ( ] ( ( ] :.{ ' ( R F H R R R R R F y 9 $ # > 4 4 t y 4 4 4 4 4 4 4 > # # ( *X{ / / / / / ( ( ( ( ( ( / G G G F ~ R / R R ( ( ` ` ( ( ( ( ( ( ( ( ( ( ( ( ( / R H R 3.>X9XE # > , , 4 4 4 4 4 4 4 4 4 4 4 4 4 4 > : : : > t y t 4 4 4 , : : > ",
"7 4 4 4 4 4 4 4 4 4 4 4 4 4 > ; > ( ( u 4 > : : : : < 4 e e > : 7 s > 7 4 9 W s e 4 : : : : : > > u E > # o z D y.5.' ` ' ' ' ' ' ( 7.A.Q = > 7 4 , e i Z F G Z M M M G R / ] !.!.5.' ` ( R R R R G M M M F ~ R W W H F G z u t t t 7 # = $ 4 4 & $ t G M M M s s s s s s V Z G ~ ) 2.) 1.' R H R H R R R R R R R R G t 7 # # > 4 e ( } t 4 4 4 4 , 4 > # # ) 7./ ` ' ' ' ' ' ' ' ` G Z ` ` ` ` ` ] ( / F G F R / ( ( ` ' ' ' ' ' ' ' ' ' ' ' ' ` ( ~ R 7.0Xl.# > , , 4 4 4 4 4 4 4 4 4 4 4 4 4 4 , : : : : : 7 4 , 4 4 > : : , ",
"7 4 , 4 4 4 4 4 4 4 4 4 4 4 > : $ V ' ` / R F z y t e 4 < : ; $ e s > 7 i 7 s W t : : : : : : , i ( y # # # z P U.-./ / ( ( ( ` ` ` R W / 7 # & 7 7 7 e y u u s s s s V G F ` r.r.] / R F F G G G Z u t t V L V x z z y y e e t t t > # # = , 4 > # 7 u s s u e 7 5 5 7 t s G W ) @.8.2.6.1./ G H ~ ~ R ~ ~ ~ ~ R R s e 7 # # > 4 7 V G 7 , , 4 4 , , > # # } ] ( ' ] 2.O.' ' ' ' ( V / ' ' ' ' ' ' ( F G G G G G G F ( ' ' ' ' ' ' ' ' ' ' ' ' ' ' { ( ~ ~.@X& $ , , 4 4 4 4 4 4 4 4 4 4 4 4 , , 4 4 : : : : : : , , 4 , , , 4 ",
"4 4 4 4 4 4 4 4 4 4 4 4 4 4 > : : 6 ( V F t e 7 4 4 : : ; $ O : t z e t y 9 > e F G u 4 , 4 u G ( G $ & $ # y e Z V u s Z G H H R ~ R R R z 7 * $ 3 e e t t t t t y z y t t u G F Z y t t t t t t e 4 4 9 i K Q K K x l j j y 7 6 > $ # # $ , 4 > # > e 7 , , > > , , 4 7 e j K +.A._.8.2.O.[ / / H H H F G Z V s u e e 7 # # > 4 4 7 7 4 e 7 4 4 4 4 * # # ) ( ` H Q 0.8.O.' ' ' ] =.=.] ' ' ' ' ' ` R F G G G G G H ` ' ' ' ' ' ' ' ' ' ' ' ' { { :.] / ` @X7 # , 4 4 4 4 4 4 4 4 4 4 4 4 4 4 , > : : : : : : : , , 4 4 4 4 4 ",
", 4 4 4 4 4 4 4 4 4 4 4 4 , : : , > V > 7 i : > > : $ O X . X : s H t y t 7 6 3 z } ) F s s V G F > # > & # y $ & > , 6 9 e y u i s z s i y 7 7 2 1 6 6 6 6 6 7 y K N.K y 9 e 9 y y e e 9 9 e e e 7 , 4 y j J N.M.#.| K v 7 * $ * = @ @ # $ , 4 3 & # = % $ # & > > > 6 e j J X.S.sXfX$X..! A C C x x x y t e e e e e 7 > # # > 4 4 4 e e t e 7 , 4 4 * # # ) ( ] +.C.aXS.+.] ' ] 5.y.r.a.1.' ' ' ' ' ' ( / H G G G ~ ' ' ' ' ' ' ' ' ' ' ' ` 1.1.1.1.{ ( R a.l # > 4 4 4 4 4 4 4 4 4 4 4 4 4 4 > : : : : : : : : > 4 4 4 4 4 4 ",
", 4 4 4 4 4 4 4 4 4 4 4 4 , , , 4 > t 6 = t 9 : $ X X O $ O   & V z y e 7 4 4 z @.$Xg.z 7 y s t y # > , > # y # # # # * * $ $ $ $ $ $ $ $ $ $ % g  .b 1 = # # # * k M.b * = # # # # # # $ $ $ $ # = # $ > 8 b Z.aXH.Z. .q * % $ & $ o   X $ < , , , > > & & $ # # ; > > 7 j | C.1XlXzXdX_...Q J b k b 0 > * $ $ $ $ $ # # # # > 4 4 t y y t e 4 4 4 4 * # # ( ~ ' O.f.1XS.2.] ' ] r.`.R./.7.' ' ' ' ' ' ' ' ` / F F ( ' ' ' ' ' ' ' ' ' ' ' { :.1.` ( ( ` ~ / y # > , , 4 4 4 4 4 4 4 4 4 4 4 4 , , < : : : : : : : : , 4 4 4 4 ",
"4 4 4 4 4 4 e 7 4 4 4 4 4 4 4 4 4 > y 7 > & i s : $ $ O X $ X O > $ 3 > 4 $ o 9 d.,Xb.Z z y : y 3 $ , , 7 2 i * * > * > * $ # # # # # # # # # * b J.M.q = # # # # * q * # # X   X         # # # # # # # * g  .G.lXgXJ.b q 6 > * & $ X X o O O O # $ & & & & & $ $ & > r i x | A.{.fXgX}.A.z.X.$.$.$. .8 * = # # # # # # # # $ , , 7 t y 7 7 , 4 4 4 4 > # = / ~ ` ] 2.9.2.] ' ' ] 5.i.r.7.:.' ' ' ' ' ' ' ' ' ' ` ` ` ' ' ' ' ' ' ' ' ' ' ' :.1.] H G / ' ( R 7 + $ : > 4 4 4 4 4 4 4 4 4 4 4 4 4 4 4 , : : : : : : : > , 4 4 4 ",
"4 4 , 4 e 7 t e 7 4 4 4 4 4 4 4 4 , s 4 , > > G G 7 O O   o $         o & X O 4 E @.W R V , > y > > e s P D Z 7 e y y t e , > > > > > > * = # * g %.b 6 $ # # = = = = # # # # O O X X X X # # # # # # = - q  .G.fXfXM.b q > * # # X X X       X X X X # # # # # # # $ > r Y A.2XhXhX2X_.V.0._.F.aX2X+.x 8 2 > > > * > > > > , 4 4 e y e 7 4 4 4 4 4 4 > # = E ~ ` ' ' O.' ' ' ' ' ] =.] ' ' ' ' ' ' ' ' ' ' ' ' ' ` ` ( ' ' ' ' ' ' ] ] ] 2.1.3.{ ( ( ` ' ( F 4   O : < 4 4 4 4 4 4 4 4 4 4 4 4 4 4 4 4 : : : : : : > , 4 4 4 4 ",
"4 4 , e y y y t 4 4 4 4 4 4 , , , , z > , , > 7 s : O 3 O . X .           $ 4 > y a 7 y 4 > > i > 7 A z.~.-.V s t y 7 7 , 4 , , 2 2 , , > # l d.4.d.g.s.{ 1.3.k.c.l.l.d.) 6 # $ O X     X = % * > > 6 8 h Q $.N.Z.G.C.Q A A z z s z V Z Z A E E W W ( @.6.s.s.7.s.4.7.2.O.7._.hXhXeXeX[.[.0.F.dXjX2XN.J y 7 7 4 , 4 4 , , , , 4 t t y 7 , 4 4 4 4 4 4 > # = Z ~ ' ' ' ' ' ' ' ' ' ' ' ' ' ' ' ' ' ' ' ' ' ' ' ' ` ( F F ( ' ' ' ' ] O.O.4.4.O.o.( ' ' ` ' ( V 4   O : > 4 , > > > > > > > > > , , , , 4 > : : : : : , 4 4 4 4 4 ",
"4 4 7 e y 7 7 , > > , , 4 4 > : > t y > , , , & O & >           . . . . X O o   > H 9 & > > 4 y > 7 F ^.b.F y Z y e 7 , , , , , > : : : $ $ n.~.' ' ' ~ R ~ ( 1.6.7.a.k.=X6.# # X   & W g.^.@X@X(.(.^.^.).D.c.A.A.A.A.4.' ' ~ R R R R R R R ~ ~ ( ' >.h.k.l.c.c.b.W.W.k.x.Q.].eXcXcXcXcX5XV.Z.dXkX1XN.J y 9 4 4 4 4 , , , , 4 t y t 4 4 4 4 4 4 4 4 4 > # = G / ' ' ' ' ' ' ' ' ' ' ' ' ' ' ' ' ' ' ' ' ' ' ' ' ` H G G ~ ' ] O.O.O.2.9.2.2.8.[ H R ( ` ` R M 4   O : : & $ # # # # # # = # # $ $ $ $ $ $ # O O O # $ & & * & & ",
"$ $ > 6 3 > > > : : : < , 4 , : : u , > 4 4 , > > $ # O X       . . . .     X > o y y $ > 4 4 y 3 4 y F G t t A s e , , , , : : : : : : O 3 k.R / ( H G G H ( ' ` ` ( / { l.$ o X $ l.qX0X%Xc.7.{ ( / ~ H H W / [ [ 2.1.R Z M M M M M M Z G G G H R R R R R R R R H Z G ~ _ w.R.XX7X7XcXyX).A.G.G.z.$.K y 7 4 4 4 4 > : : : 7 e y e 4 4 4 4 4 4 4 4 4 > # $ G ( ' ' ' ' ' ' ' ' ' ' ' ' ' ' ' ' ' ' ' ' ' ' ' ' ( F G G ~ ' ] O.8.9.f.A._.F.f./ W F F F F G M 4   X O # # # # # # # # # # # @ @ X X @ @   X X           X   +   ",
"% * * * % # # # # ; : : , 4 4 , t 4 : > , > > u t & X 4 & .     . .         X & # > > > , , , 9 9 , 4 7 7 t y y V 4 > : : : : : : : : < # 9 a.G G G G G G ~ ' ' ' ' ' ' / 1.* # # l 6X*X1./ R R R ~ ~ ~ / / ( ' ' 3.i.E.] F G G G F ~ ( ` ` ' ' ' ' ` ' ' ' ' ' ( H H ~ ( _ 5.i..X5XeXbXbX3X_.0.+.! A x l 7 4 4 4 4 > : : 4 5 7 7 e 4 4 4 4 4 4 4 4 4 > $ * H ( ] ' ' ' ' ' ' ' ' ' ' ' ' ' ' ' ' ' ' ' ' ' ' ' ` H G G / ] ] O.4.A.{.1XfXsXV...! H F F G Z M 3   X X # 0 l.z.v.l.g.d.s.7.6.4.3.2.2.@.O.} } } ( A A Z Z A W A z ",
"*X(.n.@.A > # o X $ : : , 4 7 u 7 > > , , > , G > X $ # .                   X X & X & > , , , , y 4 4 , e e y 6 y u : : : ; : : : > 4 , & 0 a.( ~ G G G G R ' ' ' ' ' ' ( E % # # A 6X3.H ~ / ( ( ` ' ' ' ' ' ] 3.r.`..X5.~ H R ( ` ' ' ' ` ` ( ( ( ( ( ( ( ( / F G H ~ ` :.7.E.].wXvXmXMXiX).+.) A z y e e 4 4 4 , 4 4 4 , 7 , 4 : > , 4 4 4 4 4 4 4 > > y ] -.:.' ' ' ' ' ' ' ' ' ' ' ' ' ' ' ' ' ' ' ' ' ' ' ' ~ G F ` 1.] 2.d.A.1XjXzXfXZ.+./ H F G G Z M >   X X O g.qXqXqXqXqXqX0X0X0X9X9X9X9X9X9X9X9X0X8X@X/././.%X=X(.(.",
"qXrXrX0X9X%XE o X O : : 7 y y 4 > > > , , 4 V u O X & O . . . .           X $ X > $ X , , , : : 4 e 4 t y y y 9 > V t , > : : : , , , , & 6 { ` ( / H G G G / ` ' ' ' ' ( G $ # X z %X/ R ( ' ' ( F F / ' ' ] { :.5.r.E.=.` ` ` ' ' ' ' ( R F F G G G G G G F G G G F H ~ ( =.i.W.6XvXMXMXkX,Xg.@.W Z u t e 4 4 4 4 7 u 7 5 , ; : : ; > , 4 4 4 4 4 4 4 6 ,.'.y.=.' ' ' ' ' ' ' ' ' ' ' ' ' ' ' ' ' ' ' ' ' ' ' ` ` ~ ~ 5.y.7.6.d.A.{.fXzXfXF.+./ H F G G M s :   X X $ (.>X^.l.a.6.3.1.{ ] ] ' ' ' ] ] ' ( / ~ R R R R ~ ~ ~ ^ ",
"7.h.k.k.^.8X-Xy > t z V s t e 7 , 4 7 7 u G u $ # $ $ X . . . .           X $ X > > > 7 , : : : : i y e y e e 7 > > Z y , > > , 4 4 , , & * ~ ' ' ' ` / F G H ` ' ' ' ' ( G $ X   t l.Z H ( ' ' R i s R ' ] 3.1.' G V ` ] ' ` ' ' ' ' ' ` R F F G G R W F F H H G G G F H ~ ] 5.k.(.9XbXNX,Xs.E A z s y t y 7 4 4 y t y e > ; : : : : : , 4 4 4 4 , 4 4 e U.XXy.=.' ' ' ' ' ' ' ' ' ' ' ' ' ' ' ' ' ' ' ' ' ' ' ' ' ] 5.'. Xk.7.7.9.S.aXaX{.S.8.L Z Z G G M s $ X X   > (.] M M Z F ~ ~ / / / / / / / F Z M M M N M M M M M M M ",
"( ( / / ( 7.h.( y t u z V i t y s s V H / M t 7 7 7 5 > X   . . . . . .   X & O > > > i , : : : > t F z t 4 4 , , & , V s 4 , , 4 , > > & $ G ' { ] ' ' ( ~ ( ` ' ' ' ' ( G $ X   9 k.M M ( ' ` ' ` ' ] 1.:.3.:.G e s ` ` ' ` ( ` ' ' ' ' ` H F F H +.V.o.( ` ` ( ~ F F H R _ :.h.c.^.tXiXs.W l s y t e t z t e 7 t y t 4 : : : : : : > 4 4 4 4 4 , 4 4 7 D w.5.] ' ' ' ' ' ' ' ' ' ' ' ' ' ' ' ' ' ' ' ' ' ' ' ' ' ' :.U.E.5.3.2.4.A.A.C.0...K x e 4 V Z M t $   X o 6 b.~ G R G H ` ` ` ` ` ` ` / H G G G G G G G R ~ R G G Z ",
"' ` ' ` ( ~ c.7.X O $ $ : t 7 : : : : < e t : & < , 4 4 O       . . .   . : 9 $ > e 4 7 u t 7 y t t e V z e 4 , , , & > i Z y 7 4 < : : $ O s R 1.{ { { { ] ] ' ' ' ' ' ( G $ #   7 k.M Z ( ' ' ' ` ' ' :.1.:.' ~ F ( ' ' ' ( H ( ' ' ' ' ' ` / F R 0.F.8.' ' ' ' ` ( / ~ ( ] 1.6.a.a.*XtX! y 7 y t e t s W A s e 4 e 7 4 > : : : : > , 4 4 4 4 4 4 4 4 & 9 ( ] ] ' :.] ' ' ' ' ' ' ' ' ' ' ' ' ' ' ' ' ' ' ' ' ' ' ' ] 5.5.] ` ) 2.8.o.o...x e e y s A N M 5 #   X # 7 k.( ` R A Z / ( ` ` ' ' / G G G G G G G F ( ' ' ` ` ( ( ",
"' ' ` ` / M ] l.$ # & # # $ > 7 $ $ $ # # & t < ; : < > > $ X   .       O : 4 > , t y y F ~ F H E E G H W / H V y e 4 > > 7 i V s e : : $ O s H >.7.3.3.1.:.{ { ' ' ' ' / G $ # # 9 ^.R R ( ' ' ' ' ' ' ' { ] ' ' ' ' ' ' ' ' ` ` ' ' ' ' ' ' ' ` ( O.4.{ :.] ' ' ' ' ' ' ] { :.1.3.1.b.6Xz 6 > 7 e t s W x.d.R s e 7 7 4 , : : : : > 4 4 4 4 4 4 4 4 > # > ~ ( ' ] :.:.] ' ' ' ' ' ' ' ' ' ' ' ' ' ' ' ' ' ' ' ' ' ' ' ] ' ~ F H ) / / / ! F s s V A G M G 7 #   X o 6 a.( { E e e Z F F H ~ ( H G G G G G G G ~ ' ' ' / ~ ` ' ",
"' ` ` / G M N h.3 O : & $ $ $ 4 e > > & $ $ > y > > > > > e y # & o # 3 $ : : > > > 4 i y > > 6 y y y x F R F V i u t t t y s V R ( ~ F Z z ~ ' 6.~.h.a.7.1.{ { ] ] ] ` ~ V = # # 7 (.~ R / ' ' ' ' ' ' ' ' ' ' ' ' ' ' ' ' ' ' ' ' ' ' ' ' ' ' ' ' ] { { :.{ ] ` ' ' ' ' ] ] ] { :.{ h.=Xy * % 7 t s E s.>X=X3.A s z x y 4 : : : : , 4 4 4 4 4 4 4 4 , # > H ` ` ` ` ( / ( ( ( ( ( ` ` ( ` ` ` ( ( ( ( ( ( ( / / / ~ ~ ~ H V M F F F F E E F F F G G Z s Z 7 O   X   3 ( ~ R F Z G G G G G G G G G G G G G G F ( ' ' ' / ~ ` ' ",
"H H F G G Z s { y O : : : : ; $ 5 t , 4 < : ; y e , , 4 u P D , y > & 4 e & & : > > s > $ # $ > 6 7 l | l 7 2 > , , : : : 4 a A G V V z s i R { k.*X*X~.l.3.1.7.3.:.` / R y # # # 6 ^./ R / ` ' ' ' ' ' ' ' ' ' ` ' ' ` ' ' ' ' ' ' ' ' ' ' ' ' ' ` :.1.1.1.{ ' ' ' ' ' ' ' ' ' ] { ] 3.@X0 = = 6 7 t z ( n.l.R y y ..N.J , : : : , 4 4 4 4 4 4 4 4 4 4 $ > F ( ` / / R R R R R R R R R R ~ R R ~ R R H H F F G G G G G G F G Z M M M M Z Z Z G G G Z N u M 5 o     o > G Z G G G G G G G G G G G G G G G G G R ` ' ' ` ' ' ' ' ",
"G G G G G Z M E y O : : : : : : : V 4 4 , > ; 4 y > 7 u i D P > s 4 : ; 5 u > , > e e & $ & > > 8 J Q X.k 8 6 > > > > 4 z z 7 > & & > > 6 9 A 1.b.>XiXuX9X,X/.a.' / R H G 4 # # # * ~.~ R / ` ' ' ' ' ' ' ' ' ` / H H R ` ' ' ' ' ' ' ' ' ' ' ' ' ] :.1.] { ' ' ' ' ' ' ' ' ' ' ' ' ' ' W.9 = = > 7 7 t z W W s t t ! 8.x , ; : > 4 4 4 4 4 4 4 4 4 4 4 $ > Z ( ( / R ~ ~ ~ ~ R R H H F G G Z z s i u y t t t e 7 e t t t t u i t t u u s s s s s M M s 4 V 4 X   X $ & Z Z Z G G G G G G G G G G G G G G G G R ` ` ` ( ` ' ' ' ",
"G G G G G Z M M 7 O : : : : : : > z s 4 , : ; 7 y 7 z t , , 6 , s 6 : & $ t z , : u > $ : : , 7 J +.#.Z.X.v h y 7 , u V t , > & $ & > > 9 z F ( l.tXMXVXBXiXl.R z y t 7 > # # # # * c.~ R ~ ` ' ' ' ' ' ' ' ' ' ( / ~ ( ' ' ' ' ' ' ' ' ' ' ' ' ' :.1.:.] ` ' ' ' ' ' ' ' ' ' ' ' ' ' ( k.6 # X : > , 4 e s s e 7 7 e y e , : : , 4 4 4 4 4 4 4 4 4 4 4 $ 9 s / ~ F G G G V M s i y y t t e e e e e e e t e 7 , , 7 t t t t e e , > , , 4 4 4 4 4 5 5 4 , V > X # * * & s M Z G G G G G G G G G G G G G G G G G F H H F / ' ' ' ",
"G G G G G G M M 4 O : : : : : < 4 y s < : : : y s V e > > > , , s 7 > : $ & y s 4 i : > 4 6 9 l +.N.}.fXJ. .x y t s s 4 , > & > , e p i D U V E l.pXMXVXMXuXs.z 7 * & $ $ # $ & # $ k.~ R ~ ` ' ' ' ' ' ' ' ' ' ' ' ' ' ' ' ' ' ' ' ' ' ' ' ' ' :.:.1.{ ' ' ' ' ' ' ' ' ' ' ' ' ' ' ` R ( *     $ : : : > 7 t 4 4 4 4 4 4 , : : > , 4 4 4 4 4 4 4 4 4 4 > t s y t t t t t e t t t e e e e t t t t e e e e 4 , , 7 9 e 7 e 7 7 , > > > > : : > > > > > : & s $ X % * 3 & s Z G G G G G G G G G G G G G G G G G G G G G G F ( ( ` ",
"G G G G G G M s 4 O : : : : : 4 5 5 V : : > 4 A ( G z i 7 4 , , s 6 , > : $ & y z s > 4 7 y l X.N.G.gXzXsXB.| x A z 4 & $ & 4 t u i S ;.u.-.( 1.b.=XpXnXuX/.O.V p 7 7 , , , , , $ = 3.R R ~ ` ' ' ' ' ' ' ' ' ' ' ' ' ' ' ' ' ' ' ' ' ' ' ' ' :.1.:.' ' ' ' ' ` ' ' ' ' ' ' ' ' ' ' ` R R & X X $ : : : : > 7 4 4 4 4 4 4 4 , > , 4 4 4 4 4 4 4 4 4 , e 3 7 y 6 > > > > > > 0 h 3 > > > > > * > > & & & $ # # $ $ $ = = $ $ # X X o X X X X X X X X X X X s $ $ * 6 3 > G R / R G G G G G G G G G G G G G G G G G G G G G G F F ",
"G G G G G Z M s 4 O : : > , e e t t V 4 , , s F t 3 > e s s 7 , s 4 , 4 w u y s F R t , 4 7 y ! K C.sXfXH.#.Q K A r > & : : : 7 i I w.'..XU.-.~ ~ 3.n.#X#X} H s t 7 4 , , , , 4 $ # ( ~ R R ` ' ' ' ' ' ' ' ' ' ` ' ' ' ' ' ' ' ' ' ' ' ' ` { { 1.:.' ' ' ( ~ H ~ ( ' ' ' ' ' ' ' ' ` R F $ X X $ : : : : > 4 4 4 4 4 4 4 4 , > > , 4 4 4 e 4 4 , 4 t y 9 l @.0 = # # # # # k b % # # # # # # # # # # # # # # # # # # # # X X X X o X X X X X O X X X X # Z * $ 3 4 * $ G R ( ` ~ G G G G G G G G G G G G G G G G G G G G G G G ",
"( H G G G G N V 7 O : > 4 e y t 4 e z > 4 z s > # # $ $ : 7 i 4 s , y V y 7 7 9 9 F F 7 4 6 y A k  .Z.J.$.K l A 7 > > > : : : 7 p D u.oXoX!.;.Z V A R ( s.W V V u e 4 4 4 4 4 4 & # Z ~ R R ( ' ' ' ' ' ' ' ' ( / ` ' ' ' ' ' ' ' ' ' ` ' :.1.1.1.:.' ' ( F G G G ~ ' ' ' ' ' ' ' ' ` R G O     # : : : : , 4 4 4 4 4 4 4 4 : ; : , 4 7 7 y 7 e e t e y 6 y } a $ # # $ $ $ 1 6 & $ & & & & & & * > * > > > > > > > > : ; ; ; : ; ; : : ; & & : $ ; ; $ > R 7 4 , : # $ G R ( ' ( G G G G G G G G G G G G G G G G G G G G G G G ",
"' ` ( ( ( ( R R y $ , , e e y t , y y 4 z y , & = & $ $ $ & 4 u i y V 7 : & > > & * y z 4 4 y l 8 x  .X.J j z y > > 4 , , , 4 7 i D -.'.`.t.;.D i u u s E F D -.I u 4 4 4 4 4 , & # y ~ R R ( ' ' ' ' ' ' ' ( H G / ' ' ' ' ' ' ' ' ' { { { 1.{ { ' ' ( F G G G G / ' ' ' ' ' ' ' ' ( R V O     # : : : > 4 4 4 4 4 4 4 4 4 , , , 4 7 t t A s u z u y e , 7 t 7 4 , , , , 4 , , 4 4 , 4 , > > , 4 4 4 4 4 4 4 4 4 4 < : : : : : : : : : : : : : ; : : 5 7 R 4 , < > = $ G R ( ` H G G G G G G G G G G G G G G G G G G G G G G G ",
"( ' ' ' ' ( R ~ y = , t y y y t 4 V i z e > : & > 4 > : : ; : e F F 7 > $ $ $ : * $ # u V 6 y s 3 8 J J h y z 6 > 4 4 4 4 4 e e u V P q.;.I m u t t 7 7 e G ;.'.q.i 7 4 4 4 4 4 > # 9 ~ R R ( ' ' ' ' ' ' ` H G H ` ` / / / / / / / ( :.1.1.{ ' ` ` ( H G G G G R ` ' ' ' ' ' ' ' ' ` R s O X X # : : > , 4 4 4 4 4 4 4 4 4 4 4 4 7 t i Z } ( A V u e , 4 4 4 4 4 4 4 4 4 4 4 4 4 4 , , : : < , 4 4 4 4 4 4 4 4 4 , : : : : : : : : : : : : : : ; ; : 4 e A > , 4 , $ $ G R ( H G G G G G G G G G G G G G G G G G G G G G G G G ",
"F ( ' ' ' ( _ _ i * 7 e y e e 7 t R V u u y t u e 7 , : : : < , E y > & & : : : , > > & y s e z > , j h e i y > 4 4 4 4 4 7 i y u u S S m V u e 4 4 4 , , u P ,.I p 4 4 4 4 4 4 > # 7 ~ R R ( ' ' ' ' ' ' ` F G ~ / H G G G G G F ( / ( ( ` ` ' ' ( H G G G G H ` ' ' ' ' ' ' ' ' ' ` R s O X   O : , , 4 4 4 4 4 4 4 4 4 4 4 4 4 e u A ] ^.l.} F y 7 4 4 4 4 4 4 4 4 4 4 4 4 4 4 4 , , < , , 4 4 4 4 4 4 4 4 4 4 4 , : : : : : : : : : : : : : ; ; : : 4 Z > , 4 > $ $ G H F G s s G G G G G G G G G F ~ H G G G G G G G G G G ",
"G H ( ( ` ( w.y.s 6 t t e 4 , 7 E W y 6 : , 4 7 p u y , : : , 4 G > * > : ; : > , 4 7 4 > s z V 4 > y y 7 s 9 4 4 7 7 4 t t y t e 7 i p p u x y t 5 4 < , 7 y i t 4 4 4 4 4 4 , > # 6 R R R / ' ' ' ' ` ( ( F G G G G G G G G G G ~ / / F G H / ~ F G G G G F ( ' ' ' ' ' ' ' ' ' ' ` ~ G # X X & 4 4 4 4 4 4 4 4 4 4 4 4 4 4 4 7 t z } ).tX,Xl.W s t 4 4 4 4 4 4 4 4 4 4 4 4 4 4 , , , 4 4 4 t 7 4 , 4 4 4 4 4 , 4 , : : : : : : : : : : : : : : : : : < V : , 4 , $ $ G Z Z z 4 y G G G G G / H F R R ~ ~ F G G G G G G G G G ",
"G G G F G H _ 5.z 3 e 7 , , 4 G s > $ $ & < > > > 4 7 e 7 > , 4 V & > : : 5 u t e 7 7 e u s G F s 4 t e e s 7 6 7 t 7 < 4 e 4 > , 7 e 7 e y | N.) y 4 4 4 4 4 4 4 4 4 4 4 4 , , > # > R R R ~ ` ` ( ~ H F G G G G G G G G G F H H H ~ H G G G G G G G G G G R ` ' ' ' ' ' ' ' ' ' ' { / G $ # # & 4 4 4 4 4 4 4 4 4 4 , , 4 4 4 5 s E s.9XkX9XD.} G y 7 4 4 4 4 4 4 4 4 4 4 4 4 4 4 , , 4 e e t t 4 , 4 4 4 4 4 , , > : : : : : : : : : : : : : : : : : > V > , , > # # i M Z Z V G G G G G G F F / / / ~ H G G G G G G G G G G ",
"G G G G Z M M G y * 4 , 4 t G e & # # & : : $ : : > : ; 5 y 4 4 z > 4 4 u e < : : : : : : : 7 A / t t e e s 7 7 t s 4 : : 4 < : > 7 4 4 7 h N.dX+.9 , , 4 4 4 4 4 4 , 4 4 e 7 4 > # * H R R ~ ( ~ F G G G G G G G G G G F / ` ` ' ' ' ` ( R F G G G G F R F ~ ' ' ' ' ' ' ' ' ' { { { ( G = # # $ , , 4 7 t 4 4 4 , < < < > < : : 4 y R l.9X/.O.F y 7 4 4 4 4 4 4 4 4 4 4 4 4 4 4 4 , 4 t y y y e , 4 4 , , , > : : : : : : : : : : : : : : : : : : : : , V > , : : O o u M Z G G G G G G G G G H ~ / H H G G G G G G G G G G G ",
"G G G G Z M M M 7 $ , u F V , ; $ $ ; : : : : : : : : : : t i 5 Z 3 t s 7 , > > & $ $ $ $ & & > a F t t t z t t z z e 4 > > : : : > , 4 7 j ) X.J 4 > , 4 4 4 4 4 4 4 e e y t 7 > # % G R R R ( ~ F F G G G G G G G G R ` ' ' ' ' ] :.1.{ ' ( H G G F / 3.>.( ` ' ' ' ' ' ' ` :.1.1.{ ( V # # # $ , 4 4 7 y 6 6 4 > : : : > > > > 4 t z W k.6.{ G u e 4 4 4 4 7 7 7 4 4 4 4 4 4 4 4 , 7 t y 7 7 , 4 , > : : : : : : : : : : : : : : : : : : : : : : : : 4 V > , ; : O X u M Z G G G G G G G G F ~ / R F G G G G G G G G G G G G ",
"R G G Z M M Z G > > G R y 4 > & > : : : ; ; : : : < , : : > V s z 7 V 4 > > > > , : : : : : : * * s F s s Z s s W s u t e , > : : : , 4 4 7 e 7 9 > , 4 4 4 4 4 , 4 t u Z V i 7 4 # # y H R ~ ( ` ` ( ( ~ H G G G G ~ ` ' ' ' ' { 3.k.c.3.] ` ~ H F F { @X/.:./ ' ' ' ' ` ` { :.1.] ( R s # # # $ 4 4 7 > 0 8 * % % $ & $ $ & & * > 3 9 i ' _ ,.W i 9 6 > , 7 x J j 9 , , 4 4 4 , , , 7 t 7 4 > > > : $ ; ; : : : : : ; : : : : : : : : : : : : : : : : 4 V : : : : $ # u M Z G s V G G G G G / ~ / H G G G G G G G G G G G G G ",
"( R Z M M G R H z / H s z V V V V s s t e > : : : > e , 4 y y / z s 4 : > > , 4 4 , : : : > , 3 6 7 Z E Z E E W ) s V P D i e : : : : 4 4 4 4 , > 4 , 4 4 4 4 4 , 7 t s ( d.) s 4 # # 6 z R ~ ( ' ' ' ' ` ` H G G / ` ' ' ' ' ] 1.c.tX9Xc.:.' ` ` ` ( :.~.b.' H ( ' ' ' ( ` :.1.:.( R R y o X X O : , 4 > 9 c 6 > > > * & $ = = = = * > r _ t.'.-.l > $ = = 1  .J. .1 # $ $ $ $ $ $ > * 6 % = # # # o X X X X o o o o o O O O $ $ $ $ : : : : : : : : : 4 V & : : : & # s G G G e 4 e V F F / / ~ F G G G G G G G G G G G G Z Z ",
"R H Z M M M A R G G Z s e 7 7 , 4 4 4 , 7 u u 4 > , p e i m i V H u : : , , , 4 4 7 7 , > 4 4 e t y z ( } ( { a.( Z D u.Y.I 4 > : : > 4 4 4 4 , , , 4 4 4 4 4 , 4 e y s 6.uXz.s 4 $ # 6 t Z ~ ~ ( ( ` ` ' ` R R ( ` ' ' ' ' ' ] 1.W.iXiX^.3.' ' ' ' ' ' ' ] R G ~ ` ` F s / :.1.` R R H 7 X X X O : : & > 7 W j r y y y y 9 7 7 7 9 0 y C ,. XxX/./ c y 7 0 l #.G.X.0 6 6 3 6 3 6 0 0 8 1 > * * * * = # # # # X X X X X X X   X   X X o # $ : : : : : : e z & : : 4 & # t Z A V Z V Z P ~ ~ R ( R H ~ / ~ F G G G G G G Z Z N M ",
"G M M M M s s 9 o # > > > > * * & * & $ $ : , t s t i P P D V i ` y > 4 4 4 4 7 7 t z H R E E E / ( ) } s.g.n.^.) R / t.T.I w > : > , 4 4 4 4 4 4 4 4 4 4 4 4 , t e y i W a.} y 4 $ # 3 t t Z R R R ~ / ( ( ( ` ` ` ' ' ` ( ( ( ] a.#X/.a.:.' ' ' ' ' ' ( R F F ( ` G t z ( :.( R R R G 4 X X X O $ $ * 6 E *X:X:X:X:X;X;X;X;X;X;X;X;X>X6XwXeXvX5X5X6X>X>X>X3X3X4X3X;X;X;X;X-X=X;X;X;X-X*X*X*X$X@X#Xl.a.a.a.s.6.3.3.1.{ } ' ( R E c a 7 O X O : : : : , u z & : > , > # : u s s s Z *.U.w.( R ~ ~ ( ` ` ` / G Z Z Z M s s H R s ",
"s M M M s u e >   # # & & & > : & & $ $ $ $ : : e S I w.q.-.D S ] e , 4 4 4 7 z V z i y y V R R R } g.^.&X,XtX@X3.( / P P S p 4 4 4 4 4 4 4 4 4 4 4 4 4 4 4 4 t y t 7 7 t y s 7 4 $ # > e e t z G F G Z V V Z F H R ~ ~ H Z V Z Z R ' ( / ( ( ` ` ` ` ` ` ` ( ` ` ` R / ' >.` R R R R s > o X X O # & 3 z /.eXeXeXeXwX5X5X5X5X5X5X5X6X6X6X6X8X:X:X5X6X6X6X6X6X8X8X8X6X6X6X6X6X8X8X6X6X>X;X-X-X-X-X%Xc.c.x.x.x.c.c.c.b.W.c.b.W.W.^.^.^.^.a   X $ : > , , u s $ : , , > # & 4 e u s Z =.E.5.^ Z Z Z R R R R R M s s s t 5 s ( i 7 ",
"s s s u e 4 7 * # > > > , , : : : : : : : : : > , m ,.!.`.U.;.D / > 7 4 4 y V C h r 9 6 6 7 y ! a.n.D.,XpXiXnX9Xb.} E s u e t 7 4 4 4 4 4 4 4 4 4 4 4 4 4 4 e e y t 4 4 4 4 4 4 > # # * e e t e t t t e e e e t u s z Z M s s s s M N M M M Z R R ~ ~ ~ ~ ~ ~ ~ ~ / ] ] ' ` ( ~ R G s t 3 # @ X o $ 3 W /.0X.XoXyX.X'.U.y.y.r.5.=.` ` ` ] ] :.~ ~ ~ R ~ ' { { { { { ] ] { 1.:.{ >.] ' ( ( ( ( / ~ G N N M Z Z G R / { ~ G H H ~ :.k.^.(.3.o X $ : , , , y s ; : : : : # $ 7 4 4 , e G ~ G u w w t s s s u u t 4 4 , , , H F e 4 ",
"4 4 , , > 4 6 $ > , , > > : : : : : : : : : > 4 e S ,. XoXY.I m F , 7 7 z z r x j 8 9 9 9 0 a c ) n.tXiXNXMXNXuX-Xs./ V y t e 7 4 4 4 4 4 4 4 4 4 4 4 4 4 t y y t t , 4 4 4 4 4 > # # $ e e t t t t t t t t t t t z s z s t t e u u u d s s M H R R R R R R R R / / ~ / R F V s u t t t > # # # $ & W 9XyX].'.7XbXXX.X`.R.y.:.] ` ( ` ( ( ( / Z Z Z G G Z R ( ( ( ( ( ( ' 1.:.{ ' ( ( ( ( ( ( ( F Z Z Z Z Z G ( 3.b.c.` H Z Z Z G H :.c.b.> X $ : : , , u s ; : : : $ o # > 7 e s y z i e > < > 4 7 6 4 4 4 3 > > > > u W 6 > > ",
": : : : : & # * > : : : : : : : : : : : : : , t G _ -.t.'.t.D i F , 7 z V y h K K x l y y y z A ( a.=XbXMXBXMXiX,Xn.( Z s t e 7 4 4 4 4 4 4 4 4 4 4 4 e e e y e e 4 4 4 4 4 4 4 > # # # 7 t t t t t e e e t t t t G ) W W Z u u 7 , , , 4 4 7 y i i s z s i u s G V V s t e e e e t t t > # # = $ * n.yX%XQ..XvXcXXXoX!.e.-.] ] ] ' ` ( ( ~ F F ~ ( ` ` ( ( ' ' ' ' ' 3.1.3.:.] ' ' ' ' ' ' ' ` ( H F H H H ~ ` x.tX>X7.( ~ P P P _ ~ H a.a X # : : < , u s ; : : : $ X X # $ $ > 6 > $ # X X O # # # # # # # # # # $ R y # # # ",
"# # # # # $ > > < : : : : : : > : : : : : : e i V Z D U U ,.S u G , z z h k Q N.B.X.J l y i z F W 6.@XuXMXMXmXkX,Xz.@.Z s t e 7 4 4 4 4 4 4 4 4 4 4 7 u y y e 4 , 4 4 4 4 4 4 4 > # # # $ > > 3 4 6 6 7 9 9 e t s A 6.#X#Xz.1.z e , , , , > , 7 e y z E G s s i z i y t e t e e t t e e * # # = % > (././.wXvXvXoXXX XU.5.] / ~ H H R F G G F / ` ' ' ' ' ` ' ' ' ' ' :.1.{ ' ' ' ' ' ' ' ' ' ' ' ` ` ` ` ` ' ] a.#X~.h.:.*.*.*.*.-.~ G ~ z o # : : : , i i ; : : : $ O X @ # # # % = # X X X o # # # # # # # # # # i E $ # # # ",
"> > > > 3 4 4 , , > , , 4 4 4 y 7 4 , > > , y u i s u u p S ~ t z 7 V y x Q C.1XaXZ.X.C z y z V A } n.,XnXiXuX>X@XD.d.} s e 4 4 4 4 4 4 4 4 4 4 4 y y y e 7 , , 4 4 4 4 4 4 e 7 > = = # # # # # # # # # $ & * > 9 c ,.eXvX>X) l 7 > & & & & : > 6 y ( D.d.c 9 7 7 6 2 2 > 2 > > > > * & # # # $ * 0 ~.~.*X6XqXXX XoX'.U.5._ / / ( ` ` ( R H ( ' ' ' ' ' ' ' ' ' ' ' ' ` :.' ' O.2.1.] ' ' ' ' ' ' ' ' ' ' ' ] { 1.r.r.:.5.5.w.t.U.u._ ^ R u O O : : : : u y ; : : : : $ $ $ > > > > > > $ # $ & & & & & & & & & & 6 / 9 # & > 3 ",
"4 4 4 4 4 4 4 , , , , 4 4 t z W s t 4 4 y t y t e e 7 4 , w ( M z y u C 2.N.}.lXzXaXZ.X.K x z z A W @.^.9X&X#Xz.3.( ) a.( i 7 4 4 4 4 4 4 4 4 4 , e y e 4 , 4 4 4 4 4 4 4 5 s y t 3 > $ = # # # # # # # # # # $ 6 y ,.oXoXi.A 7 & # X X X X @ # = 8 $.<XF.x % $ # # # # # # # # # # # # # # & 7 9 A 5.=.7.c.E.'.'.`.t.-._ _ ] ] ] ' ' ' ( ~ ` ` ' ' ' ' ' ' ' ' ' ' ' ' ' ' ] 4.F.F.4.' ' ' ' ' ` ( / ( ` ` ' ( ( ` :.e.y.U.!. X XY.5.( H s O O : : : ; u y ; : : : : : : : , 4 , 4 4 4 , > > > 4 4 4 4 4 4 4 4 4 A F $ & 4 y y ",
"4 , , 4 , 4 , > : : > 4 e Z s.#X} s 7 4 e y t 7 4 , > > < : G ~ Z A y [ '.V.G.fXgX}.#.K l i y s z A ( b.x.3.3.} / A z a ( Z s e 4 4 4 4 4 4 4 , > > 7 7 , 4 4 4 7 7 4 4 4 e z F Z V s t 6 4 > > > > 6 > > > > > 6 V &.I.Y.,.i 6 > & & # $ & & & > 8 #.dXG.h * $ $ $ $ $ $ $ $ $ $ $ $ & > > 7 7 $ 9 ` _ :.r.v.E.E.Y.w._ ] :.:.{ ] ' ' ` R G H ( ' ' ' ' ' ' ' ' ' ' ' ' ' ' ] f.1X_.2.' ' ' ' ` ~ G G G F H H H ~ ` ] -.y.`.XXxXoX].h._ P N $ O : : : $ s y ; : : : : : : : , 4 , 4 4 4 4 , , 4 4 , > , 4 4 4 , u ( 6 # , 7 t y ",
"> : : > , , : : : : > 7 s ) ,XbX^.E y , > 7 7 , > : : : : : t ` ( u > y Y K $.J.H.N.Q x y z y y s s R a./ W F A G z i 9 z V e t e 4 4 4 , , : : : : < , 4 4 4 4 i P t 7 7 y Z 6.3.) A V s t 4 4 e e t e 7 4 4 4 u m m D P I i e , > : : > , , , > 6 Q S.#.l 6 4 4 , , , , , , , , , 4 , 4 4 4 > # y ` ( 5.r.r.r.r.y.E.5.5.:.:.] ' ' ' ` R G G / ' ' ' ' ' ' ' ' ' ' ' ' ' ' { 4.f.9.{ ' ' ' ' ( G G G G G G G F ~ _ ] =.w.R.oXxXcX].u._ P Z & X & : : ; s y ; : : : : : : , 4 4 4 4 4 4 4 4 4 4 4 , , , 4 4 , 7 R z $ > 7 t y e ",
": : : : : : : : ; : 4 4 e z s.#X) s 7 : : : > : : : : : : > 4 ( ` 7 > 4 y l J X.#.K x x i i y y u s ( / V V s u s u y e 3 A e 4 4 4 4 , > : : : : : : 4 4 4 4 7 F ;.u 7 e s ( /.3X#Xs.E y 7 4 t y y y e 4 4 4 4 7 e p u u t u < : : : : : : : : : > y l h y 7 4 4 , , , , , , , , , 4 4 4 4 4 > # y ` ` 3.5.5.5.5.5.y.5.:.:.{ ' ' ' ' ' ` ( ( ` ' ' ' ' ' ' ' ' ' ] :.{ ' ' ' ] { O.] ` ' ' ` R G G G G G G G F ~ _ _ _ -.U..XeXXX!.U.=.P Z > X $ : : ; s y ; : : : : : , 4 4 4 4 4 4 4 4 4 4 4 4 , , , , > > s R & & 4 y e t 7 ",
": : : : : : : : : > 4 4 7 t z E u e 4 > : : : : : : : , 4 4 4 R ( > > 6 e y h x K j x z s i y e e u ( z y t e e t t e 7 4 0 F 4 4 4 4 , > : : : : : , 4 4 4 4 4 t u 7 7 t s } >XnX9X6.Z t 7 e t y 7 7 , 4 4 , 4 4 4 7 e e 4 , : : : : : : : : : : : > 4 7 4 4 4 4 4 4 4 4 4 4 4 4 4 4 4 4 4 4 > # a ` ' 5.3.:.:.:.:.5.5.:.] ] ] ' ' ' ' ' ' ' ' ' ' ' ' ' ' ' ' ' 3.b.l.{ ' ' ' ' ' ' ' ' ` ~ G G G G G G G G ~ ~ ( / / =.w.].[.Y.U.w.-._ H > X $ : : ; V t ; : : : : : , 4 4 4 4 4 4 , 4 4 4 4 , , , , : : 4 / y # > t t e 4 4 ",
", , > : : : : : : , 4 4 4 4 e y 7 4 4 > : ; : : : : : > , 4 , Z / : > 4 7 9 9 y x y y i e t 4 4 6 s Z 7 4 4 4 4 4 7 7 7 4 > F u , 4 4 4 4 : : : : , 4 4 4 4 4 4 , : : 4 t Z 3./.9X@X} z t 7 e y e 7 , 4 4 4 , 4 4 7 4 4 4 , : : : : : : : : : : : : : : : , 4 4 4 4 , > : , , 4 4 4 4 4 4 4 4 > # a ] ' 3.:.] ] ] ] :.6.{ ] ' ] ' ' ' ' ' ' ' ' ' ' ' ' ' ' ' ' ' 3./.b.{ ' ' ' ' ' ' ' ' ( G G G G G G G F / / ~ H H ~ _ k.c.w.w.-.*.P P P 4 O O : : : V 7 ; : : : : : : , , 4 4 , > > > , , , > > < : : : V F $ & 4 4 e 4 : > ",
", , > : : : : : : : , 4 4 4 4 7 4 4 4 , , < : : : : : : : , 4 u F : , 4 4 7 7 e y y i y e 4 4 < < d 4 < , , < < > > 4 4 4 > 6 H 4 4 4 4 4 , : : : , 4 4 4 4 4 , : : : 7 i z Z / 3.s.A y e y e y 7 , 4 4 4 4 4 4 4 7 4 4 4 4 : : : : : : : : : : : : : : : , 4 4 4 4 , : < , 4 4 4 4 4 4 4 4 4 & # z ' ] ] ] ] ] ] ] ] :.] ' ' ' ' ' ' ' ' ' ' ' ' ' ' ' ' ' ' ' ' { 3.1.' ' ' ' ' ' ' ' ' ( F G G G G G G ~ R ( ~ F H P ` 6.] =._ _ / H Z M > O $ : : : V 7 : : : : : : ; : : > > : : ; ; : : : : ; : : : e ~ 4 & 4 5 4 4 , ; : ",
": : : : : : : : : : : : , 4 4 4 4 4 4 4 4 , > : : : $ O $ 6 9 y Z 3 6 6 3 3 > 6 y 9 9 > & & > & > 3 $ $ $ $ $ $ & $ & > > : $ z V 4 4 4 , , , > > , 4 4 4 4 4 , : : : 4 7 7 t s z A z t y y t 4 4 4 4 4 4 4 4 4 4 t 7 4 4 4 < : : : : : : : : : : : : : > 4 4 4 4 4 4 , , 4 4 4 4 4 4 4 4 4 4 & % y ' ] ' ' ' ' ] ] ' ] ] ' ' ' ' ' ' ' ' ' ' ' ' ' ' ' ' ' ' ' ' ' ' ' ' ' ' ' ' ' ' ' ' ` ( F G G G F / / / ~ R F H R _ _ / / / ~ P Z N s : X O : : : V 7 , , : : : : : : : : : : : : : : : : : : : : < F Z * , > 5 > , : : ; ",
": : : : : : : ; : : : : , 4 4 4 4 4 4 4 4 , 4 > : : O $ O.*X^.b.' c.b.k.z.b.b.^.).^.b.d.3.@.d.d.s.} ( ( W W E A Z z a y 9 7 3 7 R 4 > , , , , 4 4 4 4 4 4 4 4 4 > : : > > < 7 e t t i t t y t 4 4 4 4 4 4 4 4 4 7 u y 7 7 7 7 , > < : : : : : : : : : : , 4 4 4 4 4 4 , , 4 4 4 4 4 4 4 4 , 4 6 * y ` ] ' ' ' ' ' ' ' ' ] ` ' ' ' ' ' ' ' ' ' ' ' ' ' ' ' ' ' ' ' ' ' ' ' ' ' ' ' ' ' ' ' ' ' ( H F R ~ H / H H G G F H _ P P P P H H Z M u &   O : : : G 6 : : : : : : : : : : : : : : : : : : : : : ; u / 3 7 7 5 > : ; ; : : ",
": : : : : : : : < , , , , 4 4 4 , , 4 , , , , : : : O } >Xh.( ` / ( ( H R ` :.:.3.1.{ 1.{ :.3.1.' ( ( ( ' ] { :.>.>.>.3.3.6.6.7.:.' ' F u 4 4 4 4 4 4 4 4 4 4 4 , , > : : : , 4 4 7 s i i y t , 4 4 4 4 4 4 4 7 e y Z t t t e 7 7 4 4 : : : : : : : : : , 4 4 4 , 4 4 4 4 4 4 4 4 4 4 4 7 e e > * t ( ( ` ' ' ' ' ' ' ` ` ( ` ' ' ' ' ' ' ' ' ' ' ' ' ' ' ' ' ' ' ' ' ' ' ' ' ' ' ' ' ' ' ' ' ' ( R ( / / R G G G G F H P F H H H F G N M u $   O : : : G 4 ; : : : : : : : : : : : : : : : : : : : ; > R Z 3 7 , : ; : : : : : ",
": : : : : : : : : : : : : > > > : : > : : : : : : : # 3.6.H ` ` ` ' ' ` ' :.1.1.1.:.' O.2.O.' R Z Z Z Z V Z V V V V M M G Z M M V ( R R } e , 4 4 4 4 4 4 4 4 4 , , > : : : : , e e t z K C r 4 4 4 , , > , 4 e t s W y y y t t 7 7 4 > : : : : : : : : 4 , , > : , 4 4 4 4 4 4 4 4 , 4 4 u y 6 % 7 R ( ` ' ' ' ' ' ' ` R H ( ' ' ' ' ' ' ' ' ' ' ' ' ' ' ' ' ' ' ' ' ] =.=.] ] ' ' ' ' ' ' ' ' 3.( ( R F G G G G G G H F G G G G G G M M t $   O : : : G , ; : : : : : : : : : : : : : : : : : : : : V F > 4 , : : : : : > : : ",
": : : : : : : : : : : : : : : ; : : : : : : : : : : $ } R G ( V s ( ' :.:.{ 1.{ { ] O.8.A.9.2.' H G G G G G F H F G G G H G Z Z Z H ~ M M > > > > > : : : : : : : : : : : : : > e e t x C.B.j , 4 4 > > > , 4 t s V } E A Z s y t 7 7 > : : : : : : : : > > : : : , 4 4 4 4 4 4 4 4 4 y y y 7 * # 7 R ( ` ' ' ' ' ' ' ' ` ` ` ' ' ' ' ' ' ' ' ' ' ' ' ' ' ' ' ' ' ' ' ] e.i.r.:.' ' ' ' ' ' ' ' { ] ~ F G G G G G G G F G G G G G G G M M t $   O : : : G > ; : : : : : : : : : : : : : : : : : : ; 7 ( t # > : : : : : : : : : ",
": : : : : : : : : : : : : : : ; : : : : : : : : : : # ( G G ~ ~ ( ` ' 3.1.1.{ ' ` ] 2.A.1XF.9.1.( F G G G G / ` ` ( H G G G G A G G F G M 3 $ X # $ : : : : : : > > > , , , y t t 4 4 j N.N.j 4 4 4 4 4 7 e t s Z R a.a.{ ( A s y t 7 , ; : : : : : : : : : : , , 4 4 4 4 4 4 4 4 4 4 e y e 4 $ # 7 R / ' ' ' ' ] ] ' ' ' ' ' ' ' ' ' ' ' ' ' ' ' ' ' ' ' ' ' ' ' ' ] :.R.XXR.5.' ' ' ' ' ' ' ' ` { ` R G G G G G G G G G G G F F F G M M e O   # 4 : : F > ; : : : : : : : : : : : : : : : : : : : G z 9 $ : : : : : : : : : : ",
": : : : : : : : : : : : : : : : : : : : : : : : : : # ( A G G F ( 1.1.3.:.] ' ' ' { 2.f.F.A.3.] ' ( F G G G H ` ' ` R R R ~ F G Z G G Z M R l./ > X $ : : , , , 4 4 4 4 4 , e y t 4 4 t h l e 4 4 4 4 4 7 t y z W 3.#X,XD.s.) A s y t 7 > : : : : : : : : : , 4 4 4 4 4 4 4 4 4 4 4 4 4 7 7 , $ # 6 R / ` ' ] 2.f.8.{ ' ' ' ' ' ' ' ' ' :.] ' ' ' ' ' ' ' ' ' ' ' ' ] 5.i.'.i.:.' ' ' ' ' ' ' ' ' ` ' ` R G G G G G G G G G F / / / R N M 5 $ # : 4 4 , F > : : : : : : : : : : : : : : : : : : : s a > y & : : : : : : : : : : ",
": : : : : : : : : : : : : > : : : : : : : : : : : : $ ( A G G F ( { 1.:.' ` ` ' ' ' ] O.9.4.( R R / H G G G ~ ( ( ( ` ' ' ' / Z u G G N M V 3.W.a.= $ > , , 4 4 4 4 4 4 4 4 , 7 7 , 4 4 4 4 4 4 4 4 4 4 7 t u Z } b.pXnXtX#Xa.3.) E z y 4 : : : : : : : : < , 4 4 4 4 4 4 4 4 4 4 4 4 4 , 4 4 $ # 6 R ~ ` ' ] f.1XF.2.' ' ' ' ' ' ] { { :.:.] ' ' ' ' ' ' ' ' ] ] ' ] { 5.5.5.] ' ' ' ' ' ' ' ' ' ' ' ' ~ G G F F G G F H R / 4.f.4.' R V 7 * $ > 4 > : F > ; : : : : : : : > : : : : : : : : : 5 G $ > s & : : : : : : : : : : ",
": : : : : : : : : : : : , D S , > , > : : : : , , > $ / Z G G R ` ` { ] ' ' ' ' ' ' ' ' ( / F G G G G G H ( ( H F F ` ] ' ' ( F G G Z M M Z G ^ { * $ , 4 4 4 4 4 4 4 4 4 4 4 4 4 4 4 4 4 4 4 4 4 4 4 4 7 t i A 3.@XnXMXnXtX/.s.W s t 4 : : : : : : : < , , 4 4 4 4 4 4 4 4 4 4 4 4 4 4 4 4 , $ # 3 R R ` ' ] 9.F.A.2.' ( R H R ( :.1.1.1.{ ' ' ' ] ] ' ] ] ] ] ] ] ] ] { ] ] ] ' ' ' ' ' ' ' ' ' ' ' ` H H ( ( ( / H / 9.2.2.S.sXF.o./ F u > * & < ; < F > ; : : : : : > , , , : : : : : : : : V 4 $ : s : : : : : : : : : < > ",
": : ; : : 4 > : ; : : : w ;.I 4 : : : : : : , 4 4 > $ R V G G G ~ ` ' ' ' ' ' ' ` ( ( ~ G F G G G G F / ` ' ( H R ~ ' { ' / ` ` ` ~ M M G ( ~ R G $ # , 4 4 , , , 4 4 4 4 4 4 4 4 4 4 4 4 4 4 4 4 4 4 4 e s A { z.-XiXmXkX,Xl.' G y 7 > : : : : : > , , 4 4 4 4 4 4 4 4 4 4 4 4 4 4 4 4 4 4 , $ # > H R ( ' ' O.2.O.] ' ~ G G G H ( { ] ' ` ' ' ' ' O.O.] O.O.O.O.O.2.O.{ ] ] O.' ' ' ' ' ' ' ' ' ' ' ` ` ` ' ' ' ' ' ] +.) o.A.1XA.) R H s > % & : : > F > : : : : : : , 4 , 4 , : : : : : : s s $ : : s : : : ; : : : , , 4 4 ",
": : : , , 4 , > ; : : : , e 4 : : : : : : : , , > : $ E V G G G G H / ( ` ` ( / H G G G G G G G F ~ ( ' ' ' ' { { { :.] R G ~ ] -.-.H G H ( / R G $ # , 4 , , , 4 4 4 4 4 4 4 4 4 4 4 4 4 4 4 4 4 4 e y z Z A E ( a.@XtX9X^.3.W s y 7 > : : : : : , 4 4 4 4 4 4 4 4 4 4 4 4 4 4 4 4 4 4 4 4 4 > # * H R ( ' ' ' ' ' ' ' R G G F ~ / ( ] ` ' ' ' ' ' ] 4.2.2.2.4.4.4.2.2.2.2.2.] ' ' ' ' ' ' ' ' ' ' ' ' ' ' ' ' ' ' / s y y i L 8.2./ ~ / y * = & : : , F > : : : : : : 4 4 4 4 4 , > : : : 4 Z & $ : ; s > : : : > , 4 4 4 4 4 ",
": : 4 7 5 4 , : : : : , : : : : : : : : : : : : : : O A N A G G G G G G F F G G G G G G G G G R ( ' ' ' ' ` ] :.1.] ( W H F H ] i.E._ G G R ( R Z $ # , 4 , : : > , 4 4 4 4 4 4 4 4 4 4 4 4 4 4 7 7 7 7 e t y s A ( s.^.#X6.( Z s y e 4 : : : : : : 4 4 4 4 4 4 4 4 4 4 4 4 4 4 4 4 4 4 4 4 4 > = > R ~ ( ' ' ' ' ' ' ' ` / R ( ( ` ` ` ' ' ' ' ' ' ] 2.f.9.9.v.V.f.9.8.8.9.1.] ' ' ' ' ' ' ' ' ' ' ' ' ' ' ' ' ' ` s e t t t H ] ) ~ ` / t = # : ; ; , W > : : : : : : , 4 4 4 4 4 4 4 > > G 6 $ : : ; y 4 : : , , , 4 4 4 4 4 ",
": > 4 5 > < : : : : : < , : : : : : : : : : : : : : $ A N A G F G G G G G H R F G G G G G F ( ` ' ' ' ' ' ' :.1.{ ] ( +.+./ / ] 5.w.~ G G G R R V $ # , 4 > : : > 4 4 4 4 4 4 4 4 4 4 4 4 4 4 4 e 7 7 7 9 e y i z A ) @.l.W Z z y t e 7 > : : : : : , 4 4 4 4 4 4 4 4 4 4 4 4 4 4 4 4 4 4 7 e 7 > > R ~ ( ' ' ' ' ' ' ' ' ' :.1.:.' ' ' ' ' ' ' ' ] O.2.8.S._.|.{.S.A.A.A.4.O.] ' ' ' ' ' ' ' ' ' ' ' ' ' ' ' ' ' ( y e e t G ' ( R ( / W 7 # # : : ; 4 [ h 6 , : : : : , 4 4 4 4 4 4 4 , z s $ ; : : ; t 7 : : : > > 4 , 4 4 4 ",
": 4 7 4 > : : : : : : : : , , , > , 4 , , , > : : : $ V M G R ` ( ~ F G ~ ` ' ( G G G F F ( ' ' ' ' ' ` ' 1.:.1.] ' 4.G.{.9.] ` ( H G G G G Z M u $ # > 4 , > < , 4 4 4 4 4 4 4 4 4 4 4 , 4 4 4 e z y y y y y y s A E E @.A z i y t 7 7 4 : : : : : , 4 4 4 4 4 4 4 4 e 7 4 4 4 4 4 4 4 e t t i 9 6 ~ ( ( ' ' ' ' ' ' ` ' :.{ 3.{ ' ' ' ' ' ' ' ] ] O.2.9.A.2XhXdX1X1X{.V.2.2.{ ] ' ' ' ' ' ' ' ' ' ' ' ' ' ' ' ' ' / G G ( ] ` ( ` ( ' F 2 # # : : : y ) 8.Q j 9 > : < , 4 4 4 4 4 4 , t A & $ : : : ; e y : : ; ; : : , 4 4 4 ",
"4 4 5 , : > , 4 , > > : > , , : : > , , , , , , : : $ s M G ~ ` ' ` ( ( ~ / ( ` ( ( R H H ( ' ' ' ' ' ' 1.3.3.] ' ] 4.F.{.9.' F G G G G G G G M t # # > 4 4 4 , 4 4 4 4 4 4 4 4 4 4 4 4 4 4 4 7 e C A z j h y y z z F Z W L y y y y 9 7 7 : : : : , 4 4 4 4 4 4 4 4 y W Z 7 4 4 4 4 4 e p u m S D r / ` ` { ] ' ' ' ' ' 1.1.1.1.{ ' ' ' ' ' ' ] ] O.2.4.f.F.1XgXjXjXfX{.V.4.2.O.] ' ' ' ' ' ' ' ' ' ' ' ' ' ' ' ' ' ' ' ] ' ] ' ( / ` / z * # $ , , > V 8.2X{.| 9 > : < 4 4 4 4 4 4 , 7 R y $ : : : : ; 4 s : : : : : : , 4 4 4 ",
"t t 4 , 4 4 4 4 4 4 4 4 4 , , : : , 4 4 4 4 4 , > : $ u s A G R ( ` ` / G F ( ] ] ] ( ( / ' ' ' ' ` ' :.3.k.h.3.' ' ] 2.8.O.` ( ( ( H G G G G V u $ # > 4 4 4 4 4 4 4 4 4 4 4 4 4 4 4 4 4 4 7 e y C X.) K x l x C A A z A | l h h y y e 7 , > > , 4 4 4 4 4 4 4 4 7 E ^.3.y 4 4 , 4 7 e u V I -.u.Y _ -.-.:.] ` ` ] :.:.{ 1.] { ' ' ' ' ' ' ' ] 2.2.2.9.A.F.sXlXzXzXfX{.A.8.2.O.] ' ' ' ' ' ' ' ' ' ' ' ' ` ` ' ` ` ` ` ( ( ( ' ` ( / G e $ # $ , , 7 W 8.{.G.K 7 > : < 4 4 4 4 4 4 , V R 7 & : : : : : , s : : : : : > , 4 4 4 ",
"y t 4 4 4 4 4 4 4 4 4 4 4 4 4 , , 4 4 4 4 4 4 , , , : y M G G G F H R F F ~ ] =.=.=.5.:.] ] ' ' ` ' 1.3.7.#X-Xa.] ' ' ' ] ' ' ' ' ' ~ G G G R R M & # > 4 4 4 4 4 4 4 4 4 4 4 4 4 4 4 4 7 7 9 y l Q Z.S.A.+.| Q K z z y x ..K x x l h y e 9 7 4 4 4 4 4 4 4 4 4 4 7 z 3.W t 4 4 4 4 7 e i D ,.!.XXT.w.y.'.E.5.` ~ ( :.:.:.] ` ' ' ` ` ` ` ' ' ] O.8.9.V.A.{.dXlXzXzXdX{.V.8.2.O.] ' ' ` ` ` ` ` ( ( ( ( ( ( ~ ~ ~ R G R ~ ' ` ' ( ~ F u 4 # # & , , t W J K +.j , : : > , 4 4 4 4 , y F y 6 > : : : : : < z : : : : : , 4 4 4 , ",
"t t , 4 4 4 4 4 , , , 4 4 4 , > > > , , 4 4 4 4 4 4 > s M G G G G G G F R ' :.5.5.5.r.5.=.] ` ` :.:.{ :.1.^.@Xa.] ' ' ' ' ' ' ' ' ' ` / F G H A t $ # > 4 4 4 4 4 4 4 4 4 4 4 4 4 4 5 9 t 7 e y J $.H.fXdX<X0.Q x y y h l | $.Q K J x h y e 7 4 4 4 4 4 4 4 4 4 4 4 7 y e 4 4 4 4 4 7 p B U Y.oXxXoX'.'.XX'.=.~ ` ` ` ( / ~ R W ~ / / / / / ( ( ] 2.A.F.{.<X2XfXfXfXsXS.9.2.] ' ( ( / / / ~ R H G Z Z Z N Z Z M M M M M N G ~ ~ H G t , : X X $ > , u y y 9 F z > : : > , , 4 4 4 7 H 7 9 6 , < : : : : : V : : : : : > > > < : ",
"7 4 , , , 4 4 4 , > : , 4 4 , : : : : , 4 4 4 4 4 4 & t s G G G G H / ( ] :.5.5.e.y.t.=._ ~ / ` 3.3.{ ' ' 3.3.' ` ' ' ' ' ' ' ' ' ' ' ` R G G V e $ # > 4 4 4 4 4 4 4 4 4 4 4 4 7 7 t s i t y j K N.aXzXlX1X4.C h y h l J  .Z.N.$.X.Q x h r r y e 7 4 4 4 4 4 4 4 4 4 4 4 4 4 4 4 e u B P -.Y..X+XXXt.-.5._ V y V / ( ~ R R R R R ~ ( ~ R R ~ / ) O.A.2XdX2X<XG.G.F.F.S.2.] [ / / ~ R R R R Z M M M M M M M M M M M M s s s s t t t , , &   X $ : 4 t 4 9 > 7 Z 7 , > , 4 4 t 7 4 G z $ y > , 4 , > : : : V > : : : : : : : : : ",
"4 4 4 4 4 4 4 4 > : < , 4 4 4 , : : : , , 4 4 4 , < $ e s G G H R / 2.2.5.w.5.e.E.'.U.,._ / 3.3.1.( H G ~ ` ( H ( ' ' ' ' ' ' ' ' ' ` ` H G G Z u $ # > 4 4 4 4 4 4 4 4 4 4 4 7 t y s W Z y y j Q C.1XfXfXZ...A j y l x | #.G.}.J.C.%.Q K K C h 9 7 4 4 4 4 , 4 4 4 4 4 4 4 4 4 4 4 e p u S ;.I.'.I._ P D V y t e i z Z G F R R ~ ` 3.' / ~ ~ / ) O.A.1XdX<XV.V.V.V.8.0.9.) ( / ~ R R R R H M s s s s s s s u u t e 7 4 4 , , , e e 4 , $   O > 7 5 : , 9 > , e z 4 , 7 t e e t s F * > u > 4 4 4 4 4 , > s 4 ; : : : : : : : : ",
"4 , > < < , , 4 4 , , , 4 4 4 4 , : : , , 4 4 , > : $ e s G G F / { f.2.:.:.e.!.XXoX'.e.*._ =.3.] R G G G R ` ` ' ' ' ' ' ' ' ' ' ` ( F G G R R s $ # > 4 4 4 4 4 4 4 4 4 4 7 t s A ( a.( Z z J Q  .#.Z.J.$.C l s i l J %.Z.aXgXfX1XS.B.X.J j r y 7 4 4 t 7 4 4 4 4 4 4 4 4 4 4 4 4 4 e p i D U &.U i y i u t t t t e e t t y s G 1.@Xa./ H R W / O.V.S.S.A.9.8.8.4.2.O.2.+.W H F G G V V u e e t t t 7 4 , , > > > > > , , , , 7 e 4 > # $ > , : $ ; 4 7 ; > > e V e t t t t s W 7 $ , u > 4 4 4 4 4 4 , s 9 ; : : : : : : : : ",
": : : : : : < , , 4 4 4 4 4 4 4 , : : , , 4 4 , : : $ e s Z Z G ( ' ] ] =.] -.R.oXoX XU.=.=.=.:.] ( / R ~ ( ' ' ` ( ` ' ' ' ' ' ' ( u 4 s G Z ~ s % # > 4 4 4 4 4 , , 4 4 4 7 y G 3./.9Xb.) A z h x J K  .| j y y y j K $.G.fXzXzXfXG.$.K J J J l e t e t e 7 2 , , , , , 4 4 4 4 4 4 7 e p i B S B 2 > > 7 t t t t t t t t t y z 3.>Xl.G u y u x K [ +.+.O.+...! Q L A Y Q A i y t p p p 4 4 e t e t e 4 , , , > 4 7 4 > , > , > > & O X X # $ $ ; : e y $ : , > 4 V G G V G R z $ > , u > 4 4 4 4 4 4 4 i y ; : : : : : : : : ",
": : : : : : : : : < , , 4 4 4 4 > : 4 4 4 , 4 , , , ; e s M M Z ( ( ` ] =._ =.y.`.`.E.y.w.5.=.] ` ' ' ' ' ' ] 2.( H ( ' ' ' ' ' ' ( u t Z G Z G s * # > 4 4 4 4 4 , , 4 4 e s E 3.@XkXmX9Xs.A i y y h h j J y y 9 7 s Q N.1XgXzXzXaXZ.X.K Q N.B.x y y 9 9 6 > > > > > > > > > > , , 4 4 7 e p y i i * & = # > > > > > > > > > > 6 y ) Z 9 6 6 6 r r h h l L ) O...W D P ;.W A y 9 7 7 h h 7 6 6 6 6 6 6 , : ; : > > > > $ # O o $ $ # 3 X O : : : : : u s < : > , , 7 t 7 y y i > > , , u > 4 4 4 4 4 4 4 t s ; : : : : : : : : ",
": : : : : : : : : : : , , , , 7 e 7 e e 7 , 4 , , > ; u s s M M R ~ ~ ~ ( P ~ -.y.w.-._ ~ ( _ ( ^ ~ ~ ~ ( / / 0.) R ` ` ` ` ' ' ' ` ( ~ R G G E y $ # > 4 4 4 4 4 4 , 4 4 4 e s ( #XnXMXpXx.' F s y y e e y y 6 6 y Q 2.0.Z.H.sXfXG.#.K k b M.M.k 6 6 % $ # # # # # # # # = = = = $ $ $ & & * > > 7 % # # = * k 6 = # # # # # # # = 3 % # # # = % % % % * 6 8 r C / 5.E.].5.i 2 % # # k k # # # # # # # # # # o X # # # X       * > O : t , : : : : e 7 4 t : : 4 y e e y y , y > , , , y , 4 4 4 4 4 4 4 e z & : : : : : : : : ",
": : ; : : : : : : : : : : : , t y y t 7 4 4 4 > : : O 5 s M M N R ~ ~ R G Z G _ *.^ ^ P Z H ~ H G H R R G M V A G R ~ ~ ~ / / / / / / ~ ~ R R G 7 = # , 4 4 4 4 4 4 4 4 4 4 7 y A 3.*X>Xl.R V z i i e 7 7 7 y 6 h x x x W ..M.Z.G.B.Q k 8 g b k h 8 * % # # # # # # # # @ @ @ @ X         X # # @ $ # @ X # 1  .q #         @ # # # # # # # # # = $ $ * 7 7 9 6 2 i ;.XX7XR.5./ z 7 > > * = = # # # # # # = = # O # $ & $ O $ $ 7 > : ; t A u e e e > : > > y t y i u z i > > y > , , , y 7 4 4 4 4 4 4 , 4 Z & : : : : : : : : ",
", > : : : : : : : : : : : : > 4 7 , 4 , , , , : : : $ : w u u i Z G V s i s N P S S N M s i u u u u u s u M Z G F R R R R R H H R H R ( ( / R s 4 # # , 4 4 4 4 4 4 4 4 4 4 7 t s A 6.3.H V V S S i e 7 7 7 e e 9 9 y h x E Q  .$.$.h q g D.$X$X$X%X(.^.~.~.D.D.n.c.c.z.z.z.z.l.l.g.d.d.s.s.d.d.4.4.@.O.} ) ) o.) W W W W E A A A c z l y 7 6 * = # = * 6 3 3 4 6 7 C r.U.&.S B Z G F Z u 6 , > > > > > > > , , , , , , , : : : t : : : > t t > : $ $ > > $ : y z E ( V > > 7 9 > 4 , 4 e y , 4 4 4 , > : : G > : : : : : : : : ",
", < : : : : : : : : : : : : 4 7 4 > : : > , , : : : $ $ : : > > 5 7 , , , 4 e t 4 w w 4 4 4 , , , > , , , 7 t u u u u i i u u t t i G Z F V t 4 9 % $ , 4 4 4 4 4 4 4 4 4 4 4 7 t y W G s P U -.-.B p 7 4 4 , 4 7 y y y y l Z x J  .q 1 Q qXyXyXqX8X8X6X>X;X;X;X;X;X;X;X;X;X;X6X6X6X6X6X8X8X0XqXqXqX0X0XqXqXqXqXqXqXrXrXrXrXqXqXqXqX9X9X8X>X;X$Xc.@.z % 6 % & 4 7 e i D P i 7 > > > 4 t z Z F z y 7 4 , , 4 4 4 4 4 4 , , , > e 4 $ : : , 7 > 7 : & : 4 > : 5 4 7 z Z 3 : 4 4 9 , e p u e z 4 4 4 , , : : ; s t : : : : : : : : ",
"$ $ $ $ $ $ $ $ $ $ $ $ & 4 4 4 > : : : : : : : : : $ X X X O # $ & # # # # > ; & $ & & & & & > > : : : : : > , 6 6 6 6 6 6 6 : > y y y 6 > & & 8 6 & , 4 4 4 4 4 4 4 4 4 4 4 4 4 e V u t S I..XI.D t 4 4 > : , 7 x x 9 r y y i y J 8 = 3.8X^.x.7.] ' ' ] 4.4.O.( ( ( ( ( ( ( ( ( ( ( ( ' O.V.1X_.9.1.:.1.3.7.7.h.k.k.x.c.b.~./.(.@X*X=X-X>X6X8X9XqX8X4.> % & 4 4 7 e i u p 7 , > > > & & > 7 y z G G s t 4 4 4 , 4 4 , > , e t > < : ; e 6 $ < 5 : : 7 9 4 , u u 4 s > : : : 7 4 i ;.;.p t i 4 4 4 , : : ; e A : : : : : : : : ",
"6 > 6 7 9 0 7 > > & # O : 5 4 : : : : : : : : : : : : ; ; $ $ $ $ $ $ # # $ & $ # O X X o X @ # # # # # X X X # # # # # $ $ $ $ > > 6 6 # O O # * > > > > > > > > > > > > > > > > 4 t 7 e S t. XU.D e > > & & > > 7 9 7 9 9 e y t r g = g.l.( ( ` / ( ( 2.).F.8.) ( ( ( ( ( ( ( ( ( ( ( ( ] f.aXG.+.( / R R R R H H H H H F F F H R R ~ ~ ~ ( >.7.c.9X9XA # : 4 4 4 4 e 7 4 4 4 4 4 4 , > > > & & > 7 s G G V u e 4 , 4 7 t e > > , , 4 s : : ; > 4 & 3 7 7 s t ; $ t 3 : : ; > e S Y.I.m 7 y t , 4 , : : : : A t ; : : : : : : ",
"=X*X*X=X=X*X^.l.k.a.k.@.> e 4 : : : : : : : : : : : < : $ X # #       X # $ & $ $ # O o # # # # # # # o # # # # # # # # # # = * > * * * o X X # # # # # # # # # # # # # # # # # # = $ $ * 7 U U D j > = # # # # = $ $ > 3 6 7 7 7 t h 1 g.6.( ' ' ' ' ] 7.S.1X9.] ' ' ' ' ' ' ' ' ' ' ' ' ' 2.f.8.O.' ` ` ` ` ` ` ` ` ` ` ( ( ( ( ( ( / R Z Z ( ` ` l.9Xd.# & 4 4 4 , 4 4 4 , > , 4 4 , 4 4 , > > > > & & > 9 i V V z z i t 7 9 e e i V > $ : : & $ 9 9 3 4 e ; $ : < t : : : : 7 i U I p 4 , i y 4 , : : : : 7 A < : : : : : : ",
":.:.] ' ' ` R Z M G c.~.9 t t : : : : : : : : : : : : : O X # #     # 9 W l.).^.x.6.6.3.@.@.} } ) ) ( } 3.3.@.O.} } ) ) ) } ! ! } ! ! W E E A A c z z z z z l y y y y y 0 0 9 9 9 9 7 7 9 z V x z y 0 7 6 > * $ # o o # # & > 6 7 e z j v.:.( ` W F R ] 1.4.9.2.' ' ' ` ' ' ' ' ' ' ' ' ' ' ] 2.] ' ' ' ' ' ] :.5.=.' ' ' ' ' ' ' ' ' ' ' :.] 1.' / / %X(.$ & 4 4 4 4 4 4 4 > : : : , 4 4 4 4 , > : > 4 > > * & $ > y z s y L ..z A F t 4 7 7 4 7 > > 3 6 O O O : O O > 7 : ; ; ; t u 4 : > 4 > i i , : : : : : s s : : : : : : ",
"F R ( ` ` ` H R ( ~ >.%X7 , > : : : : : : > : : : : : : X X X X & W x./.=X6X6X=Xc.a.6.6.6.7.7.h.l.l.c.(.-X-X-X=X;X6X>X6X8X>X#X*X9X9X9X9X9X9X9X-X/.^./.>X8X8X8X6X6X6X6X6X6X6X6X>X>X>X>X>X>X>X;X;X;X-X-X-X-X=X@X^.z.O.z * # # = > i i z 7.E.5._ ` V i R ' ' ' ' ' ' ' ' ' ' ' ' ' ' ' ' ' ' ' ' ' ' ' ' ' ' ' :.U.R.5.] ' ' ' ' ' ' ' ' ' ' { 1.{ ] ` R 7.=X3 * 4 4 , , 4 4 4 , : : : : , 4 4 4 4 , , , 4 > , 4 , > > * & > 7 x K > & > 7 : : : : & O $ > O   .   O X # & y Z u e 5 5 u s e , , 4 > 7 s s 4 : : : : V t ; : : : : ",
"H H ` ' ' ` R ` 3.:.` ^.7 $ : , , , 4 u u e : : : : : $ X X X z #X0X0X-XW.6.' ~ Z s s s s s s M M M M M Z Z Z Z H ( ` 3.3.{ ~ ( { 3.3.3.6.6.3.' ' { 6.a.h.k.k.k.l.l.x.c.c.c.b.W.W.~.~.~.~.~.^././.^.^././.(.%X=X>X0X0X@XW = # $ 7 u j p.:X5.` ] ` ` ' ' ' ' ' ' ' ' ' ' ' ' ' ' ` ' ' ' ' ' ' ' ' ' ' ' ' ' =.E.!.5.] ' ' ' ' ' ' ' ' ' ' ` { { :.5.` ( (.0 & , 4 , 4 4 4 4 4 , : : : , 4 4 t 7 4 , , > : : > 4 , 4 4 4 > > y 7 : : $ : 7 : > > O & X     . .     X O $ 7 y 4 5 7 e y G F s t t s s y V / A s e 4 7 G 4 : ; ; ; ",
"` ` ' ' ' ` 1.1.3.] / 3.9 $ > r A 9 s 6.a.s , : : : : O   X # /.>X(.a.~ Z Z G H R G M M M M M M M M M M M M M M N R R / ( H M M Z H R R R R G M M F R R R R H R R R R R R R R R R R R R R R R R R ~ ~ ~ ( 7.7.:.{ 3.W.6X9XW # # & e 7 j 5.:.` ' ' ' ' ' ' ' ' ' ' ' ' ' ' ' ' ' ' :.] ' ' ' ' ' ' ' ' ' ' ' ] 5.5.:.] ' ' ' ' ' ' ' ' ' ' ' ' 3.r.R.k.( h.z $ 4 4 4 4 4 4 4 4 4 , , , 7 t e t e 4 : : : : : : , 4 4 4 4 4 , > t 4 < : & 7 4 < : 5 & O .     .   X X X > $ # $ $ $ 4 t > $ $ & : 7 y V A z y t t t s F A s u t t ",
"' ' ' ' ' ' ] 1.{ ' R R 4 : , | Z.A s 3.b.A 7 , > : : O     $ b./.' s M M M M N Z G Z Z Z N M M M M M M M M M M G R R R / ~ M M G R R ~ R ~ R H R R R R R ~ ~ ~ ~ ~ / / ` ( / / / / / ( ( ( ( ( ( ( / / ' #X>X7.( R H :.=X(.% # = , & $ V ( ( ' ' ' ' ' ' ' ' ' ' ' ' ' ' ' ] { :.:.{ ] ' ' ' ' ' ' ' ' ' ' ' ] ] ' ' ' ' ' ' ' ' ' ' ' ' ' ] 5./.5XQ.` ] c $ 4 4 4 4 4 4 4 4 4 , , 4 t y t 7 > : : : > > > , , 4 4 4 4 , , , 7 y , : : 4 5 < t : O X         .   X & O $ ; : : e e $ $ $ ; ; 4 s G t > # # # # $ > t & > > 4 t ",
"' ' ' ` ` ' ` ' ( R Z M : : , x X.s 7 s s y e , > : : O     * ~.b.Z M G ~ R Z G G G G G Z G Z G G R ( / R H H ( ` ( ( ( ( / G R ( ( ( ( / R R ~ ( ( ` ( ( ` ` ` ` ' ] ( :.:.] ` ' ' ' ' ' ' ' ' ' ' ' ` 1.b.#X1./ R R R ] -XA # # > & # y R ( ' ' ' ' ' ' ' ' ' ' ' ' ' ' ' 1.1.:.:.] ' ' ' ' ' ' ' ' ' ' ' ' ' ' ' ' ' ' ' ' ' ' ' ' ' ' ' ' =.k.(.7.( ~ y $ , 4 4 4 4 4 4 4 4 , : , e t 4 : ; ; : , , 4 4 4 4 4 4 4 4 , > : < s 4 , > 7 t u > $ $ O .     . . O $ 7 O ; : ; 7 t $ : : : : , G s e , : ; : : : 5 u : $ $ $ $ $ ",
"' ' ' ` ~ R H F G G N s & $ : , t , , > 4 4 4 4 , : : O o # 7 %Xc.R ~ ` ` H G R ( ( ~ R R H G F ~ F V / ' =.r.r.] ' ' ' ( H G G ( ' ' ( F G G G H ( ' ' ' ' ' ' ' ' ( ( { ] ' ' ' ' ' ' ' ' ' ' ' ' ' ' ] :.3.{ ( R R R R h.a.# # > & o y R ( ' ' ' ' ' ' ' ' ' ' ' ' ' ` ] :.1.] ] ` ' ' ' ' ' ' ' ' ' ' ' ' ' ' ' ' ' ' ' ' ' ' ' ' ' ' ' ' ' :.:.{ ~ R 9 $ 4 4 4 4 4 4 4 4 4 , < 4 e e 7 , > > , , 4 4 4 4 4 4 4 4 , : : : : u > , > V R u e 4 : $       . . $ 6 7 $ : : : y : $ : : : > V t S _ S , : : : w t ; $ : : : : : ",
"' ' ' ' ` ( / R G G M s $ $ : : : : : : , 4 4 4 , : : # $ & z 9Xh.R ( ' ( F G F ` ' ] ] ' ` ` ` R y e F / ( y.U.:.' ' ` H G G G / ' ' ' ( ( ( ( ( ` ' ' ' ' ' ` / ~ ( ' ] ` ' ' ' ' ' ' ' ' ' ' ' ` ( ` ' ' ' ] ' ( ~ R R / z.* # & & o y R ( ' ' ' ' ' ' ' ' ' ' ' ' ' ' 1.:.` ` ' ' ' ' ' ' ' ' ' ' ' ' ' ' ' ' ' ' ' ' ' ' ' ' ' ' ' ' ' ' ' ' ] ` ~ / y $ 4 4 4 4 4 4 4 4 , 4 e 4 t 7 , 4 4 4 4 4 4 4 4 4 4 4 4 , : : : : ; t : : t s > * > 5 t : : O X X O t 7 z 4 ; : 4 e O : : : > z t 7 I !.I , : ; 4 t : $ : : : : : : ",
"` ` ` ' ' ' ' ` ( / Z s $ $ : : : : : : > , , > : : : $ $ $ s -X] R ( ' ( G u s H ~ ' 9.2.( ( ` G s F R F H ] :.] ` ' ( G G G H ( ' ' ( / ( ( ' { ] ] ] ' ' ' ` ( ' { ] ' ' ' ' ' ' ' ' ' ' ' ' ' ( F H / ` ' ' ' ' ( ~ R R a.7 # & & o y R ( ' ' ' ' ' ' ' ' ' ' ' ' ' 1.{ ( H ( ] O.] ' ' ' ' ' ' ' ' ' ' ' ' ' ' ' ' ' ' ' ' ' ' ' ' ' ' ' ' ' ' ` / 4...% , 4 > , 4 4 4 4 7 y y t 7 4 4 4 4 4 4 4 4 4 4 4 4 4 , : : : : : : y : t t $ # & $ $ : 7 7 7 t & & : & 7 s > : e 4 $ : : : t t 7 5 m I m , : 4 t & $ : : : : : : : ",
"( ~ ( ' ' ' ' ' ' ` G s # $ : : : : : : : , : : : : : > * = a b.Z H ( ' ` s , z G G R 8.O.R H ~ ( { ' H H / ' ' ' ' ( R G G R ( ' ' ' / F F H ' 3.7.4.4.O.' ' 1.{ :.] ` ' ' ' ' ' ' ' ' ' ' ' ' ' ` ( ( ( ` ' ' ' ' ' R Z Z ' y # $ & # y R ( { { ] ' ' ' ' ' ' ' ' ] 1.1.] F H ` 2.A.O.' ' ' ' ' ' ' ' ' ' ' ' ' ' ' ' ' ' ' ' ' ' ' ' ' ' ' ' ' ' ` / O.! % , > : > , 4 , 4 t e i u y 7 4 4 4 4 4 4 4 4 4 4 4 4 4 : : ; : ; , s t 4 $ $ ; : : : ; > V V & $ ; : : $ : y > e 4 & ; < 4 s 5 5 4 , , , : , t : $ : : : : : : : : ",
"` ` ` ' ' ' ' ' ' ( H s # $ : : : : : : > , , : : : 4 > * # c b.H R ( ( R e 7 G G G H ~ ' ' / ( ' 1.{ ( ' ] ] { ] ' R G F ( ` ' ' ' ' ` ` ( ` :.7.).$Xf.O.] 1.1.1.' ' ' ' ' ' ' ' ' ' ' ' ' ' ' ' ' ' ' ' ' ' ' ' ' ' R M M G a X $ * # y R ( 7.c.7.{ ' ' ' ' ' ` ' :.{ 3.{ ( ( ' ] 2.] ' ' ' ' ' ' ' ' ' ' ' ' ' ' ' ' ' ' ' ' ' ' ' ' ' ' ' ' ' ' ( R ~ y = > : : , , , 7 t y i z Z Z y e 4 4 4 4 4 4 4 4 4 4 4 , < : ; , , V G t e e e 4 > : ; : : Z 4 $ : : : : : : > t e 7 < 4 4 4 u : > : : : : > t : ; : : : : : : : : : ",
"' ' ' ` ( ( ` ' ' ( R s O O : 4 4 > : : > , 4 > : 7 t 3 # # ( /.R Z G Z y e V F G F ( ] :.a.6.3.7.a.7.3.1.1.3.:.' ` R G F ` ' ' ' ' ' ' ' ' ] 7.(.<X4Xz.O.1.:.1.:.' ' ' ' ' ' ' ' ' ' ' ' ' ' ' ' ' ' ' ' ' ' ' ' ' ' / G Z G Z + = * + y R ( k.-Xk.] ' ' ' ` ` ' >.1.1.1.{ ` ' ' ' ' ' ' ' ' ' ' ' ' ' ' ' ' ' 1.1.] ' ' ' ' ' ' ' ' ' ' ' ' ' ' ' ( R R t # : : : , 7 t t e u y A } 3.A u e 4 4 4 4 4 4 4 4 4 4 > : : : : u H 9 > : : : < 4 7 : ; : y & : ; : 4 e e t e t s s < e 5 t 7 $ ; : : : : t < $ : : : : : : : : : : ",
"' ' ' ` ~ / ' ' ` / R s X O : : < : : : , , > : 4 e y 6 # o } l.M M G s e z ' ( H F R ' 1.a.W.c.b.b.l.h.h.h.1.] ' ' ( / / ' ' ' ' ' ' ' ' ' ] a.=X).9.d.7.4.3.1.{ ` ' ' ' ' ' ' ' ' ' ' ' ' ' ' ' ' ' ' ' ' ' ' ' ' ' ( R R ~ W o = * + y ~ ( 1.1.R ( ' ' ` ] 1.:.{ 1.] ] ' ' ' ' ' ' ' ' ' ' ' ' ' ' ' ' ' ' { l.W.3.' ' ' ' ' ' ' ' ' ' ' ' ' ' ' ( R R 9 # : : , 7 7 u y u i z } &X$X@.Z u 7 4 4 4 4 4 4 4 4 4 , , , , i Z u > , , : : & & : 7 , : y & : 4 e 4 < : : > 4 s ( s e 4 e 4 ; : : : ; 4 4 $ : : : : : : : : : : : ",
"' ' ' ' ' ' ' ' ( R Z t X $ : ; : : : > , , , e y y y > # o @.>.Z Z / V u ( ' ` ` ( ( ] 3.a./.,X-X*X#X/.b.1.' ] ' ' ' ' ' ' ' ' ' ' ' ' ' ' ' 1.1.O.O.2.7.7.2.1.] ' ' ( / ( ` ' ' ' ' ' ' ' ' ' ' ' ' ' ' ' ' ' ' ' ' / R R ~ ( # # * + y ~ / ` V G ( ` ' ' ] 3.3.1.{ ` ` ' ' ' ' ' ' ' ' ' ' ' ' ' ' ' ' ' ' :.c.^.3.' ' ' ' ' ' ' ' ' ' ' ' ' ' ' / R R 7 # : : 4 u y y e 7 t V 3.>X>Xd./ D y e 7 4 4 4 4 4 4 , , , t Z i u P S D S 7 : : : : : 9 , t : e 4 & $ $ $ ; $ $ $ 9 G e 4 7 4 ; : : ; : e $ ; : : : : : : : : : : : ",
"' ' ' ' ' ` ` ` / Z M e X $ : : : , , 4 7 t e e t e 7 * # # ) ( R ~ ` ( ' ' ( / ` ] { 1.6.l.#XrXiXuXtX@Xh.' ( ' ] ' ' ` ' ' ' ' ' ' ' ' ' ` ` ( R / 2.7.7.z.d.2.O.] ' H G G R ` ' ' ' ' ' ' ' ' ' ' ' ' ' ' ' ' ] 8.o.F R R R ' = # * + y ~ / ` ( ' ' ' ' 3.1.3.{ ] ` ' ' ' ' ' ' ' ' ' ' ' ' ' ' ' ' ' ' ' ` ` ` { ] ' ' ' ' ' ' ' ' ' ' ' ' ' ' ` ~ R R 6 # > > , e y e 4 4 7 y A s.a.( G P i u p e 4 4 4 4 , < : e s u S -.!.U.'.h.u : : : : : : t t 7 4 $ ; : : : : : : : & 3 y 4 7 7 : : : ; 4 4 $ : : : : : : : : : : : : ",
"' ' ' ' ' / H H V s s 5 X & 4 4 4 4 4 e e i y y e , , & # # E G G R ` ' ' ` ` ` ' ] { 3.7.c.*XuXmXnXpX@Xl.3.:.{ ( R ` ' ' ' ' ' ' ` ( ~ R R H F ( ` 4.4.f.F._.v.2.{ ( F G G G ~ ' ' ' ' ' ' ' ] :.] ' ' ' ' ' ' ] 9.2./ R R R } % # & # y ~ / ' ' ' ' ' ' ] 1.{ ' ' ' ' ' ' ' ' ' ' ' ' ] { ' ' ' ' ' ' ' ` ' R G ~ ` ' ' ' ' ' ' ' ' ' ' ' ' ' ' ( R R R 3 # : > 4 , e 7 , 4 4 e u E F G S ;.P S i p 7 4 4 4 , < V R G P -.`.xX7X5Xe.G w : : : : : t G t $ ; : : , < ; ; : : ; : > y 7 t : : : : t : : : : : : : : : : ; > 4 4 ",
"' ' ' ' ( F G M M s s 4 # : 4 , , 4 p F V s e 7 4 4 4 * # # t M M Z ( ' ' ' ' ' ' ] { 1.6.l.@XuXnXnXtX#Xl.6.1.' R G / ' ' ' ' ' ' ` H G G G G G ~ { 2.9.F.fXfX<Xk.o.W F G G G H ` ' ' ' ' ' ' 5.i.5.' ' ' ' { ] { :.] / R R R } % # & # t R ~ ` ` ' ' ' ' ' ] ] ` ' ' ' ' ' ' ' ' ' ' ] 6.l.6.{ ' ` ` ` ' ' :.' ( ` ' ' ' ' ' ' ' ' ' ' ' ' ' ' ' ( R R H > # : > 4 4 4 4 4 4 4 7 e z V S ;.Y.I.;.D i e 7 4 4 t R H y u S ;.!.xX7X=.i e e e : ; : : , R 4 ; : : > 4 4 e t y y u t 9 4 t t > : : : y $ : : : : : : : : : : 4 4 4 ",
"' ' ' ' ~ G Z M M s s 4 # & 4 , : 4 S ;.D t , : , , 4 * # # t M M G ( ' ' ' ' ' ' ' { 1.6.l.*X>XtXrX9X~.h.3.:.( F G R ' ' ' ' ' ' ' ( R H H ~ / ' 2.4.V.{.jXlX1Xz.' H F G G F / ' ' ' ' ' ' ' :.r.5.] ' ' ] 6.6.3.1.{ / ~ R R } * # & # 7 R ~ R V F / ` ' ' ` ' ' ' ' ' ' ' ' ' ' ' ' :.b.>Xb.1.` R R ` :.:.1.:.] ' ' ' ' ' ' ' ' ' ' ' ' ' ' ' ` / R R F * # , 4 4 4 4 4 4 4 4 4 e u m I I.oXoX!.,.I S u e s R z 3 3 9 e m ;.[.-.S e > & > t , : : : Z > : ; : 5 u t 4 > : : > 7 y i u s e ; : > t $ : : : : : : : : : , 4 4 < ",
"' ' ` ( F Z M M M s s 4 = & 4 4 4 m -.`.,.i , : , , 4 * # # s G R ' ] ] ] ' ' ' ' ' { 1.k.b.c.c.~.^.@Xb.6.1.` H F F ~ ' ' ' ' ' ' ' ' ` ` ` ' ` ' ' ] 2.V.{.1XV.) / F F R H ~ ' ' ' ' ' ' ' ] :.:.1.:.' ' :.a.~.b.k.3.' / R R ' * # * # 6 R ~ / F s u G ( ' ' ' ` ( / / ( ( ` ' ' ' ' :.l.#Xl.' ~ Z ~ =.] ' ` / / ) ' ' ] ' ' ' ' ` ` ` ( ' ( ( / / ~ ~ F $ # , 4 4 4 4 4 4 4 4 4 p m P q.`.xXxX X,.S p e Z V 3 > 9 7 6 , e Z I D e , , , > > t 7 > , s & : : t 5 : $ $ $ $ ; $ $ : : 4 i G 4 : 4 t $ : : : : : : : : < 4 5 , : ",
"` ( ~ G V M M M M s u > # : 4 , , p &.'.-.m w 4 , , 4 > # # V G G ) o.O.O.{ ] ] ] ] 3.7.k.a.3.{ 1.1.3.a.} / R / ( ` ' ' ' ' ' ' ' ' ' ' ' ' ' ' ' ' ] 1.2.f.f.) / H R ( ` / ~ ' ' ' ' ' ' ' 1.1.1.:.] ' ] 3.l.9XtX(.l.' ~ R R ' > # & # > H R ~ ~ H G Z R ` ' ' ( F G G G F ~ ` ' ' ' ] { :.' ~ ~ ~ 5.e.=.~ H F W ) 2.] ] ) ( / / / ~ R R / ] ( ` ( ( ( V # # > 4 4 4 4 , , , 4 7 e u S I t. X.XI.U m i F y & 4 y 7 > : : , e C ! 4 , 4 , , 4 > y 7 4 s & > t < $ $ : : : : : : : : > > : 6 a < 4 e $ : : : : : : ; : 5 , 4 : : ",
"~ Z M M M M M M Z s t > # : 4 , < , i I m w 4 4 , , 4 > # # u M G ' 2.8.8.2.2.O.] 1.7.6.3.1.1.' ( ( ( ' 1./ ( ' ' ' ' ' ' ' ' ' ' ' ' ' ' ' ' ' ' ' ' ] { 2.2./ / / ` ' ' ' ' ' ' ' ' ' ' ] :.1.{ ' ` ' { 3.b.uXiX>Xa.` ~ R R ' > X # o $ u G R R G M M M H ~ ~ Z Z Z Z Z G G / ` ` ' _ R G Z s s D R..Xq.Z u y z ( d.f.9.O.o.) / R R R / ( 3.3.>.:.' ~ 7 # & 4 4 4 4 4 , , , , 4 4 e u S U ,.I.U S D Z > $ 9 4 4 : & & : : , y i 4 4 , , , , , , i 4 s : t : $ & : : : : : : : : : , , : $ : y 4 7 $ : : : : : : : 4 7 4 : ; : ",
"H G Z Z M M M M M s 5 > # $ : : : , e u 4 7 , , 4 , , & X o u V H 2.D.S.S.f.2.] :.3.3.{ { { { { ` ~ ~ ~ ' :.' ' ' ' ' ' ' ' ' ' ' ' ' ' ' ' ' ' ' ' ' ' ' ] O.' ' ' ' ' ' ' ' ' ' ' ' ' ] :.1.:.] ' ' ' ] 7.b.(.9X#X3.( ~ R R ' > # & # # 7 t s V s s s s M F N s s s V G G F ~ ( -.5.P i t t t i / t.!._ i t y z Q C.aX}.C.+./ R R R ~ / ' 3.b.c.l.1.E a 3 > 4 4 , > > > > * & * > > > 7 r i Y B / F > * 6 6 & O O O O O O $ $ & $ $ $ $ $ $ $ $ 6 7 y 7 > o X O O O O O O O O O $ $ $ $ $ $ & y t : : : : : : : 4 , e , ; : : ",
"M G F H G s s s u e 4 > X $ : : , , 4 e 4 4 , 4 , : : & # $ s Z F o.F.4XA.9.1.{ 1.1.:.] ' ] ] ] ] ( H H / { ] ' ' ' ' ' ' ' ' ' ' ' ' ' ' ' ' ' ' ' ` ' ' ' ' ' ' ' ' ' ' ' ' ' ' ' ' ' 1.{ :.] ` ' ' ' :.1.3.a.l.l.' / ~ R R ' > # & $ # 2 e e e 4 y z t t u 4 4 7 t u u u u i / U. X;.u t t y z G H U M y y u z | G.zXfXB.J z i s z G E ( 6.@X>X$Xb.@.y > 7 , > $ # # # # # o o o # = $ * > C ' H > * 6 % * #               # o o + # # # # # # # s z 9 X X X X X X X X X X X X X X X X X X   3 V > : : : : > 4 7 4 5 > ; : : ",
"4 4 7 7 4 4 4 4 7 7 7 > # * , , , 4 4 4 4 4 4 4 , , , & # * G R / +.V._.D.4.1.3.:.:.] ' ' ' ' ' ' ' ~ F G H ( ( ' ' ' ' ' ' ' ' ' ' ' ' ' ' ' ' ' ] ] ] ' ' ' ' ' ' ' ` ' ' ' ' ' ` ' 1.1.1.' ' ' ' ' ' ' ] { >.:.>.( ~ R R R ( * # & $ # $ 6 7 7 3 r | y 6 > : > > > > > > > > i 7.U.I r > * 6 3 7 6 6 > > > 6 h | C.1XH.$.J i t e 4 5 y A 3.,XnXiX@X( 7 7 7 $ > 9 y z z c A A E E E W W W A :.d.+.+.0.O.W A A a a z z s s s Z A A A c c c v z l y G / y > > > > * * $ & $ $ $ # O X X X X X   O V e ; ; > 4 4 > 4 > > : : : : ",
"# $ $ $ $ $ $ $ $ = # # # > 4 , , , , 4 4 4 4 4 4 , , & # * H / ) O.2.9.f.4.3.3.:.' ' ' ' ' ` ` ' ' ( G G H F H ` ' ' ' ' ' ' ' ' ' ' ' ' ' ' ' ] 5.r.:.' ' ' ' ' ' ' ` ` ( ` ' ' ' :.:.1.:.` ' ' ' ' ' ' ] { ' ( ~ / R R R R W * # > $ # # # # # o # * $ # # X O # # # # # # $ > z c 6 * * 6 > * * * # # # # % q q g b X.#.K 2 * & $ * 3 a @.,XkXuXn.A y 7 & 0 (.>X*X~.b.c.c.b.W.~././.(./.3.1.(.4XhX4X*Xc.l.l.l.l.x.x.c.c.c.(.-X-X>X-X=X%X%X=X,X-Xc.' / b.b.c.c.c.c.c.c.c.x.l.k.a.6.3.{ ( 7   X 4 V : : > 7 7 4 > ; ; : : : : ",
"> > > & & $ $ $ = = # $ & > 4 4 4 4 4 4 4 4 4 4 4 4 4 & # > R ~ / ] O.O.2.4.1.1.:.' ' ' ' ( F H ` ' ` F H ] ) / ` ' ' ' ' ' ' ' ' ' ' ' ' ' ' ' ] i.`.5.] ' ' ' ' ' ' ' R G / ' ] 1.3.1.>.:.' ' ' ' ' ] { :.{ ' ( ~ ~ R ~ R ~ F % # > > $ $ $ $ = = # # $ # X X X X @ @ # O # 1 6 8 8 0 8 q * * = $ # # # # = $ $ % 1 1 8 b q = # # X # * a ) 4.b.#X@.z 7 > 6 b.>X7./ R R R R R R R R R ~ ( ` ( O.A.1XS.) Z M M M N N N N N Z ~ ^ ~ R G G Z Z G R ^ R R V R R R R R ~ ~ ^ ( ( ' ] { >.6.h.b.s.# X # s e e 5 e > : : : : : : : : ",
", 4 4 4 4 , , , , , , , 4 4 4 4 4 4 4 4 4 4 4 4 4 , , $ # * F R ~ ' ' { 2.4.1.1.:.' ' ' ' ( R R ` ' ` F R 9.f.] ' ' ' ' ' ' ' ' ' ' ' ' ' ' ' ' ] 5.r.5.] ' ' ' ' ' ' ' ( ~ ' 1.1.3.3.{ { ' ' ' ' ' ' ] 3.c.^.a.( ~ ~ R ~ ( R V & $ 2 e 7 7 7 e 7 7 6 7 > $ # O O # O # $ $ & 7 b b b v J 0 6 % # = # # # = = = = = % % % 1 * = # # o $ 6 7 y A / ] ( 7 * ) @X0Xl.H R ~ R R R R R R R R ( ` / ] ] 9.8...R Z M M M M M M M M M M M M M M M M M M M s M Z M M M M M s s s s s M M s s s s M ~ b.7 X O 4 z , 5 > : ; : : : : : : : ",
"4 4 4 4 4 4 4 4 4 4 4 4 4 4 4 4 4 4 4 4 4 4 4 4 , : : # # * G R ~ ' 1.:.{ 1.{ ] ' ' ' ' ' ' ` ` ' ' ` R H O.2.' ` ' ' ' ' ' ' ' ' ' ' ` / ( ' ' ' ] ] ' ' ' ' ' ' ' ' ' ' ' ] 3.3.7.d.3.O.] ' ' ' ` ( ( 6.>XuX~.{ ` ` / ~ ( P s * > 6 9 7 > 7 0 9 9 9 0 $ o X X X X X X o $ * 8 | #.C.$.b 7 * # # # # # # # # # # # # # # # = # # # = = = $ > 9 s y a 3 6 ~.#Xh.~ R R R R R R R R R R ~ ( ( ~ ( ] ] / F F Z M M M M M M M M M M M M M N N N M M Z Z N Z N M N N N N N Z N N N M M M M M M M 6.F X O $ y t < : ; : : : : : : : : ",
", , , , , 4 4 4 4 4 4 4 4 4 4 4 4 4 4 4 4 4 4 4 , > > # # * G R ~ ' 3.1.{ ' ` ` ' ' ' ' ' ' ' ' ' ' ' ` F H R H / ` ' ' ' ' ' ' ' ' ' ` / / ` ' ' ' ' ' ' ' ' ' ' ' ' ' ' 3.1.3.2.9.F.D.7.O.' ` ( ~ R / >.#X>Xb.3.] ' ` ~ ~ _ G 7 r r 7 y A z z A c E 6 $ #     .     X # $ 6 l $.S.H.C.K h 0 6 6 6 6 7 7 7 7 9 9 9 7 7 7 6 6 6 > * $ = # # % * 6 6 * > s ^.a.M G R / ( ( ( ( ( ` ` ` ` ` ` ` ` { ' / ( h.( G G G G G G G G G G G G G G G G G F R H G G G G G G G G G G G G G G Z Z M M M M ~ { X X $ : z > ; : : : : : : : : : ",
"4 , > : : , 4 4 4 4 4 4 4 4 4 4 4 4 4 4 4 4 4 4 4 , > # # * Z ~ ' 1.3.` H ~ ' ' ' ' ' ' ' ' ' ' ' ' ' ' / G G G F ` ' ' ' ( R ( ' ' ' ' ` ' ' ' ' ' ' ' ' ' ' ' ' ' ' ' ` ] 1.:.1.V.1X{.7.] ( ~ R R ~ / { a.a.3.:.' ~ H G ~ *.,.D U D S Y ' g.D.$X,XD.6.3.@.3.' ) ' ' } { 3.a.n.<X2X2X4X).^.^.^./.(.@X@X*X=X=X;X;X;X;X;X;X;X-X-X=X*X@X^.z.! $ = * * # # R b.H G ~ ( ` ' ' ' ' ' ' ' ' ' ' ' ' ' ' ` ` ' 3.( G G G G G G G G G G G G G G G H ~ ~ ~ ~ F G G G G G G G G H G G G G G G Z M M M Z 6.$ X $ : e s : : : : : : : : : : ",
", : : : : > 4 4 4 4 4 4 4 4 4 4 4 4 4 4 4 4 4 4 4 , > # # * s R / { { ` ( ` ' ' ' ' ' ' ' ' ' ' ' ' ' ' ` F G H ( ' ' ` ' ( F ( ' ' ' ' ' ' ' ' ' ' ' ' ' ' ' ' ' ' ' ' ' ` ] { 2.8.V.f.O.( R R ~ / ( ' { { { ] ' ` G G Z P 5.t.!.'.Y.R.].wXuXnXmXNXpX>X(.b.k.{ / R F F R ( 3.c.3X=X).z.4.' ( ( ( ( ( ( ' ' { >.3.6.7.a.a.k.x.c.~.(.%X*X;X;X6 # # = # o @.h.G ~ ( ' ' ' ' ' ' ' ' ' ' ' ' ' ' ' ' ' ' ' ' ( ~ R F G G G G G G G G G G G F / / ~ ~ F G G G G G G F H H ~ F G G G G G Z Z M M M 3.3   O : : z 4 ; : : : : : : : : ",
"< : : : < , , 4 4 4 4 4 4 4 4 4 4 4 4 4 4 4 4 4 4 , > # # > u R R ( ' ' ' ' ' ' ' ' ' ' ' ' ' ' ' ' ' ' ` / F ` ' :.] ' ' ` ` ' ' ' ' ' ' ' ' ' ' ' ' ' ' ' ' ' ' ` ' ' ' ' ' ' ' ] ] ] ( ~ ~ ( ` ` ` ~ G Z F R H H G R P _ e.U.oXxXoXeXeX0X6XyXnXiX@X7.' / R M s M M Z G / s.@XpXtX$Xn.k.3.{ ' ( / / ~ ~ ~ ~ ~ / / / / ( ( ( ` :.1.:.{ a.>Xl # # # # o 3.:.R ( ' ' ' ' ' ' ' ' ' ' ' ' ' ' ' ' ' ' ' ' ' ' ' ` ( ( H G G G G G G G G G H ~ / H F G G G G G G H H ~ / _ H H G G G G G G Z M s ' y X O : : 4 s : : : : : : : : : ",
", , , 4 t 7 4 4 4 4 4 4 4 4 4 4 4 4 4 4 4 4 4 , , , > # # > t H R R ( ` ' ' ' ' ' ' ' ' ' ' ] ] ' ' ' ' ' ` / ' :.:.:.' ~ R ( ` ' ' ' ' ' ' ' ' ' ' ' ' ' ' ' ' ( ( ` ' ' ' ` ( / / R / ( ( ` ' ' ` V e 7 , 4 G G G H ( _ =.w.I.oXxXoX7X].h.h.%X,X*X^.s.` ( R M M Z G ~ ' 6.b.>XiXuX-Xb.a.7.{ ' ` ' ' ' ' ' ' ' ' ' ' ' ' ' ' { 1.1.] ` 1.>Xc # # # # # ' / ~ ` ' ' ' ' ' ' ' ' ' ' ' ' ' ' ` ( / ( ` ' ' ' ' ' ` ' ` H G G G G G G G H ~ ( R F G G G G G G H H ~ _ -.-./ P H G G G G G Z M M R Z   O : : $ u t : : : : : : : : ",
"4 7 t e t t 7 , 4 4 4 4 4 4 4 , , , 4 4 4 4 , , 4 4 > # # > t F R R R ( ' ' ' ' ' ' ' ' ' ] r.6.] ' ' ' ' ' ] ` { :.] ( F G ~ ` ' ' ' ' ' ' ' ' ' ' ' ' ' ' ' ' / H ( ` ( ( ~ R R R / ( ` ` ` ' ' ( i t t i H ~ ~ / ' :.] =.-.t.T.`.oX.X-._ 6.l.h.a.7.7.3.] ( ~ / ` ] ] ' { 7.^.>X>X^.l.7.1.{ ' ' ' ' ' ' ' ' ' ' ' ' ' ' ` ' ] ' ( R G ~ ^.z X o # # # F *.=.` ( ( ( ` ' ' ' ' ' ' ' ' ' ` R G G F ( ' ' ' ' ' ` ( ~ F G G G G G G F / R ~ F G G G G G G G H ~ _ 5.U.t.=./ P F G G G G G Z M N A   o : : : > z > : : : : : : : ",
"4 t y t t 7 , 4 4 4 , , 4 4 , : : > , 4 4 4 > : > 4 > # # > e V R R R R / ( ' ' ' ' ' ' ' :.E.~.:.' ' ' ` ] :.( ( ] ' ' ` ( ` ' ' ' ' ' ' ` ' ' ' ' ` ` ` ` ` ` ` ( ( ~ R R R R / ( ' / H / ( ( ` ' ( ~ ( ] ' ' ' ] 3.:.` =.;.D U ;.XX]._ ^ { ' ' ( ` { :.:.' ' ' ' ' ] { { { 7.b.^.l.a.3.{ ] ' ' ' ' ' ' ' ' ' ' ' ' ' ( R ( H ~ F Z Z G W.z X X # # # Z U.U._ G G G F ~ ( ' ` ` ` ' ' ' ` R F F R ` ' ' ' ' ` / G G G G G G G G H / ( ~ G G G G G G F H ~ / _ ,.R..X'.e.*.~ H G G G G G G M M Z X X ; : : : t u ; : : : : : : ",
"7 t y e 4 , 4 4 , > : : : , 4 , , , 4 4 4 , : : : 4 > # # 3 e s R R R R R ~ ( ( ` ' ' ' ' ] 5.5.{ ' ' ` ' 1.1.' ( ' ' ' ` ` ` ` ` ( ( ( ( ( ( / / / ~ ~ ~ ~ ~ ~ R R R R R R ~ ( ` ' ' ( ~ 3.6.' ~ ` ' ' ' ` ' ` ' 1.9.2.] / V y y y /.Q.*.^ ~ ~ R V u G ( ' ' ' ' ' ( / ] :.1.{ 3.l.7.{ ( ( ` ' ` ( ( ` ' ' ' ' ' ' ' ( H / ( ~ F G G Z Z b.Z X # # # # V -.w.~ G G G G G / ` / F H / ( ` ` ( ` ` ` ' ' ' ' ' ` R G G G G G G G F ~ R ( R G G G G G G G F P _ -.U..XxXoXE.-._ H F G G G G G M s a X X ; : : : : s 4 ; : : : : : ",
"t y e 7 4 4 4 4 4 > : : : > 4 4 4 4 4 4 4 4 > : > 4 > # # 4 t y H R R R R R R R / ( ( ` ` ' ] ] ' ` ` ' :.] { ' ( / ( ( / ~ ~ ~ F G H R R H R R R R R R R R R R R R R R R R ~ ( ( ( ( ( ' b.@X3.( ( ( ( ( ( ( ` ] { 8.2./ s u 6 2 > c.x.=.( R F F u t V ( ' ' ' ' H u y ( ] ] / ' a.1.( ~ R ( ' ` / ( ' ' ' ` ' ' ` ` R ~ R / R G G G Z N c.A X # # o o u Z ^ ~ G G G G G F H F G G G F F F F H ( ` ' ' ' ` ` ( H G G G G G G H / / / / R G G G G G G G G H P _ w.'.oX XU.,.*./ H F G G G G M s e X X ; : : : : 4 s : : : : : : ",
"e t 7 , 4 4 4 4 4 4 , , , , 4 4 , > 4 4 4 , , , 4 , > # # 6 t t F R R R R R R R R R R ~ / ( / ( / / / ' ' ( ~ R F Z H H R R R H M s V R R R R ~ ~ ~ ~ ~ ~ ~ R R R R R R R R R R R R R R ( 6.h.{ ~ R R R ~ ~ R ~ ( ' ` ~ G t t > > & x.l.~ ` ` ( / ( ` ' ' ' ' ' ` s e u ` ` ~ H ~ 1.{ ] ' ` ` ` ' ' ` ( / H R ~ / ~ R / ( ~ / R G G Z Z M l.R O X     X t M M G G F H R ~ / ( ( F G G G G G G G G R ( ( ( / R F G G G G G H / ~ R / F F G G G G G G G G G F H / =.t.!.y.-._ P H G F G G G G M s y X X $ : : : : : y 7 ; : : : : ",
"t 4 4 4 4 4 4 4 4 4 4 4 4 4 4 4 , , 4 4 4 4 4 4 4 , > # # 6 t e s R R R R R R R R R R R R R R R R ~ ( ( ` ( R R H Z G F F F G G s u s G G G Z Z Z V V Z Z Z G G G G G F F F F H F H H H R / / ~ R H R H H R F G G R H z t t t > r r x.l.~ / ' ' ' ' ` ' ' ' ' ' ` V i ~ ' R F F F / / ` ' ' ` ` ' ( R F G G G G R ( ( ' { R H G G G G Z M l.] , # X   X 4 M M G ( ` ` ' ( R H R F G G G G G G G G G G F F G G G G G G G F H ( / / H G G G G G G G G G G G G H P / -.w.=._ ~ H G G G G G G G M M t X   $ : : : : : > s : ; : : : ",
"t 4 4 4 4 4 4 4 4 4 4 4 4 4 4 4 4 > , , 4 4 4 4 4 , > # # 6 t t t s V G F F H R R R R R R ~ R R ~ ( ` ( ` ~ Z V s u 7 7 t t t t t e e t t e e t e e 7 7 t t e t t t t t t t y y y y u u u u u u u u u s Z s e u 5 e t e e t t 2 U q.E.x.R ~ ` ' ' ' ' ' ' ' ' ' ' ' ' ' ( F G G G H F / ' ` ` ' ` ~ G G G G R ( ' 3.3.c.^.' H H ~ ( ~ H Z x.R.;.> X X X > s M G ~ / ( ( H G G G G G G G G G G G G G G G G G G G G G G F ( / ( H F G G G G G G G G G G G G G F H H _ _ ~ P H F G G G G G G G M M e X X $ : : : : : ; e y : : : : ",
"e , 4 4 4 4 4 , , , 4 4 4 4 4 4 , > > , 4 4 4 4 4 , > # # 7 t t e e e t t t y u s s s z V V G R F A F V s t e e t t e , , e e t t t t t t t e 7 4 , , 4 e t t t t t t t t t t t t t t t t t t t t t t y z s t 4 , , 7 e t e 3 > B D k.x.R R ( ' ' ' ' ' ' ' ' ' ' ' ' ' ' / G G G F F ( ' ' ' ' ' / G G F ( ' 3.3.3.:.7.l.:.' ` ( ( ` ` ~ Q.].q.e # X X > t s G G G G F H H G G G G G G G G G G G G G G G G G G G G G G H / H G G G G G G G G G G G G G G G G G F ~ P H H H F G G G G G G G M s 9 X X ; : : : : : : : s 4 : : : ",
"4 4 4 4 4 , > : : : > , 4 4 , 4 , , 4 4 4 4 4 , , , > # # 7 t t 7 4 y z t t e e e e e e e t y z z s y e e e t t t t t 7 , , 4 e e t t t t t t 4 4 4 7 e t t t t t t t t t t t t t t t t t t t t e t V z V y 7 > > > : > > & # # $ & @.c.R R ( ' ' ' ' ' ' ' ' ' ' ' ' ' ' ( G G G G F ( ' ' ` ( ~ F G G ( ' ' ] 1.{ ' ] { ` ( R F F F ~ R c.E.i > = # o > 5 s Z F G H ( ` ` / F G G G G G G G G G G G G G G G G G G G G G H F G G G G G G G G G G G G G G G G G G H F H H ~ H F G G G G G G M M 5 X X ; : : : : : : : 4 u ; : : ",
"> > > > > : $ ; ; ; ; > , , , > , , , , , , , , , , , & # > 7 e 7 7 K X.y t t t t t t t t z z z y t e e e e e e e 9 7 7 4 > > > 4 7 7 7 4 4 4 4 3 > 3 3 > > > > > > > > > > 6 > * * * * * * * * * $ * 3 * % $ # # o   X X # # # # + ) x.R R ( ' ' ' ' ' ' ' ' ' ' ' ' ` ( F G G G G G F H R H F G G G R ` ` ' ' ] ' ~ H R F G G G G G ( R h.d.$ # # # # 6 7 s Z ~ ( ` ` ' ' ` ( / R R R R ~ R H G G G G G G G G G G G G G G G G G G G G G G G G G G G G G G G G G H H ~ ~ ~ ~ F G G G G G G M M 4   X $ ; $ O O O O O O t > O O ",
"# # # # # # o # # # o # $ $ # O # $ & & * > > > > 4 4 > # # = $ $ * 6 g > * * * * * * * * > 6 > * % $ $ $ $ $ $ = $ $ $ = # # X # % % % = # = = # # # # # # # # # # # # % 0 l 1 # # # # # # # # #     o X X # # X X X X X # # # #   W l.R R ( ' ' ' ' :.] ] ' ' ' ' ` ~ F G G G G F R / ( ( ( H G G R H R ( ' ' ' ' ( R G G G F H ~ ( ` ~ 6.s.# # # # = e y V ~ ( ' / / ' ' ' ' ' ' ' ' ' ' ' ( F G G G G G G G G F F H ~ F G G G G G G G G G G G G G G G G G G G H / / ~ ~ F G G G G G G G M s :   X $ X     . . . . . X y X   ",
"0 0 9 7 7 6 6 6 6 > & * * * * = # $ = # # # # # # & > , * $ # = # # # = # # # # # # # = = = $ $ = = $ $ $ $ = = # = = # # # # # = q k g 1 = * = # # # # # # # # # # # = 6 @.n.c % # # # # # # # #   X X X X # #   X   X # # # = $   W k.R R ( ` ] :.:.1.] / R R / ` ( F G G G H / ` ` ` ' ' / G G G ~ ~ ~ ` ( ( / ( ` ( F F ~ ( ` ` ' ' ~ { @.# # # # # > z z F ~ F H / ' { ' ' ` ( ( ' ' ` ` / G G G G G G G G H ( ` ` ` H G G G G G G G G G G G G G G G G G G G H ~ / H F G G G G G G G G M s & X X X X X z W E E A A A E z z ",
"8X6X6X>X>X>X;X-X-X=X/.@X*X@X@X(.^.^.z.s.) z > # # # $ , , , , , , , , , , , , , , , > 4 4 , , , , , , , , , , , , , , , > > > , 4 b Z.M.k 1 * * = # # # # # # # # # # = > ! s.l % # # # # # # # # # X X X # # #     X # # = % > > + A h.R R ( ] 1.1.:.] F G G G F ( ' ( ( / / ` ' ' ' ' ' ( F G F ~ ` ' ( R F G G G ( ' ( / / ~ ~ R / ` ~ R W # # # # # $ 7 i u V H R ~ ' 7.{ ' ` / ( ` ( ~ P G G G G G G G G F ( ' ' ' ' / G G G G G G G G G G G G G G G G G G H / / R F G G G G G G G G G M u $   X X   9 W.(.@X(.#X@X(.^.h.~.",
"b.~.^./.(.%X%X*X=X-X;X>X6X8X9X0XqXqXqXqX9X8X*X) = # $ , , , 4 4 4 4 4 4 4 4 4 , , 4 4 4 4 4 4 4 4 4 4 4 4 4 4 4 4 4 4 4 , 4 4 e y K Z.B.C y 9 > > > * & & $ $ $ = # = # = 3 9 * # # # # # # # # # # # # # # # o o O & : > > , 4 > # z 7.R R ( { :.:.] ' / F G H ` ' ' ' ' ' ' ' ' ' ' ' ' ` ( ( ~ / ( R F G G G F ~ ` ' ( F G F F H R ~ Z Z E # # # # $ z 7 > 7 e u G ( k.*X6.' ` ' ` R F H H G G G G F H H F ~ ' ' ' ' ' ` R G G G G G G G G G G G G G G G G F / R ~ F G G G G G G G G G Z s t O   X X X F ~.c.h.6.>.{ ' ( ~ ( ",
"H H H H H R R R ~ / ( ` ' :.3.7.7.k.k.x.c.^.8X>XA   # 4 4 4 4 4 4 4 4 4 4 4 4 > > , 4 , , 4 4 4 4 4 4 4 4 4 4 4 4 4 , , 4 7 e u t y C J z e 4 4 4 4 , , , , 4 , , > , , > 3 4 > > > > > > > > > > > > > > > > : : , 4 4 4 4 4 4 > # a 3.H H / { 1.{ ] ' ` R F R ' ' ' ' ' ' ' ' ' ' ` ( / ( ' ` H G G G G G G H ( ' ' ' ` ( ( ( ` ` ' ` ~ R E # # X # 3 x.s.* # > e t V >.l.( G ~ ( ' ~ F ~ H G F H R / ` ( ( ` ' ` ( ~ ` ` ` H G G G G G G G G G G G G G G H / / ~ G G G G G G G G G G G Z s 5 O   X X X ' 3.Z M s s M M M M G ",
"( ( ( ( ( ( ( ( ( / / / ~ ( ` ` ( ~ R R R ~ a.6Xz.# # 4 4 4 4 4 4 4 4 4 4 4 4 > : , , > , 4 4 4 4 4 4 4 4 4 4 4 4 4 4 4 e y u S u t i i y , , , 4 4 4 , 4 4 4 4 4 4 4 4 4 4 4 4 4 4 4 4 4 4 4 4 4 4 4 4 4 4 4 , , , 4 4 4 4 4 4 > o 6 ~ M M R ~ / ~ ( ( / F F F ` ' ' ' ' ' ' ' ' ' / F F ( ' ' ` R G G G G G F ~ ( ( ` ` ( ` ` ` ' ` ' / ~ A # X # $ 6 R 6.1.: # > 7 t z H G G ~ ~ ~ ~ H _ ~ ~ ` ` ' ' ` / ( ' ' ` ~ / ` ' ' ( G G G G G G G G G G G G G F / R ( R G G G G G G G G G G G Z s 4 O   o X X } R M Z G G G G G G G ",
"' ' ' ' ' ' ' ' ' ' ' ' ' :.1.{ ' ` ( ( ( ~ ~ ~.>X0 # 4 4 4 4 4 4 4 4 4 4 4 4 4 , 4 4 , , 4 4 4 4 4 4 4 4 4 4 4 4 4 4 7 p V / _ S S u y 4 > > , 4 4 4 4 4 4 4 4 4 4 4 4 4 4 4 4 4 4 4 4 4 4 , 4 , , 4 4 4 4 4 4 4 4 4 4 4 4 4 , : o * Z N G R ~ G G G R { ( R H ` ' ' ' ' ' ' ' ` ' ` ( ( ` ' ' ( H G G G G G G G G F H F F F R / / ~ / ~ R i @ X $ # 9 G M { 3.3 o & 7 t t V H R H G Z H *._ ] ] ] ' ' ` ' ' ' ' ' ' ' ' ' ' ( F G G G G G G G G G G G H / / / ~ R G G G G G G G G G G G V s > X   O X o ( Z M G Z V V G G G G ",
"' ' ' ' ' ' ' ' ' ' ' ' 1.{ :.] ' ' ' ' ` ( R { ;XA # , 4 4 4 4 4 4 4 4 4 4 4 4 4 4 4 4 4 4 4 4 4 4 4 4 4 4 4 4 4 4 e t i I i.].5./ V e 4 , , 4 4 4 4 4 , 4 4 4 4 4 4 4 4 4 4 4 4 4 , 4 , , , 4 4 , , 4 , , 4 4 , 4 , , , 4 , < $ X $ M Z Z R R G G F ' A.V.[ H ` ` ` ` ` ' ' ( / ` ' ' ' ' ' ` R G G G G G G G G G G F F F F F G G F G Z Z 7 # % * $ y Z M M ~ @.9 o # > 4 7 p M G D H ~ -._ ] ] ] ] ' ' ` ( ` ` ' ' ' ' ' ( F G G G G G G G G G G H / / R / F F G G G G G G G G G G G G M u : X   O X o E M N G t 4 u G G G G ",
"' ' ' ' ' ' ' ' ' ` ] 1.1.1.` ` ' ' ' ' ' ' ( H ~.O.# , 4 4 4 4 4 4 4 4 4 4 4 4 4 4 4 4 4 4 4 4 4 4 4 4 4 4 4 4 4 4 p Z _ w. X7X].=.P u e 4 4 4 4 4 , , > , 4 4 4 4 4 4 4 4 4 4 4 , , , , , 4 4 4 4 4 4 2 , , 4 , < 4 , , , < : ; X # V G G G R G G H ) 0.0.W F ( / H R ` ' ' ' ` ' ' ' ' ' ` / G G G G G G G G G G F W [ [ H G G G F F V N u $ # $ o t M s M M Z >.V # X & 4 p u S P _ =.w.=._ ( ( ( ( ( R G H R ( ` ' ' ' ( / R G G G G G G G G F H ( ( / H G G G G G G G G G G G G G Z M e :     O O X Z M Z G z V G G G G G ",
"' ' ' ' ' ' ' ' ' ' :.:.1.:.` ' ' ' ' ' ' ' ` R 3.6.$ , 4 4 4 4 4 4 4 4 4 4 4 4 4 4 4 4 4 4 4 4 4 , , , 4 4 4 4 4 4 7 u ' ~.5XoXR.] V p 7 4 4 4 4 4 , : : , 4 4 4 4 4 4 4 4 4 4 , > & $ & & > > > > > > > & & & & & $ $ $ & $ O : * * s G N N G G G F H W / F G F G G ~ / ( ( ( ( ( ( ( / ~ H G G G G G G G G G G G H o.Z.C.[ F G G G F Z N u * $ O X e M N Z Z Z Z ' >.9 # : e m S I =.U.U.-.*.~ G Z G G G G G G G ~ ' ' ( ~ R H G G G G G G G F ( / ( H F G G G G G G G G G G G G G G Z s 4 $     O O X s M Z G G G G G G G G ",
"' ' ' ' ' ' ' ' ' 1.1.1.1.{ ' ' ' ' ' ' ' ' ` / ( 3.& , 4 4 4 4 4 4 4 4 4 4 4 4 4 4 4 4 4 4 4 4 , , , , 4 4 4 4 4 4 7 s { =XvX5X5.G t 7 4 4 4 4 4 4 , > : > 4 , 4 4 4 4 4 4 4 4 * X # z @.@.@.3.6.s.d.d.l.3.@.s.s.7.3.O.W c 6 # # * * V N M M Z G G G G F F F G G G G G G G G G G G G G G G G G G G G G G G G G G G H +.}.G.) F G G G F R E y # X   X e M G G G G G Z ~ a.W 3 , m I ,.I.'.T.w.*.~ P Z N N Z G H H H / ' ' ~ G G G G G G G G G G G H ~ F G G G G G G G G G G G G G G Z Z N s , # X   $ O X 7 M Z G G F F G G G G ",
"' ' ' ' ' ` ] 1.:.{ 1.] ] ' ' ' ' ' ` ` ` ' ' ( R / & , 4 4 4 4 4 4 4 4 4 4 , , , 4 4 4 4 4 4 , > : : , 4 4 4 4 4 4 e i ( ^.9X(.' s 4 , 4 4 4 4 4 4 4 4 , , > > , 4 4 4 4 4 4 > #   A =X%X6.>.3.6.a.h.l.c.l.l.W.^./.~.~.#X;X@Xz * > # u M M M Z G G G G G G G G G G G G G G G G G G G G G G G G G G G G G G G G G G F [ 8.+./ F G G G G G A 4 X X X X e M G G G F H H ~ ^ h.h.H S ;.Y. XoX XU.-._ P G N N M G ~ / ( ( ( ` ( G G G G G G G G G G G G F F G G G G G G G G G G G G Z Z M M M e > O o o : $ X 7 M Z G ~ ( ( ~ G G G ",
"' ' ' ' ' ' ] 3.1.1.] ` ' ' ' ' ' ' ~ H ( ' ' ( R Z $ > 4 4 4 4 4 4 4 4 4 , > : , 4 4 4 4 4 4 , : : : : > , 4 4 , 4 i z R ' ' ( H i 7 , , 4 4 4 4 4 4 4 4 4 , , , > , , 4 4 4 > # % ^.-X' / ` ` ' ` ` ( ( ( ( ( ( ~ Z M Z { ^.Z & # X e M M Z G H H H G G G G G G G G G G G G G F F G G G G G G G G G G G G G G G G G H H H F F G G G G V M 3   X X X 4 s Z G G G G H P ~ _ r.[.R.T. XOXxXOX'.q._ ~ G N N M N H R G G R R R G Z Z M M M M M M M M M M M M M M M M Z Z Z M M s s s s s u e , > $ $ $ : : o 5 M Z ~ ` ' ' ` R G G ",
"' ' ' ' ' 3.1.3.{ ' ` ' ' ' ' ' ' ' ` ( ` ' ' ( R Z $ > 4 4 4 4 4 4 4 4 4 4 , , 4 4 4 4 4 4 4 4 , > : : : , 4 4 4 4 7 i V y i i e t 7 4 , , 4 4 4 4 4 4 4 4 4 4 < : : < < > , > # 6 =Xk./ ' ' ` ( ( / R R ( ` ' ' ' ~ G Z M >.R X X   e M Z ~ ( ' ] ` R G G G G G G G G G G F F ~ H F G G G G G G G G G G G G G G G G F G G G F G G G G V s >   X X X : t M Z G G G G H H P ~ *.U.`.XXxXxXxXXXT.-._ ~ G Z Z H R H M M Z R R R R G M M M M M M M M M M M M M M M M M M M s s s u t e 4 , , , , > * $ & O X 7 Z R ` ' ' ' ' ( H G ",
"' ' ' ' ' ] 1.{ ' ' ' ' ' ' ` / ` ' ` / ~ / ` / R G $ > 4 , 4 4 , 4 4 4 4 4 , , , 4 4 4 4 4 4 , , , , , , , 4 4 4 4 4 e e 4 e e 4 4 4 4 , : > , 4 4 4 4 4 4 , < : : : 7 4 4 , > # 6 %X' ` ' ' ( F G G G G G H R R H G G G Z G E   X X 7 N Z ~ ( :.1.( H G G G G G G G G G H ~ ~ ~ ~ F G G G G G G G G G G G G G G G G G G G G G G G G G M s >   X X X $ , e u s N V Z A H P ~ _ =.U. XoX+XXXY.-.I D S D G G G G V s u s G F F F G s s s s s s s s s s s d u u u t e e 5 4 4 4 , , , , , , > 3 & $ # # # o y R / ` ' ' ' ' ` ( R ",
"' ' ' ' ' ` ] ] ` ' ' ' ' ' ` ( ` ' ` ~ F G ~ / R G $ > 4 4 e 7 4 4 4 4 4 4 4 4 4 4 4 4 4 4 4 , > , 4 4 4 4 4 4 4 4 4 4 , 4 4 4 4 4 4 4 4 , : > , 4 4 4 4 , : : > 4 7 t t 7 4 > # 7 ~.~ ' ' ' ` H G G G G G G G G G G G G Z M z   X X 7 Z Z P ( =.] R F G G G G G G G G F ~ / ~ ~ F G G G G G G G G G G G G G G G G G G G G G G G G G G M s : X X X X X : , , e u s s M Z Z P ~ *.w.E. X XU.&.D m u u u t t t t t t e t t t t t t e 4 4 4 4 4 4 4 4 4 4 , , , , > > , > > > > > , , , , > 3 3 * # X & & # i ~ / ` ' ' ' ' ' ' ` ",
"' ' ' ' ' ' ' ' ' ' ' ' ' ' ' ' ' ' ' ' ` ( ( ~ R G $ 3 t t t e 7 4 4 4 4 4 4 4 4 4 4 4 4 , > : : : > 4 4 , , , , 4 4 , , , , 4 4 4 4 4 4 4 , : > , 4 4 4 , > , 7 7 4 7 7 , , > # 6 l.~ ' ' ' ` ~ G G G G G G G G G G G G Z M t X X # 4 G P _ *.w._ ( R F G G G G G G G H ~ / H F G G G G G G G G G G G G G G G G G G G G G G G G G G G M s & X X X X X o $ > > , 4 w t u M N G ~ -.w.Y.I.-.I i 2 e y y t t t t t t t t t t t t t e 4 , , , , , , 4 , , 4 , , , , , , > > , , > < : : $ $ * # = # # > & # i ~ / ` ' ' ' ' ' ' ' ",
"' ' ' ' ' ' ' ' ' ' ' ' ' ' ' ' ' ' ' ' ' ' ` ~ R G * 7 y e t 7 , 4 4 4 4 4 4 4 4 4 4 4 4 , > : ; : : , , > : : < < < : : : , 4 4 4 4 4 4 4 , > : > , 4 4 > : > 4 4 > > , , > : # > } G ~ ~ ~ ~ F G G G G G G G G G G G G Z M e X $ > 7 G *.u.U.E.-._ / H G G G G G G H / / R F G G G G G G G G G G G G G G G G G G G G G G G G G G G Z s s & X X X X X   X X O $ $ & : : > 4 e z V S -.U S j e > * * > * * > > > > > > > > > > > > > > & & & & > > > > > > & $ $ $ $ & $ $ $ # O o o $ * > % # # # > * # s ~ / ' ' ' ' ' ' ' ' ",
"' ' ' ' ' ' ' ' ' ' ' ' ' ' ' ' ' ' ' ' ' ' ` R R V * 7 y e 4 , 4 4 4 4 4 4 4 4 4 4 4 4 4 4 , , : : : , , : : < : : : < : : , 4 4 4 4 4 4 4 4 , : : > 4 , > : 4 7 4 4 , , , : $ X $ G V G G G G G G G G G G G G G G G G G Z M u X O # p _ U. XoX Xt.*.~ R F G G G G F / H R F G G G G G G G G G G G G G G G G G G G G G G A A G G G Z M s u $   X X X X X X X         X X O & 3 7 9 7 D y 7 2 > * & $ # # # # # # # # # # # # # # # # # # # # # # # # # # # # # o # # # # # # # # # = * % 3 % # # * , * # i ~ / ' ( H ` ' ' ' ' ",
"' ' ' ' ' ' ' ' ' ' ' ' ' ' ' ' ' ' ' ' ' ' ( R R G > 9 e 7 4 4 4 4 4 4 4 4 4 4 4 4 4 4 4 4 4 4 4 , , , 4 , , 4 , > : , : ; > 4 4 4 4 4 4 4 4 , : : : > , 4 e 4 7 7 4 4 4 , : : X # s G ~ ~ / H G G G G G G G G G G G G G Z M u X X # , S t.oXxXoXE.=.~ H F G G G H / ( ~ G G G G G G G F ( / R F G G G G G G G G G G G Z u u G G Z M M s t # X X X O $ $ $ # O O O X O O # * * 3 6 2 j 2 > * * $ $ # # # # # # # # # # # # # # # # # # # # # # # # # # # # # # # # # # # # $ $ $ * 3 6 6 7 > > > , , > # y ~ / ` V i ( ' ' ' ' ",
"' ' ' ' ' ' ' ' ' ' ' ' ' ' ' ' ' ' ' ' ' ' ( R ~ F * 6 7 , 4 4 4 4 4 4 4 4 4 4 4 4 4 4 4 4 4 4 4 4 4 4 4 4 4 4 4 , , , : : > 4 4 4 4 4 4 4 4 , : : : : , t y t 4 , , , > : : : # # z / ` ` ' ( F G G G G G G G G G G G G Z M t X X # > S -. XoX.XY.5._ H G G G F ( ( ` ~ G G G G G G G / ' ' ` ( H G G G G G G G G G G e , 4 V G Z Z Z Z u # X X X O : : : : : : : : : < 5 5 4 e 7 7 i 6 , , > > > > > & & & & & & & & & & & * * * * * * * > > > > > > > > > > > > > > > > > 7 y t e t 4 4 4 , , , , > # y R / ` ~ ( ' ' ' ' ' ",
"` ` ' ' ' ' ' ' ' ' ' ' ' ' ' ' ' ' ' ' ' ' / ~ ( Z * & , 4 4 4 4 4 4 4 4 4 4 4 4 4 4 4 4 4 4 4 4 4 4 4 4 4 4 4 4 4 4 4 , > , 4 4 4 4 4 4 4 4 4 > : : : 4 4 e 5 : : : : : : : : # # V ( ~ ~ ~ R G G G G G G G G G G G G G Z M e X X # : i P t.Y.t.*.~ H G Z V A ~ { 6.>.( R G Z Z G G R ' ' ' ' ' ` H G G G G G G G G s , 5 s A G R R R R t $ X X   O : : : : : : ; > 5 4 , 4 > , , e u 7 7 7 4 7 7 4 , , , , , 4 4 4 4 4 4 4 4 4 4 , , , 4 4 4 4 4 4 4 4 4 4 4 4 4 4 4 4 4 7 7 y y t 4 , 4 4 4 4 , , > # y R / ` ' ` ` ' ' ' ' ",
"H H ~ / ( ( ` ' ' ' ' ' ' ' ' ' ' ' ' ' ' ` / ( ( z & $ , 4 4 4 4 4 4 4 4 4 4 4 4 4 4 4 4 4 4 4 4 4 4 4 4 4 4 4 4 4 4 4 4 4 4 4 4 4 4 4 4 4 4 4 , : : 4 7 4 5 , : : : : : : : : O # V ( R G G G G G G G G G G G G G G G G Z M e X X X # p m _ P P G M s e t s s G { /.^.3.R Z M M M M R ( ( ( ( ( ( ( F G G G G G G G Z V G Z Z R ( ( ~ Z 4 $ # X   # : : : : : : > > 7 7 4 < : > > 4 e 4 4 4 4 4 , : : : : : : : , 4 4 4 4 4 4 4 > : : : > , , , , , , , 4 4 4 4 4 4 4 4 4 u y y 7 4 , 4 4 , , , , , > # t R ~ ` ' ' ' ' ' ' ' ",
"R G G Z G F ( ' ' ' ' ' ' ' ' ' ' ' ' ' ' ` ` ' ( z * & , , 4 4 4 4 4 4 4 4 4 4 4 4 4 4 4 4 4 4 4 4 4 4 4 4 4 4 4 4 4 4 4 4 4 4 4 4 4 4 4 4 4 , 7 t 4 , 4 > < : : : : : : : : : O + z / H G ~ ( H G G G G G G G G G G G G V M 7   X X O , u S u p e 4 4 4 4 t t s } @X=X{ V s s s s M Z R R R R R R R R G M M M M M M M M M M G ( j.a.R y 7 $ # X   # : : : : : : e 7 e > : : , 4 4 7 4 4 4 4 4 4 > : ; : : : : ; : , , 4 4 4 4 , : : : : ; : : : : : : : 4 4 4 4 4 4 4 4 4 7 t 7 4 , , , > < : > , 4 > # 9 R ~ ( E E / ( ` ' ] ",
"~ G N N Z G ( ` ` ' ' ' ' ' ' ' ' ` ( ` { ' / ~ ~ t # > , , 4 4 4 4 4 4 4 4 4 4 4 4 4 4 4 4 4 4 4 4 4 4 4 4 4 4 4 4 4 4 4 4 4 4 4 4 4 4 4 4 4 7 7 y e 4 < : : : : : : : > , > > # + s H G G F ~ R G G G G G G G G G G G G M M 4   X X X > t e e 4 4 , 4 y t y e u G } { z e 5 7 e u s M Z G G R R G G R R M M M M M M M M s M G R 6.} t e e $ # # X $ : ; ; : : ; > 4 > : ; > 4 4 4 4 4 4 4 4 4 4 : ; : : : : : : : 4 4 4 4 4 4 > : : : : : : : : : : : , , 4 4 4 4 4 4 4 4 , 4 , < : : : : : : : : , > # 6 R R R u 4 e V ~ ` { ",
"F H Z s s Z R R ~ / ( ( ( ( ( / ~ ~ / / ` ` ~ G F 3 # > , 4 4 4 4 4 4 4 4 4 4 4 4 4 4 4 4 4 4 4 4 4 4 4 4 4 4 4 4 4 4 4 4 4 4 4 4 4 4 4 4 4 4 u y y 4 : ; : : : : : : , , > > , * # t ~ ~ G G G G G H H F G G G G G G G Z s s :   X X X & e , , , , , , 7 y 7 4 4 7 u V t 4 > > > > , 4 5 e u V G G G G G s u u u u t e e 4 4 4 4 e t 7 e 9 = # # # : , , , > > : : < : : : > 4 4 4 4 4 4 4 4 4 4 : ; : : : : : : : 4 , , , , > : ; : : : : : : : : : : : , , , , 4 4 4 , , : : ; : : : : : : : : : : : o > F Z V G M u s G ~ ( ",
"e t y u t M H R R R R R R R R R R R ` ` ' / ~ R V & # > 4 4 4 4 4 4 4 4 4 4 4 4 4 4 4 4 4 4 4 4 4 4 4 4 4 4 4 4 4 4 4 4 4 4 4 4 4 4 4 4 4 4 , 7 y 4 : : : : : : : : : : < , 4 4 > # 3 Z R Z Z Z G G ( ` ( H G Z Z Z Z M M s u $ X X X   O > > , , > , , h K 4 , , , 4 4 5 , , , , , , > 4 e e t t e t y y t 4 4 , , , > > , , , , 4 7 e t 7 = # # # > 4 4 4 , , 4 4 , > : < > 7 7 4 4 4 , , , 4 4 , : : : : ; , 4 4 5 4 : ; : : : : : : : : : : : : : : ; : : > 4 4 4 4 , , : : : : : : : : : : : : : ; X # u M M M M V E R R R ",
"> 7 e t e e y s G F H R R ~ ~ ~ ~ R ~ ` / ~ H V e # $ > 4 4 4 4 4 4 4 4 4 4 4 4 4 4 , 4 4 , 4 4 4 4 4 4 4 4 4 4 4 4 4 4 4 4 4 4 4 4 4 4 4 4 , > , : : : : : : : : : : : : , 4 , > # > e t u s s Z V F R R Z M s s s u u u e > X X X X     X # $ & $ & & y l 4 > , > > , 4 , , , , , , , 7 t t t t e u s u t t 4 , , , , 4 4 7 e t t t e e 6 # # # # > 4 4 4 , : : < , , , > e 7 t e 7 4 , : > 4 4 4 , : : : : 5 5 4 4 : : : : : : : : : : : : : : : : : : : : : , 4 4 4 , , : : : : : : : : : : : : : ; X o > w u s s V A A M M ",
", 4 t t t t e e t t u s V Z G F H H H R R G i t 3 # : 4 4 4 4 4 4 4 4 4 4 4 4 4 4 4 4 t 7 4 4 4 4 4 4 4 4 4 4 4 4 4 4 4 4 4 4 4 4 4 4 4 4 , , : ; : : : : : : : : : : : > , > > : o $ > > > 7 7 9 9 7 7 4 , , , > > : : $ # X X X X X X X       X X X X o O O # # O O O $ $ $ $ $ & & & > 4 4 4 4 7 y y t 9 6 3 > > > > 4 > > > 3 3 > > * $ # # # * 4 4 4 , , : : : : : > 4 s s V i e 4 < , , , , , , , : : , 4 4 > : : : : : : : : : : : : : : : : : : : : : , 4 4 4 4 , , : : : : : : : : : : : > , > o X : , , 4 e s s u t e ",
": > 6 6 7 7 e e e e e e e e t t t 7 e y t e e 9 * $ , , 4 4 4 4 4 4 4 4 4 4 4 , 7 t t t t 7 4 4 4 4 4 4 4 4 4 4 4 4 4 4 4 4 4 4 4 4 4 4 4 , < : : : : : : : : : : : : > , : : : : $ # X # & * $ $ O X o O O O O o X X X X X X X X X X X X X                                             # # # # # $ * * $ o # # # # # # # # # = * 6 * # # # # # $ , 4 4 4 , , : : : : : > 7 c { ! c y 7 $ $ $ = $ $ $ $ O $ > > & # O O O O O O $ $ $ $ $ $ $ $ $ $ ; ; ; : , , , 4 4 , , > : : : : : : : : : > , , , , $ X $ > > 4 t 4 7 , > > ",
"X X X # # # $ $ * * > > 4 4 7 7 7 > > 7 7 6 > & $ > 4 4 4 4 4 4 4 4 4 4 4 4 4 7 t y e t 4 4 4 4 4 4 4 4 4 4 4 4 4 4 4 4 4 4 4 4 4 4 4 4 4 4 : : : : : : : : : : : : : : : : : : : , , > > 4 4 > : ; ; ; $ & & & $ ; ; $ $ $ $ $ $ $ $ $ $ $ # O O O O o O o X X X o X o X X X X X X X o # # # # $ > > $ o   X o o o     X X # * B &.B * # # # * , 4 4 4 4 4 , > < : : : 4 9 ) $X$Xn.} c a 0 9 7 6 6 1 * $ 3 * & # o o X X X X X                     X X X o # $ $ & > > , , , : : : : : : : : 4 4 4 4 4 $ # X O & > 3 & O O O O ",
"  X X X X # # # # # # # # # # # = # = = = # # & > 4 4 4 4 4 4 4 4 4 4 4 4 4 , 7 t t e 4 , 4 4 4 4 4 4 4 4 4 4 4 4 4 4 4 4 4 , , 4 4 4 4 , : : : : : : : : : : : : : > > , , : : : : , 7 t e 4 : : : : : : : : : : : : : : : : : : : : : : : : : : : : : : : : : : : ; ; ; & & & & $ : > > > > 4 e , , : $ $ $ $ $ $ $ $ $ $ & 7 ;.'.-.y , > , , 4 4 4 4 4 4 4 4 , : : : 4 9 s.uXbXuX9X8X>X;X;X;X;X;X=Xb.b.b.b.l.l.l.k.a.a.7.6.3.{ } ) ( ( W E W W W E A z y 7 3 * * $ $ : , 4 > : : : : : : : : > , 4 4 & # # = * $ * $ X X X X ",
"O O O O O $ > > > > > > > > > > > > > > > > > , 4 4 4 4 4 4 4 4 4 4 4 4 4 4 7 y y e 4 , 4 4 4 4 4 4 4 4 4 4 4 4 4 4 4 4 4 4 , > > , 4 , : : : : : : : : : : : : : : , 4 4 4 , : : > 4 t e e , : : : : : : : : : : : : : : : : : : : : : : : : : : : : : : : : : : : : : : : : : : : , 4 4 4 7 t t 4 : : : : ; ; ; : : < 4 , 4 p D -.D p 4 4 4 4 4 4 4 4 4 4 4 4 4 , > < t a n.iXtX/.h.1.{ ] ] :.1.6.6.3.6.a.7.6.6.a.a.h.h.h.h.h.h.h.h.h.h.j.l.^.(.(.#X(.(./.W.b.b.~.b.' s , , : : : : : : : : ; : : , , > > 4 7 9 6 > & O O O O ",
": : : : : < , , , , , , > : : : : : : : : < 4 4 4 4 4 4 4 4 4 4 4 4 4 4 4 7 y e e 7 4 4 4 4 4 4 , , 4 4 4 4 , 4 , > : , , 4 4 , , , , : : : : : : : : : : : : : : : : > , 4 4 , , 7 t y t 4 , , < : : : : : : : : : : : : : : : : : : > > > > > > > < < > > : : : : : : : : : : < , 4 4 4 4 t e y 7 > : : : : : : : > 4 4 4 4 4 p i p 4 4 4 4 4 4 4 4 4 4 4 4 4 4 , 4 7 7 * n.(.a.3.{ ` ( ( ( ( ( ( ~ R G H Z M M M M M M M Z G G G F R ~ ~ ~ ~ ~ ~ ~ R ~ ~ ~ ~ ( ( ( ~ ' A & : : : : : : : : : : ; : , e y y e t 4 : : : : : : ",
": : : : : > 4 4 4 4 4 , > : : : : : : : > , , , , 4 4 4 4 4 4 , , , 4 , 7 t y t 4 4 4 4 4 4 4 , > > 4 4 4 4 , : : : : > , 4 4 4 , , > : : > > > > > > > , , , , , , , , 4 4 4 , 7 t t y t , 4 4 4 , , , , > > > > > > , , , , , , , 4 4 4 4 4 4 4 4 4 4 4 4 4 4 , , , , , , , , 4 4 4 4 7 t y t y 7 4 4 4 4 4 4 4 4 4 , 4 4 4 4 4 7 4 4 4 4 4 4 4 4 4 4 4 4 4 4 4 , 4 4 4 $ l.6.( 1./ i V ( ` ] 3.' A / H F G G G G G G G H ( ' ` ` ' ` ' ` ` ' ` / H F F F ( ( ( ( ~ M s s O O $ : : : : : : : : : : 4 7 y y e 4 , : : : : : : ",
": : : : ; > 4 4 4 4 , , , : : : : : : < , , : : : > 4 4 4 4 4 > ; > , 4 t e t e , , 4 4 4 4 4 4 , , 4 4 4 4 , , , , , , 4 4 4 4 4 4 , , , , , , , 4 4 4 4 4 4 4 4 4 4 4 4 4 4 7 t y t t 7 , 4 4 4 4 4 4 4 4 4 4 4 4 4 4 4 4 4 4 4 4 4 4 4 4 4 4 4 4 4 4 4 4 4 4 4 4 4 4 4 4 4 4 4 , 7 y t e t 7 4 4 4 4 4 4 4 4 4 4 4 4 4 4 4 4 , , 4 4 4 4 4 4 4 4 4 4 4 4 4 4 4 4 4 4 , # d.3.~ { ( V R ` ] ] :.G s ( ( ( ( ( ( / / ~ R ( ' ' ` ` ' ' ' ` ( / H G G G G H ` ( ' ` ( G Z s & X X O $ $ : : : : : : : t y y 7 4 , 4 > ; : : : : ",
": : : : : : , 4 , , , , > < : : : : : : : : : : : : , 4 4 4 4 , > , 7 t y e e 4 > , 4 4 4 4 4 4 4 4 4 4 4 4 4 4 , , 4 4 4 4 4 4 4 4 4 , , 4 4 4 4 4 4 4 4 4 4 4 4 4 4 4 , 7 y y e t 4 4 4 4 4 4 4 4 4 4 4 4 4 4 4 4 4 4 4 4 4 4 4 4 4 4 4 4 4 4 4 4 4 4 4 4 4 4 4 4 4 4 4 4 4 4 4 7 7 y y t 7 , 4 4 4 4 4 4 4 4 4 4 4 4 4 4 4 4 4 4 4 4 4 4 4 4 4 4 4 4 4 4 4 4 4 4 4 4 > o d.:.R ` ' ' ' ' 3.1.] y z ` ` ' ' ' ' ' ' ' ' ' ' ' ( ` ' ' ` / F G G G G G G F H ( / s M G G M Z c >   X O : : : : : : : 7 t 7 4 , 4 , > > : : : : ",
": : : : : : , , > : : : : : : : : : : : : : < < > > , 4 4 4 4 , 7 y t t t 7 4 4 , 4 4 4 4 4 4 4 4 4 4 4 4 4 4 4 4 4 4 4 4 4 4 4 4 4 4 4 4 4 4 4 4 4 4 4 4 4 4 4 4 4 4 , 7 7 y y t 7 4 4 4 4 4 4 4 4 4 4 4 4 4 4 4 4 4 4 4 4 4 4 4 4 4 4 4 4 4 4 4 4 4 4 4 4 4 4 4 4 4 4 4 4 4 4 4 y y y 7 4 4 4 4 4 4 4 4 4 4 4 4 4 4 4 4 4 4 4 , , 4 4 4 4 4 4 4 4 4 4 4 4 4 4 4 4 4 4 > X s.] R ` ' ' ' ' ] 1.' R ( ' ' ' ' ' ' ' ' ' ' ' ' ' ` ` ' ' ` ( ( ` ( ( ( ( / / / ( s t F R G Z Z / a.O.$ X $ : : : ; : , , 4 4 4 4 4 4 4 , , > : : "
};
